;FLAVOR:Marlin
;TIME:923
;Filament used: 3.34872m
;Layer height: 0.8
;MINX:-43.257
;MINY:-26.275
;MINZ:0.7
;MAXX:43.109
;MAXY:34.233
;MAXZ:7.9
;Generated with Cura_SteamEngine 5.2.2
;M104 S200
;M105
;M109 S200
M82 ;absolute extrusion mode
;G28 ;Home
G1 Z15.0 F6000 ;Move the platform down 15mm
;Prime the extruder
G92 E0
G1 F200 E3
G92 E0
G92 E0
G92 E0
;LAYER_COUNT:10
;LAYER:0
;M107
M106 S255
G0 F2400 X7.98 Y10.013 Z0.7
;TYPE:SKIRT
G1 F600 X7.299 Y10.862 E0.31675
G1 X6.607 Y11.662 E0.62458
G1 X5.712 Y12.61 E1.004
G1 X5.335 Y12.982 E1.15814
G1 X4.168 Y14.055 E1.61951
G1 X2.936 Y15.049 E2.0802
G1 X1.86 Y15.838 E2.46851
G1 X0.845 Y16.529 E2.82586
G1 X0.2 Y16.941 E3.0486
G1 X-.473 Y17.323 E3.27381
G1 X-.722 Y17.461 E3.35666
G1 X-1.318 Y17.955 E3.58195
G1 X-1.962 Y18.386 E3.80747
G1 X-2.768 Y18.803 E4.07157
G1 X-3.281 Y19.03 E4.23483
G1 X-4.399 Y19.487 E4.58633
G1 X-5.496 Y19.863 E4.92382
G1 X-6.718 Y20.233 E5.2954
G1 X-8.302 Y20.627 E5.77043
G1 X-8.456 Y21.332 E5.98044
G1 X-8.699 Y22.067 E6.20573
G1 X-8.776 Y22.24 E6.26084
G1 X-8.93 Y22.926 E6.46545
G1 X-9.133 Y23.642 E6.68204
G1 X-9.302 Y24.142 E6.83564
G1 X-9.603 Y24.895 E7.07164
G1 X-9.865 Y25.46 E7.25289
G1 X-10.213 Y26.121 E7.47029
G1 X-10.479 Y26.571 E7.62242
G1 X-10.869 Y27.166 E7.82947
G1 X-11.229 Y27.661 E8.00759
G1 X-11.662 Y28.201 E8.20903
G1 X-11.996 Y28.581 E8.35627
G1 X-12.57 Y29.167 E8.59499
G1 X-13.15 Y29.697 E8.82365
G1 X-13.867 Y30.275 E9.09167
G1 X-14.329 Y30.603 E9.25656
G1 X-15.106 Y31.087 E9.52297
G1 X-15.765 Y31.443 E9.74096
G1 X-16.194 Y31.64 E9.87834
G1 X-16.767 Y32.165 E10.10451
G1 X-17.52 Y32.724 E10.37744
G1 X-18.394 Y33.235 E10.67208
G1 X-19.245 Y33.614 E10.94319
G1 X-19.958 Y33.858 E11.16251
G1 X-20.835 Y34.07 E11.42509
G1 X-21.738 Y34.183 E11.68994
G1 X-22.358 Y34.223 E11.87075
G1 X-23.132 Y34.233 E12.09602
G1 X-24.281 Y34.099 E12.43268
G1 X-24.925 Y33.973 E12.62365
G1 X-25.994 Y33.681 E12.94616
G1 X-26.518 Y33.495 E13.10798
G1 X-27.585 Y33.034 E13.44624
G1 X-28.389 Y33.119 E13.68153
G1 X-29.528 Y33.197 E14.01379
G1 X-30.634 Y33.209 E14.33568
G1 X-31.405 Y33.177 E14.56026
G1 X-32.264 Y33.098 E14.8113
G1 X-32.938 Y33.005 E15.00931
G1 X-33.626 Y32.878 E15.21292
G1 X-34.391 Y32.695 E15.44184
G1 X-35.044 Y32.502 E15.64
G1 X-35.949 Y32.17 E15.92055
G1 X-36.551 Y31.904 E16.11209
G1 X-37.52 Y31.388 E16.43158
G1 X-38.064 Y31.045 E16.61874
G1 X-38.905 Y30.444 E16.91957
G1 X-39.727 Y29.69 E17.24419
G1 X-40.159 Y29.239 E17.42594
G1 X-40.75 Y28.555 E17.68902
G1 X-41.282 Y27.777 E17.96331
G1 X-41.843 Y26.809 E18.28891
G1 X-42.116 Y26.245 E18.47127
G1 X-42.493 Y25.309 E18.76493
G1 X-42.686 Y24.719 E18.94559
G1 X-42.901 Y23.911 E19.18893
G1 X-43.027 Y23.304 E19.36934
G1 X-43.143 Y22.559 E19.58877
G1 X-43.22 Y21.822 E19.80442
G1 X-43.257 Y20.797 E20.10292
G1 X-43.234 Y20.096 E20.30704
G1 X-43.178 Y19.394 E20.51199
G1 X-43.114 Y18.892 E20.65927
G1 X-42.912 Y17.805 E20.98103
G1 X-42.473 Y16.444 E21.39721
G1 X-42.051 Y15.536 E21.68861
G1 X-41.605 Y14.778 E21.94456
G1 X-41.051 Y14.021 E22.21756
G1 X-40.351 Y13.277 E22.51485
G1 X-40.37 Y12.753 E22.66745
G1 X-40.319 Y11.98 E22.8929
G1 X-40.188 Y11.217 E23.11821
G1 X-39.979 Y10.471 E23.34367
G1 X-39.695 Y9.751 E23.56892
G1 X-39.36 Y9.102 E23.78147
G1 X-39.087 Y8.631 E23.93991
G1 X-38.664 Y7.982 E24.16536
G1 X-38.211 Y7.404 E24.37908
G1 X-37.59 Y6.742 E24.64324
G1 X-37.004 Y6.226 E24.87047
G1 X-36.387 Y5.758 E25.09585
G1 X-35.294 Y5.125 E25.46343
G1 X-34.469 Y4.775 E25.72424
G1 X-34.825 Y3.796 E26.02741
G1 X-35.015 Y3.038 E26.25483
G1 X-35.127 Y2.466 E26.42446
G1 X-35.254 Y1.581 E26.68466
G1 X-35.281 Y0.68 E26.94699
G1 X-35.262 Y-.194 E27.20141
G1 X-35.148 Y-1.077 E27.46052
G1 X-35.01 Y-1.839 E27.68588
G1 X-34.859 Y-2.385 E27.85075
G1 X-34.683 Y-2.94 E28.0202
G1 X-34.411 Y-3.665 E28.24555
G1 X-34.078 Y-4.337 E28.46381
G1 X-33.793 Y-4.846 E28.63359
G1 X-33.38 Y-5.501 E28.85894
G1 X-32.862 Y-6.156 E29.10197
G1 X-32.473 Y-6.595 E29.27267
G1 X-31.931 Y-7.147 E29.49781
G1 X-31.333 Y-7.641 E29.72354
G1 X-30.866 Y-7.988 E29.89287
G1 X-30.222 Y-8.417 E30.11806
G1 X-29.573 Y-8.769 E30.33293
G1 X-28.87 Y-9.092 E30.55808
G1 X-28.137 Y-9.341 E30.78338
G1 X-27.382 Y-9.513 E31.00873
G1 X-26.613 Y-9.606 E31.23416
G1 X-25.839 Y-9.62 E31.45945
G1 X-25.067 Y-9.553 E31.68497
G1 X-24.307 Y-9.408 E31.91014
G1 X-23.414 Y-9.128 E32.1825
G1 X-23.212 Y-9.051 E32.24542
G1 X-22.957 Y-9.031 E32.31986
G1 X-22.861 Y-9.487 E32.45547
G1 X-22.706 Y-10 E32.61144
G1 X-22.499 Y-10.605 E32.79753
G1 X-22.211 Y-11.324 E33.02294
G1 X-21.748 Y-12.221 E33.31671
G1 X-22.203 Y-12.807 E33.53263
G1 X-22.708 Y-13.626 E33.81264
G1 X-23.101 Y-14.45 E34.07833
G1 X-23.385 Y-15.261 E34.3284
G1 X-23.53 Y-15.767 E34.48159
G1 X-23.704 Y-16.521 E34.70679
G1 X-23.8 Y-17.29 E34.93233
G1 X-23.82 Y-17.833 E35.09046
G1 X-23.82 Y-18.454 E35.27119
G1 X-23.78 Y-19.227 E35.49645
G1 X-23.661 Y-19.992 E35.72177
G1 X-23.463 Y-20.741 E35.94723
G1 X-23.189 Y-21.465 E36.17252
G1 X-22.842 Y-22.158 E36.39807
G1 X-22.425 Y-22.81 E36.62331
G1 X-21.767 Y-23.631 E36.92951
G1 X-21.06 Y-24.339 E37.2207
G1 X-20.459 Y-24.828 E37.44619
G1 X-19.811 Y-25.252 E37.67155
G1 X-19.123 Y-25.607 E37.89686
G1 X-18.402 Y-25.89 E38.12228
G1 X-17.656 Y-26.096 E38.34751
G1 X-16.892 Y-26.225 E38.573
G1 X-16.025 Y-26.274 E38.82572
G1 X-10.417 Y-26.269 E40.4578
G1 X-5.779 Y-26.275 E41.80758
G1 X-5.005 Y-26.236 E42.03312
G1 X-4.24 Y-26.118 E42.25839
G1 X-3.491 Y-25.921 E42.48378
G1 X-2.767 Y-25.648 E42.70896
G1 X-2.074 Y-25.302 E42.93439
G1 X-1.421 Y-24.886 E43.15971
G1 X-.814 Y-24.405 E43.3851
G1 X-.26 Y-23.864 E43.61046
G1 X0.236 Y-23.269 E43.83589
G1 X0.667 Y-22.626 E44.06117
G1 X1.03 Y-21.942 E44.28653
G1 X1.32 Y-21.224 E44.51189
G1 X1.535 Y-20.48 E44.73727
G1 X1.659 Y-19.787 E44.94215
G1 X2.349 Y-18.68 E45.32178
G1 X3.29 Y-17.292 E45.8098
G1 X3.628 Y-16.779 E45.98859
G1 X3.891 Y-16.348 E46.13553
G1 X4.15 Y-15.89 E46.28866
G1 X4.39 Y-15.409 E46.4451
G1 X5.933 Y-15.42 E46.89417
G1 X6.9 Y-15.406 E47.17562
G1 X7.595 Y-15.385 E47.37797
G1 X8.517 Y-15.343 E47.64658
G1 X9.324 Y-15.293 E47.88189
G1 X10.01 Y-15.24 E48.08212
G1 X10.826 Y-15.163 E48.32066
G1 X11.769 Y-15.057 E48.59682
G1 X12.561 Y-14.952 E48.82933
G1 X13.366 Y-14.832 E49.0662
G1 X14.034 Y-14.721 E49.26327
G1 X14.923 Y-14.559 E49.52625
G1 X15.77 Y-14.389 E49.77767
G1 X17.308 Y-14.043 E50.23645
G1 X18.028 Y-13.865 E50.4523
G1 X18.769 Y-13.64 E50.67767
G1 X19.017 Y-13.536 E50.75594
G1 X19.681 Y-13.455 E50.95061
G1 X20.683 Y-13.208 E51.25095
G1 X21.563 Y-12.923 E51.52015
G1 X22.551 Y-12.579 E51.82461
G1 X23.516 Y-12.219 E52.12436
G1 X24.304 Y-11.906 E52.37111
G1 X24.96 Y-11.632 E52.57801
G1 X25.865 Y-11.232 E52.86597
G1 X26.655 Y-10.866 E53.11936
G1 X27.345 Y-10.53 E53.34271
G1 X28.022 Y-10.156 E53.5678
G1 X28.658 Y-9.713 E53.79336
G1 X29.244 Y-9.208 E54.0185
G1 X29.398 Y-9.044 E54.08397
G1 X29.874 Y-8.924 E54.22683
G1 X30.601 Y-8.658 E54.45212
G1 X31.395 Y-8.27 E54.70931
G1 X32.171 Y-7.78 E54.9764
G1 X32.632 Y-7.454 E55.14072
G1 X33.254 Y-7.071 E55.35331
G1 X34.287 Y-6.359 E55.71843
G1 X35.074 Y-5.794 E56.00038
G1 X35.851 Y-5.212 E56.28291
G1 X36.616 Y-4.613 E56.56567
G1 X37.386 Y-3.98 E56.85576
G1 X37.959 Y-3.484 E57.07632
G1 X38.671 Y-2.83 E57.35768
G1 X39.484 Y-2.027 E57.69023
G1 X40.192 Y-1.244 E57.99745
G1 X40.677 Y-.641 E58.22266
G1 X41.147 Y0.012 E58.45681
G1 X41.64 Y0.781 E58.72265
G1 X42.085 Y1.56 E58.98374
G1 X42.461 Y2.44 E59.26224
G1 X42.729 Y3.167 E59.48773
G1 X42.92 Y3.917 E59.71297
G1 X43.051 Y4.761 E59.96154
G1 X43.109 Y5.709 E60.23795
G1 X43.075 Y6.483 E60.46342
G1 X42.962 Y7.249 E60.68876
G1 X42.771 Y7.999 E60.91399
G1 X42.51 Y8.744 E61.14373
G1 X42.119 Y9.608 E61.41972
G1 X41.729 Y10.277 E61.64509
G1 X41.272 Y10.902 E61.87042
G1 X40.746 Y11.499 E62.10198
G1 X40.07 Y12.138 E62.37269
G1 X39.456 Y12.609 E62.5979
G1 X38.796 Y13.014 E62.82326
G1 X37.917 Y13.43 E63.10627
G1 X37.064 Y13.725 E63.36895
G1 X36.31 Y13.902 E63.59434
G1 X35.542 Y14 E63.81966
G1 X34.491 Y14.018 E64.12558
G1 X33.504 Y13.929 E64.41399
G1 X32.245 Y13.659 E64.78872
G1 X31.009 Y13.203 E65.17213
G1 X30.103 Y12.792 E65.46166
G1 X27.587 Y11.508 E66.28372
G1 X26.427 Y10.947 E66.65872
G1 X25.871 Y10.693 E66.83661
G1 X25.312 Y10.451 E67.01389
G1 X24.682 Y10.194 E67.2119
G1 X24.143 Y9.988 E67.37983
G1 X23.62 Y9.802 E67.54138
G1 X23.053 Y9.62 E67.71468
G1 X22.54 Y9.471 E67.87015
G1 X22.024 Y9.337 E68.0253
G1 X21.282 Y9.168 E68.24677
G1 X20.272 Y8.995 E68.54499
G1 X19.091 Y8.856 E68.89106
G1 X18.111 Y8.769 E69.17739
G1 X17.447 Y8.727 E69.37102
G1 X16.727 Y8.695 E69.58076
G1 X15.957 Y8.621 E69.80588
G1 X15.755 Y8.58 E69.86587
G1 X15.363 Y8.632 E69.98095
G1 X14.618 Y8.676 E70.19814
G1 X13.799 Y8.745 E70.43734
G1 X13.136 Y8.841 E70.6323
G1 X12.594 Y8.937 E70.79249
G1 X11.7 Y9.123 E71.05824
G1 X10.265 Y9.454 E71.48683
G1 X7.98 Y10.013 E72.17144
G0 F2400 X7.404 Y9.125
G1 F600 X6.721 Y9.993 E72.49287
G1 X5.953 Y10.889 E72.83631
G1 X4.835 Y12.084 E73.31256
G1 X3.505 Y13.306 E73.8382
G1 X2.229 Y14.328 E74.31398
G1 X1.295 Y15.013 E74.65106
G1 X0.307 Y15.686 E74.99897
G1 X-.338 Y16.098 E75.2217
G1 X-.966 Y16.452 E75.43151
G1 X-1.252 Y16.574 E75.522
G1 X-1.624 Y16.923 E75.67044
G1 X-2.201 Y17.355 E75.88022
G1 X-2.918 Y17.776 E76.12219
G1 X-3.879 Y18.197 E76.42753
G1 X-4.768 Y18.557 E76.70666
G1 X-6.079 Y19 E77.10939
G1 X-7.126 Y19.304 E77.42668
G1 X-8.124 Y19.552 E77.72595
G1 X-8.661 Y19.662 E77.88548
G1 X-9.197 Y19.748 E78.04347
G1 X-9.304 Y20.56 E78.28182
G1 X-9.476 Y21.26 E78.4916
G1 X-9.743 Y21.972 E78.7129
G1 X-9.764 Y22.094 E78.74893
G1 X-9.904 Y22.701 E78.93022
G1 X-10.08 Y23.321 E79.11778
G1 X-10.249 Y23.821 E79.27139
G1 X-10.51 Y24.474 E79.47604
G1 X-10.772 Y25.039 E79.65729
G1 X-11.073 Y25.613 E79.84592
G1 X-11.339 Y26.063 E79.99805
G1 X-11.678 Y26.578 E80.17748
G1 X-12.038 Y27.073 E80.35561
G1 X-12.413 Y27.541 E80.53014
G1 X-12.747 Y27.921 E80.67738
G1 X-13.244 Y28.428 E80.884
G1 X-13.824 Y28.958 E81.11265
G1 X-14.446 Y29.46 E81.34527
G1 X-14.908 Y29.788 E81.51016
G1 X-15.582 Y30.207 E81.74113
G1 X-16.241 Y30.563 E81.95911
G1 X-16.778 Y30.81 E82.13113
G1 X-16.877 Y30.918 E82.17377
G1 X-17.422 Y31.407 E82.38686
G1 X-18.116 Y31.919 E82.63785
G1 X-18.856 Y32.348 E82.88678
G1 X-19.651 Y32.699 E83.1397
G1 X-20.368 Y32.929 E83.35883
G1 X-21.069 Y33.096 E83.56855
G1 X-21.803 Y33.186 E83.78377
G1 X-22.423 Y33.226 E83.96458
G1 X-23.143 Y33.232 E84.17412
G1 X-24.089 Y33.118 E84.45143
G1 X-24.733 Y32.992 E84.6424
G1 X-25.659 Y32.739 E84.92177
G1 X-26.183 Y32.553 E85.08359
G1 X-26.981 Y32.208 E85.3366
G1 X-27.366 Y32.01 E85.4626
G1 X-28.49 Y32.124 E85.79139
G1 X-29.587 Y32.197 E86.11135
G1 X-30.645 Y32.209 E86.41928
G1 X-31.313 Y32.182 E86.61384
G1 X-32.172 Y32.103 E86.86489
G1 X-32.757 Y32.022 E87.03676
G1 X-33.445 Y31.895 E87.24037
G1 X-34.107 Y31.736 E87.43851
G1 X-34.76 Y31.543 E87.63667
G1 X-35.545 Y31.255 E87.88002
G1 X-36.147 Y30.989 E88.07156
G1 X-36.987 Y30.542 E88.34848
G1 X-37.531 Y30.199 E88.53564
G1 X-38.278 Y29.666 E88.8027
G1 X-39.005 Y28.998 E89.09003
G1 X-39.437 Y28.547 E89.27178
G1 X-40.107 Y27.722 E89.58108
G1 X-40.456 Y27.212 E89.76093
G1 X-40.943 Y26.373 E90.04326
G1 X-41.216 Y25.809 E90.22561
G1 X-41.543 Y24.998 E90.4801
G1 X-41.736 Y24.408 E90.66076
G1 X-41.922 Y23.708 E90.87154
G1 X-42.048 Y23.101 E91.05196
G1 X-42.149 Y22.455 E91.24225
G1 X-42.226 Y21.718 E91.4579
G1 X-42.258 Y20.83 E91.7165
G1 X-42.235 Y20.129 E91.92062
G1 X-42.186 Y19.52 E92.09843
G1 X-42.122 Y19.018 E92.24571
G1 X-41.94 Y18.041 E92.53493
G1 X-41.542 Y16.811 E92.91117
G1 X-41.143 Y15.959 E93.18496
G1 X-40.761 Y15.316 E93.40263
G1 X-40.244 Y14.613 E93.65659
G1 X-39.627 Y13.963 E93.91741
G1 X-39.309 Y13.68 E94.04129
G1 X-39.355 Y13.313 E94.14894
G1 X-39.365 Y12.592 E94.35879
G1 X-39.295 Y11.875 E94.56844
G1 X-39.146 Y11.169 E94.77843
G1 X-38.92 Y10.485 E94.98808
G1 X-38.495 Y9.603 E95.27301
G1 X-38.222 Y9.132 E95.43145
G1 X-37.826 Y8.53 E95.64115
G1 X-37.356 Y7.952 E95.85796
G1 X-36.861 Y7.428 E96.06774
G1 X-36.359 Y6.99 E96.26162
G1 X-35.783 Y6.557 E96.47134
G1 X-34.845 Y6.018 E96.78618
G1 X-33.967 Y5.651 E97.06313
G1 X-33.054 Y5.383 E97.34004
G1 X-33.409 Y4.679 E97.5695
G1 X-33.64 Y4.134 E97.74177
G1 X-33.884 Y3.455 E97.95175
G1 X-34.034 Y2.846 E98.13428
G1 X-34.146 Y2.274 E98.30391
G1 X-34.264 Y1.219 E98.61285
G1 X-34.281 Y0.65 E98.77852
G1 X-34.231 Y-.375 E99.07718
G1 X-34.157 Y-.949 E99.24561
G1 X-34.003 Y-1.778 E99.491
G1 X-33.73 Y-2.638 E99.75359
G1 X-33.474 Y-3.312 E99.96341
G1 X-33.205 Y-3.849 E100.13821
G1 X-32.92 Y-4.358 E100.30798
G1 X-32.534 Y-4.966 E100.51757
G1 X-32.114 Y-5.493 E100.71369
G1 X-31.725 Y-5.932 E100.88439
G1 X-31.218 Y-6.444 E101.09409
G1 X-30.737 Y-6.838 E101.27504
G1 X-30.27 Y-7.185 E101.44436
G1 X-29.289 Y-7.802 E101.78163
G1 X-28.453 Y-8.181 E102.04876
G1 X-27.768 Y-8.405 E102.25851
G1 X-27.062 Y-8.552 E102.46838
G1 X-26.345 Y-8.619 E102.67795
G1 X-25.624 Y-8.607 E102.88781
G1 X-24.909 Y-8.515 E103.09761
G1 X-24.209 Y-8.344 E103.30732
G1 X-23.451 Y-8.064 E103.54249
G1 X-23.074 Y-8.039 E103.65244
G1 X-22.134 Y-7.923 E103.92808
G1 X-22.032 Y-8.575 E104.12014
G1 X-21.86 Y-9.384 E104.36084
G1 X-21.553 Y-10.281 E104.63676
G1 X-21.282 Y-10.949 E104.84655
G1 X-20.995 Y-11.5 E105.02736
G1 X-20.617 Y-12.114 E105.2372
G1 X-20.48 Y-12.289 E105.30188
G1 X-20.971 Y-12.848 E105.5184
G1 X-21.41 Y-13.419 E105.72802
G1 X-21.833 Y-14.11 E105.9638
G1 X-22.197 Y-14.88 E106.21167
G1 X-22.424 Y-15.536 E106.41369
G1 X-22.569 Y-16.042 E106.56688
G1 X-22.728 Y-16.745 E106.77664
G1 X-22.82 Y-17.559 E107.01504
G1 X-22.82 Y-18.454 E107.27551
G1 X-22.78 Y-19.174 E107.48537
G1 X-22.661 Y-19.885 E107.69517
G1 X-22.463 Y-20.578 E107.90492
G1 X-22.19 Y-21.245 E108.11466
G1 X-21.845 Y-21.878 E108.32447
G1 X-21.432 Y-22.469 E108.5343
G1 X-20.863 Y-23.122 E108.78636
G1 X-20.352 Y-23.63 E108.99606
G1 X-19.788 Y-24.079 E109.20586
G1 X-19.177 Y-24.462 E109.41573
G1 X-18.528 Y-24.776 E109.62555
G1 X-17.848 Y-25.015 E109.83531
G1 X-17.146 Y-25.178 E110.04505
G1 X-16.325 Y-25.274 E110.28561
G1 X-10.416 Y-25.269 E112.00528
G1 X-5.777 Y-25.275 E113.35535
G1 X-5.058 Y-25.236 E113.56491
G1 X-4.347 Y-25.117 E113.77471
G1 X-3.653 Y-24.921 E113.98458
G1 X-2.986 Y-24.649 E114.19421
G1 X-2.352 Y-24.305 E114.40414
G1 X-1.761 Y-23.892 E114.61397
G1 X-1.219 Y-23.417 E114.82371
G1 X-.733 Y-22.885 E115.03341
G1 X-.309 Y-22.302 E115.2432
G1 X0.048 Y-21.675 E115.45318
G1 X0.333 Y-21.014 E115.66267
G1 X0.544 Y-20.324 E115.87266
G1 X0.692 Y-19.533 E116.10685
G1 X1.019 Y-18.926 E116.30751
G1 X1.544 Y-18.085 E116.59604
G1 X2.512 Y-16.656 E117.09835
G1 X2.914 Y-16.045 E117.3112
G1 X3.28 Y-15.398 E117.52753
G1 X3.599 Y-14.751 E117.73747
G1 X3.732 Y-14.392 E117.84889
G1 X4.536 Y-14.412 E118.08295
G1 X5.939 Y-14.42 E118.49126
G1 X6.869 Y-14.406 E118.76195
G1 X7.659 Y-14.381 E118.99197
G1 X8.456 Y-14.345 E119.22416
G1 X9.247 Y-14.296 E119.4548
G1 X10.05 Y-14.233 E119.68921
G1 X10.731 Y-14.168 E119.8883
G1 X11.638 Y-14.065 E120.15396
G1 X12.415 Y-13.962 E120.38207
G1 X13.202 Y-13.845 E120.61362
G1 X13.97 Y-13.717 E120.84021
G1 X14.729 Y-13.578 E121.06477
G1 X15.392 Y-13.447 E121.26145
G1 X16.928 Y-13.105 E121.71942
G1 X17.788 Y-12.894 E121.97712
G1 X18.477 Y-12.682 E122.18692
G1 X18.795 Y-12.545 E122.28769
G1 X19.14 Y-12.524 E122.38828
G1 X19.851 Y-12.401 E122.59827
G1 X20.377 Y-12.256 E122.75706
G1 X21.234 Y-11.979 E123.01917
G1 X22.358 Y-11.586 E123.3657
G1 X23.147 Y-11.29 E123.61095
G1 X23.808 Y-11.028 E123.81788
G1 X24.574 Y-10.709 E124.05936
G1 X25.446 Y-10.324 E124.33677
G1 X26.217 Y-9.967 E124.58404
G1 X26.907 Y-9.631 E124.80739
G1 X27.536 Y-9.28 E125.01702
G1 X28.123 Y-8.861 E125.22691
G1 X28.66 Y-8.38 E125.43672
G1 X28.875 Y-8.14 E125.53049
G1 X29.508 Y-7.99 E125.71981
G1 X30.187 Y-7.747 E125.92969
G1 X31.132 Y-7.253 E126.24002
G1 X31.637 Y-6.934 E126.41386
G1 X32.114 Y-6.595 E126.58416
G1 X32.687 Y-6.247 E126.77927
G1 X33.705 Y-5.546 E127.13898
G1 X34.369 Y-5.071 E127.37657
G1 X35.126 Y-4.507 E127.6513
G1 X35.868 Y-3.93 E127.92485
G1 X36.731 Y-3.224 E128.24934
G1 X37.463 Y-2.586 E128.53193
G1 X37.993 Y-2.096 E128.742
G1 X38.756 Y-1.34 E129.05459
G1 X39.432 Y-.592 E129.34801
