; generated by PrusaSlicer 2.5.2+win64 on 2023-05-28 at 06:25:58 UTC

; 

; external perimeters extrusion width = 0.45mm
; perimeters extrusion width = 0.45mm
; infill extrusion width = 0.45mm
; solid infill extrusion width = 0.45mm
; top infill extrusion width = 0.40mm
; first layer extrusion width = 0.42mm

M107
M104 S200 ; set temperature
;TYPE:Custom
;G28 ; home all axes
G1 Z5 F5000 ; lift nozzle
M109 S200 ; set temperature and wait for it to be reached
G21 ; set units to millimeters
G90 ; use absolute coordinates
M82 ; use absolute distances for extrusion
G92 E0
; Filament gcode
M106 S255
;LAYER_CHANGE
;Z:0.3
;HEIGHT:0.3
G1 Z.3 F4800
G1 E-5 F2400
G92 E0
G1 Z1.3 F4800
G1 X15.507 Y-.008
G1 Z.3
G1 E5 F2400
;TYPE:Skirt/Brim
;WIDTH:0.42
G1 X15.512 Y10.493 E5.46577
G1 X15.152 Y12.045 E5.53643
G1 X14.343 Y13.432 E5.60765
G1 X12.699 Y14.851 E5.70399
G1 X11.617 Y15.304 E5.75601
G1 X10.462 Y15.512 E5.80807
G1 X-10.493 Y15.512 E6.73754
G1 X-12.045 Y15.152 E6.80819
G1 X-13.432 Y14.343 E6.87941
G1 X-14.851 Y12.699 E6.97575
G1 X-15.304 Y11.617 E7.02778
G1 X-15.512 Y10.462 E7.07984
G1 X-15.512 Y-10.493 E8.0093
G1 X-15.152 Y-12.045 E8.07995
G1 X-14.343 Y-13.432 E8.15117
G1 X-12.699 Y-14.851 E8.24752
G1 X-11.617 Y-15.304 E8.29955
G1 X-10.461 Y-15.512 E8.35162
G1 X10.51 Y-15.509 E9.28179
G1 X11.647 Y-15.294 E9.3331
G1 X12.702 Y-14.849 E9.38393
G1 X14.149 Y-13.66 E9.46698
G1 X15.081 Y-12.217 E9.54317
G1 X15.502 Y-10.581 E9.61809
G1 X15.507 Y-.068 E10.08441
G1 X15.154 Y-.068 F4800
G1 F2400
G1 X15.156 Y10.473 E10.55192
G1 X14.813 Y11.937 E10.61864
G1 X14.052 Y13.226 E10.68502
G1 X12.535 Y14.535 E10.77389
G1 X11.533 Y14.957 E10.82212
G1 X10.446 Y15.156 E10.87116
G1 X-10.473 Y15.156 E11.79898
G1 X-11.937 Y14.813 E11.8657
G1 X-13.226 Y14.052 E11.93209
G1 X-14.535 Y12.535 E12.02096
G1 X-14.957 Y11.533 E12.06918
G1 X-15.156 Y10.446 E12.11823
G1 X-15.156 Y-10.473 E13.04605
G1 X-14.813 Y-11.937 E13.11277
G1 X-14.052 Y-13.226 E13.17915
G1 X-12.535 Y-14.535 E13.26802
G1 X-11.533 Y-14.957 E13.31625
G1 X-10.445 Y-15.157 E13.36532
G1 X10.493 Y-15.153 E14.29403
G1 X11.526 Y-14.959 E14.34064
G1 X12.54 Y-14.532 E14.38944
G1 X13.9 Y-13.404 E14.4678
G1 X14.765 Y-12.05 E14.53907
G1 X15.151 Y-10.516 E14.60924
G1 X15.154 Y-.128 E15.07002
G1 X14.801 Y-.128 F4800
G1 F2400
G1 X14.801 Y10.451 E15.53926
G1 X14.473 Y11.828 E15.602
G1 X13.762 Y13.019 E15.66354
G1 X12.371 Y14.218 E15.74499
G1 X11.413 Y14.622 E15.79111
G1 X10.43 Y14.801 E15.83544
G1 X-10.451 Y14.801 E16.76162
G1 X-11.828 Y14.473 E16.82436
G1 X-13.019 Y13.762 E16.88591
G1 X-14.218 Y12.371 E16.96736
G1 X-14.622 Y11.413 E17.01348
G1 X-14.801 Y10.43 E17.05781
G1 X-14.801 Y-10.451 E17.98399
G1 X-14.473 Y-11.828 E18.04673
G1 X-13.762 Y-13.019 E18.10827
G1 X-12.371 Y-14.218 E18.18972
G1 X-11.413 Y-14.622 E18.23585
G1 X-10.429 Y-14.801 E18.2802
G1 X10.476 Y-14.797 E19.20746
G1 X11.44 Y-14.614 E19.25098
G1 X12.376 Y-14.215 E19.29609
G1 X13.65 Y-13.15 E19.36976
G1 X14.449 Y-11.886 E19.43608
G1 X14.801 Y-10.453 E19.50154
G1 X14.801 Y-.188 E19.95684
G1 X14.445 Y-.188 F4800
G1 F2400
G1 X14.445 Y10.431 E20.42783
G1 X14.154 Y11.669 E20.48423
G1 X13.471 Y12.812 E20.54328
G1 X12.206 Y13.902 E20.61735
G1 X11.329 Y14.276 E20.65966
G1 X10.413 Y14.445 E20.70096
G1 X-10.431 Y14.445 E21.6255
G1 X-11.669 Y14.154 E21.6819
G1 X-12.812 Y13.471 E21.74095
G1 X-13.902 Y12.206 E21.81502
G1 X-14.276 Y11.329 E21.85733
G1 X-14.445 Y10.413 E21.89862
G1 X-14.445 Y-10.431 E22.82317
G1 X-14.154 Y-11.669 E22.87957
G1 X-13.471 Y-12.812 E22.93862
G1 X-12.206 Y-13.902 E23.01269
G1 X-11.329 Y-14.276 E23.055
G1 X-10.413 Y-14.445 E23.09631
G1 X10.459 Y-14.442 E24.02207
G1 X11.353 Y-14.268 E24.06247
G1 X12.211 Y-13.899 E24.10388
G1 X13.4 Y-12.896 E24.17289
G1 X14.111 Y-11.772 E24.23189
G1 X14.445 Y-10.431 E24.2932
G1 X14.445 Y-.248 E24.74486
G1 X14.09 Y-.248 F4800
G1 F2400
G1 X14.09 Y10.41 E25.21757
G1 X13.815 Y11.558 E25.26995
G1 X13.182 Y12.603 E25.32413
G1 X12.04 Y13.586 E25.39096
G1 X11.243 Y13.93 E25.42948
G1 X10.396 Y14.09 E25.46768
G1 X-10.41 Y14.09 E26.39054
G1 X-11.558 Y13.815 E26.44292
G1 X-12.603 Y13.182 E26.4971
G1 X-13.586 Y12.04 E26.56393
G1 X-13.93 Y11.243 E26.60245
G1 X-14.09 Y10.396 E26.64065
G1 X-14.09 Y-10.41 E27.56351
G1 X-13.815 Y-11.558 E27.61589
G1 X-13.182 Y-12.603 E27.67006
G1 X-12.04 Y-13.586 E27.7369
G1 X-11.243 Y-13.931 E27.77542
G1 X-10.396 Y-14.09 E27.81364
G1 X10.441 Y-14.086 E28.73786
G1 X11.265 Y-13.923 E28.7751
G1 X12.044 Y-13.584 E28.81279
G1 X13.148 Y-12.644 E28.87711
G1 X13.794 Y-11.608 E28.93126
G1 X14.09 Y-10.409 E28.98602
G1 X14.09 Y-.308 E29.43408
G1 X13.734 Y-.308 F4800
G1 F2400
G1 X13.734 Y10.388 E29.90849
G1 X13.476 Y11.446 E29.95679
G1 X12.894 Y12.393 E30.00609
G1 X11.873 Y13.271 E30.06583
G1 X11.156 Y13.585 E30.10055
G1 X10.379 Y13.734 E30.13562
G1 X-10.388 Y13.734 E31.05676
G1 X-11.446 Y13.476 E31.10506
G1 X-12.393 Y12.894 E31.15436
G1 X-13.271 Y11.873 E31.2141
G1 X-13.585 Y11.156 E31.24882
G1 X-13.734 Y10.379 E31.28389
G1 X-13.734 Y-10.388 E32.20503
G1 X-13.476 Y-11.446 E32.25333
G1 X-12.894 Y-12.393 E32.30263
G1 X-11.873 Y-13.271 E32.36237
G1 X-11.156 Y-13.585 E32.39709
G1 X-10.379 Y-13.734 E32.43217
G1 X10.423 Y-13.731 E33.35484
G1 X11.175 Y-13.579 E33.38885
G1 X11.876 Y-13.27 E33.42282
G1 X12.894 Y-12.393 E33.48243
G1 X13.476 Y-11.446 E33.53173
G1 X13.734 Y-10.388 E33.58003
G1 X13.734 Y-.368 E34.02449
G1 X13.378 Y-.368 F4800
G1 F2400
G1 X13.378 Y10.367 E34.50065
G1 X13.157 Y11.287 E34.54258
G1 X12.639 Y12.144 E34.58701
G1 X11.705 Y12.957 E34.64192
G1 X11.032 Y13.251 E34.67453
G1 X10.363 Y13.378 E34.70473
G1 X-10.367 Y13.378 E35.62421
G1 X-11.287 Y13.157 E35.66614
G1 X-12.144 Y12.639 E35.71058
G1 X-12.957 Y11.705 E35.76549
G1 X-13.251 Y11.032 E35.79809
G1 X-13.378 Y10.363 E35.8283
G1 X-13.378 Y-10.367 E36.74778
G1 X-13.157 Y-11.287 E36.78971
G1 X-12.639 Y-12.144 E36.83414
G1 X-11.705 Y-12.957 E36.88905
G1 X-11.032 Y-13.251 E36.92166
G1 X-10.362 Y-13.378 E36.95187
G1 X10.404 Y-13.375 E37.87298
G1 X11.083 Y-13.235 E37.90372
G1 X11.706 Y-12.956 E37.93396
G1 X12.639 Y-12.144 E37.98885
G1 X13.157 Y-11.287 E38.03329
G1 X13.378 Y-10.367 E38.07522
G1 X13.378 Y-.428 E38.51609
G1 X13.023 Y-.428 F4800
G1 F2400
G1 X13.023 Y10.347 E38.99401
G1 X12.837 Y11.129 E39.02966
G1 X12.382 Y11.897 E39.06924
G1 X11.535 Y12.643 E39.11932
G1 X10.943 Y12.906 E39.14805
G1 X10.345 Y13.023 E39.17507
G1 X-10.347 Y13.023 E40.09287
G1 X-11.129 Y12.837 E40.12852
G1 X-11.897 Y12.382 E40.1681
G1 X-12.643 Y11.535 E40.21818
G1 X-12.906 Y10.943 E40.24691
G1 X-13.023 Y10.345 E40.27393
G1 X-13.023 Y-10.347 E41.19173
G1 X-12.837 Y-11.129 E41.22739
G1 X-12.382 Y-11.897 E41.26696
G1 X-11.535 Y-12.643 E41.31705
G1 X-10.943 Y-12.906 E41.34578
G1 X-10.345 Y-13.023 E41.3728
G1 X10.386 Y-13.019 E42.29234
G1 X10.956 Y-12.902 E42.31812
G1 X11.535 Y-12.643 E42.34628
G1 X12.382 Y-11.897 E42.39634
G1 X12.837 Y-11.129 E42.43592
G1 X13.023 Y-10.347 E42.47157
G1 X13.023 Y-.488 E42.90889
G1 X12.667 Y-.488 F4800
G1 F2400
G1 X12.667 Y10.327 E43.38857
G1 X12.516 Y10.975 E43.41806
G1 X12.123 Y11.651 E43.45277
G1 X11.363 Y12.331 E43.49802
G1 X10.852 Y12.562 E43.52286
G1 X10.327 Y12.667 E43.54662
G1 X-10.327 Y12.667 E44.46273
G1 X-10.975 Y12.516 E44.49222
G1 X-11.651 Y12.123 E44.52693
G1 X-12.331 Y11.363 E44.57218
G1 X-12.562 Y10.852 E44.59702
G1 X-12.667 Y10.327 E44.62078
G1 X-12.667 Y-10.327 E45.53689
G1 X-12.516 Y-10.975 E45.56638
G1 X-12.123 Y-11.651 E45.60109
G1 X-11.363 Y-12.331 E45.64633
G1 X-10.852 Y-12.562 E45.67118
G1 X-10.327 Y-12.667 E45.69495
G1 X10.367 Y-12.664 E46.61283
G1 X10.862 Y-12.559 E46.63525
G1 X11.363 Y-12.331 E46.65966
G1 X12.123 Y-11.651 E46.7049
G1 X12.516 Y-10.975 E46.73961
G1 X12.667 Y-10.327 E46.7691
G1 X12.667 Y-.548 E47.20286
G1 X12.312 Y-.548 F4800
G1 F2400
G1 X12.312 Y10.307 E47.68434
G1 X12.194 Y10.823 E47.7078
G1 X11.862 Y11.408 E47.73763
G1 X11.188 Y12.02 E47.77802
G1 X10.759 Y12.218 E47.79896
G1 X10.308 Y12.312 E47.81939
G1 X-10.307 Y12.312 E48.73379
G1 X-10.823 Y12.194 E48.75725
G1 X-11.408 Y11.862 E48.78709
G1 X-12.02 Y11.188 E48.82748
G1 X-12.218 Y10.759 E48.84842
G1 X-12.312 Y10.308 E48.86884
G1 X-12.312 Y-10.307 E49.78324
G1 X-12.194 Y-10.823 E49.8067
G1 X-11.862 Y-11.408 E49.83654
G1 X-11.188 Y-12.02 E49.87693
G1 X-10.759 Y-12.218 E49.89787
G1 X-10.308 Y-12.312 E49.9183
G1 X10.347 Y-12.308 E50.83446
G1 X10.765 Y-12.216 E50.85345
G1 X11.188 Y-12.02 E50.8741
G1 X11.862 Y-11.408 E50.91449
G1 X12.194 Y-10.823 E50.94433
G1 X12.312 Y-10.307 E50.96779
G1 X12.312 Y-.608 E51.39802
G1 X11.956 Y-.608 F4800
G1 F2400
G1 X11.956 Y10.288 E51.88131
G1 X11.869 Y10.675 E51.89889
G1 X11.598 Y11.168 E51.92383
G1 X11.01 Y11.711 E51.95936
G1 X10.663 Y11.875 E51.97639
G1 X10.289 Y11.956 E51.99337
G1 X-10.288 Y11.956 E52.90605
G1 X-10.675 Y11.869 E52.92364
G1 X-11.168 Y11.598 E52.94858
G1 X-11.711 Y11.01 E52.9841
G1 X-11.875 Y10.663 E53.00113
G1 X-11.956 Y10.289 E53.01811
G1 X-11.956 Y-10.288 E53.9308
G1 X-11.869 Y-10.675 E53.94839
G1 X-11.598 Y-11.168 E53.97333
G1 X-11.01 Y-11.711 E54.00885
G1 X-10.663 Y-11.875 E54.02588
G1 X-10.289 Y-11.956 E54.04286
G1 X10.326 Y-11.952 E54.95722
G1 X10.665 Y-11.874 E54.97266
G1 X11.01 Y-11.711 E54.98958
G1 X11.598 Y-11.168 E55.0251
G1 X11.869 Y-10.675 E55.05004
G1 X11.956 Y-10.288 E55.06763
G1 X11.956 Y-.668 E55.49435
G1 X11.6 Y-.668 F4800
G1 F2400
G1 X11.6 Y10.27 E55.97948
G1 X11.543 Y10.532 E55.99138
G1 X11.332 Y10.931 E56.01141
G1 X10.832 Y11.402 E56.04188
G1 X10.53 Y11.545 E56.0567
G1 X10.27 Y11.6 E56.06847
G1 X-10.27 Y11.6 E56.97952
G1 X-10.532 Y11.543 E56.99142
G1 X-10.931 Y11.332 E57.01145
G1 X-11.402 Y10.832 E57.04192
G1 X-11.545 Y10.53 E57.05674
G1 X-11.6 Y10.27 E57.06851
G1 X-11.6 Y-10.27 E57.97956
G1 X-11.543 Y-10.532 E57.99146
G1 X-11.332 Y-10.931 E58.01149
G1 X-10.832 Y-11.402 E58.04196
G1 X-10.53 Y-11.545 E58.05678
G1 X-10.27 Y-11.6 E58.06856
G1 X10.306 Y-11.597 E58.98119
G1 X10.53 Y-11.545 E58.99142
G1 X10.832 Y-11.402 E59.00622
G1 X11.332 Y-10.931 E59.03669
G1 X11.543 Y-10.532 E59.05672
G1 X11.6 Y-10.27 E59.06861
G1 X11.6 Y-.728 E59.49186
G1 X11.245 Y-.728 F4800
G1 F2400
G1 X11.245 Y10.252 E59.97886
G1 X11.215 Y10.395 E59.98532
G1 X11.061 Y10.698 E60.00041
G1 X10.653 Y11.094 E60.02563
G1 X10.397 Y11.214 E60.03817
G1 X10.252 Y11.245 E60.04473
G1 X-10.252 Y11.245 E60.9542
G1 X-10.395 Y11.215 E60.96065
G1 X-10.698 Y11.061 E60.97574
G1 X-11.094 Y10.653 E61.00096
G1 X-11.214 Y10.397 E61.0135
G1 X-11.245 Y10.252 E61.02007
G1 X-11.245 Y-10.252 E61.92953
G1 X-11.215 Y-10.395 E61.93599
G1 X-11.061 Y-10.698 E61.95108
G1 X-10.653 Y-11.094 E61.9763
G1 X-10.397 Y-11.214 E61.98884
G1 X-10.252 Y-11.245 E61.9954
G1 X10.285 Y-11.241 E62.90631
G1 X10.395 Y-11.215 E62.91133
G1 X10.653 Y-11.094 E62.92397
G1 X11.061 Y-10.698 E62.94919
G1 X11.215 Y-10.395 E62.96428
G1 X11.245 Y-10.252 E62.97074
G1 X11.245 Y-.788 E63.39053
G1 X10.889 Y-.788 F4800
G1 F2400
G1 X10.889 Y10.236 E63.87947
G1 X10.786 Y10.472 E63.89089
G1 X10.472 Y10.786 E63.9106
G1 X10.236 Y10.889 E63.92203
G1 X-10.236 Y10.889 E64.83002
G1 X-10.472 Y10.786 E64.84145
G1 X-10.786 Y10.472 E64.86116
G1 X-10.889 Y10.236 E64.87258
G1 X-10.889 Y-10.236 E65.78058
G1 X-10.786 Y-10.472 E65.792
G1 X-10.472 Y-10.786 E65.81171
G1 X-10.236 Y-10.889 E65.82314
G1 X10.266 Y-10.883 E66.73246
G1 X10.472 Y-10.786 E66.74257
G1 X10.786 Y-10.472 E66.76228
G1 X10.889 Y-10.236 E66.7737
G1 X10.889 Y-.848 E67.1901
G1 X10.533 Y-.848 F4800
G1 F2400
G1 X10.533 Y10.183 E67.67935
G1 X10.506 Y10.248 E67.68249
G1 X10.248 Y10.506 E67.69869
G1 X10.183 Y10.533 E67.70183
G1 X-10.183 Y10.533 E68.60513
G1 X-10.248 Y10.506 E68.60827
G1 X-10.506 Y10.248 E68.62447
G1 X-10.533 Y10.183 E68.62761
G1 X-10.533 Y-10.183 E69.53091
G1 X-10.506 Y-10.248 E69.53405
G1 X-10.248 Y-10.506 E69.55025
G1 X-10.183 Y-10.533 E69.55339
G1 X10.183 Y-10.533 E70.45669
G1 X10.248 Y-10.506 E70.45983
G1 X10.506 Y-10.248 E70.47603
G1 X10.533 Y-10.183 E70.47917
G1 X10.533 Y-.908 E70.89056
G1 X10.178 Y-.908 F4800
G1 F2400
G1 X10.178 Y10.074 E71.37764
G1 X10.074 Y10.178 E71.38417
G1 X-10.074 Y10.178 E72.2778
G1 X-10.178 Y10.074 E72.28433
G1 X-10.178 Y-10.074 E73.17796
G1 X-10.074 Y-10.178 E73.1845
G1 X10.074 Y-10.178 E74.07813
G1 X10.178 Y-10.074 E74.08466
G1 X10.178 Y-.968 E74.48855
G1 E69.48855
G92 E0
G1 Z1.3 F4800
G1 X-9.079 Y-9.079
G1 Z.3
G1 E5 F2400
;TYPE:Perimeter
;WIDTH:0.42
G1 X9.079 Y-9.079 E5.80537
G1 X9.079 Y9.079 E6.61075
G1 X-9.079 Y9.079 E7.41612
G1 X-9.079 Y-9.019 E8.21883
G1 X-9.434 Y-9.434 F4800
G1 F2400
G1 X9.434 Y-9.434 E9.05575
G1 X9.434 Y9.434 E9.89267
G1 X-9.434 Y9.434 E10.72959
G1 X-9.434 Y-9.374 E11.56385
G1 X-9.79 Y-9.79 F4800
;TYPE:External perimeter
G1 F2400
G1 X9.79 Y-9.79 E12.43231
G1 X9.79 Y9.79 E13.30078
G1 X-9.79 Y9.79 E14.16925
G1 X-9.79 Y-9.73 E15.03505
G1 X-9.404 Y-9.686 F4800
G1 E10.03505 F2400
G92 E0
G1 Z1.3 F4800
G1 X-8.972 Y8.248
G1 Z.3
G1 E5 F2400
;TYPE:Solid infill
;WIDTH:0.42251
G1 X-8.408 Y8.812 E5.03563
G1 X-7.902 Y8.812 E5.05826
G1 X-8.812 Y7.902 E5.11577
G1 X-8.812 Y7.395 E5.1384
G1 X-7.395 Y8.812 E5.22791
G1 X-6.889 Y8.812 E5.25053
G1 X-8.812 Y6.889 E5.37204
G1 X-8.812 Y6.382 E5.39466
G1 X-6.382 Y8.812 E5.54816
G1 X-5.876 Y8.812 E5.57078
G1 X-8.812 Y5.876 E5.75628
G1 X-8.812 Y5.369 E5.7789
G1 X-5.369 Y8.812 E5.99639
G1 X-4.863 Y8.812 E6.01901
G1 X-8.812 Y4.863 E6.26849
G1 X-8.812 Y4.356 E6.29111
G1 X-4.356 Y8.812 E6.57259
G1 X-3.85 Y8.812 E6.59521
G1 X-8.812 Y3.85 E6.90868
G1 X-8.812 Y3.343 E6.9313
G1 X-3.343 Y8.812 E7.27676
G1 X-2.837 Y8.812 E7.29938
G1 X-8.812 Y2.837 E7.67684
G1 X-8.812 Y2.33 E7.69946
G1 X-2.33 Y8.812 E8.10891
G1 X-1.824 Y8.812 E8.13153
G1 X-8.812 Y1.824 E8.57298
G1 X-8.812 Y1.317 E8.5956
G1 X-1.317 Y8.812 E9.06904
G1 X-.811 Y8.812 E9.09166
G1 X-8.812 Y.811 E9.59709
G1 X-8.812 Y.304 E9.61971
G1 X-.304 Y8.812 E10.15713
G1 X.202 Y8.812 E10.17976
G1 X-8.812 Y-.202 E10.74917
G1 X-8.812 Y-.708 E10.7718
G1 X.708 Y8.812 E11.37321
G1 X1.215 Y8.812 E11.39583
G1 X-8.812 Y-1.215 E12.02924
G1 X-8.812 Y-1.721 E12.05186
G1 X1.721 Y8.812 E12.71726
G1 X2.228 Y8.812 E12.73988
G1 X-8.812 Y-2.228 E13.43727
G1 X-8.812 Y-2.734 E13.45989
G1 X2.734 Y8.812 E14.18928
G1 X3.241 Y8.812 E14.2119
G1 X-8.812 Y-3.241 E14.97328
G1 X-8.812 Y-3.747 E14.99591
G1 X3.747 Y8.812 E15.78928
G1 X4.254 Y8.812 E15.8119
G1 X-8.812 Y-4.254 E16.63727
G1 X-8.812 Y-4.76 E16.65989
G1 X4.76 Y8.812 E17.51725
G1 X5.267 Y8.812 E17.53987
G1 X-8.812 Y-5.267 E18.42923
G1 X-8.812 Y-5.773 E18.45185
G1 X5.773 Y8.812 E19.3732
G1 X6.28 Y8.812 E19.39582
G1 X-8.812 Y-6.28 E20.34916
G1 X-8.812 Y-6.786 E20.37179
G1 X6.786 Y8.812 E21.35712
G1 X7.293 Y8.812 E21.37974
G1 X-8.812 Y-7.293 E22.39707
G1 X-8.812 Y-7.799 E22.4197
G1 X7.799 Y8.812 E23.46902
G1 X8.306 Y8.812 E23.49164
G1 X-8.812 Y-8.306 E24.57296
G1 X-8.812 Y-8.812 E24.59558
G1 X8.812 Y8.812 E25.70889
G1 X8.812 Y8.306 E25.73151
G1 X-8.306 Y-8.812 E26.81283
G1 X-7.799 Y-8.812 E26.83546
G1 X8.812 Y7.799 E27.88479
G1 X8.812 Y7.293 E27.90741
G1 X-7.293 Y-8.812 E28.92474
G1 X-6.786 Y-8.812 E28.94737
G1 X8.812 Y6.786 E29.93271
G1 X8.812 Y6.28 E29.95533
G1 X-6.28 Y-8.812 E30.90868
G1 X-5.773 Y-8.812 E30.9313
G1 X8.812 Y5.773 E31.85265
G1 X8.812 Y5.267 E31.87528
G1 X-5.267 Y-8.812 E32.76464
G1 X-4.76 Y-8.812 E32.78726
G1 X8.812 Y4.76 E33.64463
G1 X8.812 Y4.254 E33.66725
G1 X-4.254 Y-8.812 E34.49262
G1 X-3.747 Y-8.812 E34.51525
G1 X8.812 Y3.747 E35.30862
G1 X8.812 Y3.241 E35.33125
G1 X-3.241 Y-8.812 E36.09263
G1 X-2.734 Y-8.812 E36.11526
G1 X8.812 Y2.734 E36.84465
G1 X8.812 Y2.228 E36.86727
G1 X-2.228 Y-8.812 E37.56467
G1 X-1.722 Y-8.812 E37.58729
G1 X8.812 Y1.722 E38.2527
G1 X8.812 Y1.215 E38.27532
G1 X-1.215 Y-8.812 E38.90873
G1 X-.709 Y-8.812 E38.93135
G1 X8.812 Y.709 E39.53277
G1 X8.812 Y.202 E39.55539
G1 X-.202 Y-8.812 E40.12482
G1 X.304 Y-8.812 E40.14744
G1 X8.812 Y-.304 E40.68487
G1 X8.812 Y-.811 E40.70749
G1 X.811 Y-8.812 E41.21293
G1 X1.317 Y-8.812 E41.23555
G1 X8.812 Y-1.317 E41.70899
G1 X8.812 Y-1.824 E41.73161
G1 X1.824 Y-8.812 E42.17306
G1 X2.33 Y-8.812 E42.19569
G1 X8.812 Y-2.33 E42.60514
G1 X8.812 Y-2.837 E42.62776
G1 X2.837 Y-8.812 E43.00523
G1 X3.343 Y-8.812 E43.02785
G1 X8.812 Y-3.343 E43.37332
G1 X8.812 Y-3.85 E43.39594
