; generated by PrusaSlicer 2.5.2+win64 on 2023-05-03 at 22:47:41 UTC

; 

; external perimeters extrusion width = 1.20mm
; perimeters extrusion width = 1.20mm
; infill extrusion width = 1.20mm
; solid infill extrusion width = 1.20mm
; top infill extrusion width = 1.00mm
; first layer extrusion width = 1.20mm

; external perimeters extrusion width = 1.20mm
; perimeters extrusion width = 1.20mm
; infill extrusion width = 1.20mm
; solid infill extrusion width = 1.20mm
; top infill extrusion width = 1.00mm
; first layer extrusion width = 1.20mm

; external perimeters extrusion width = 1.20mm
; perimeters extrusion width = 1.20mm
; infill extrusion width = 1.20mm
; solid infill extrusion width = 1.20mm
; top infill extrusion width = 1.00mm
; first layer extrusion width = 1.20mm

; external perimeters extrusion width = 1.20mm
; perimeters extrusion width = 1.20mm
; infill extrusion width = 1.20mm
; solid infill extrusion width = 1.20mm
; top infill extrusion width = 1.00mm
; first layer extrusion width = 1.20mm

M106 S255
M104 S200 ; set temperature
;TYPE:Custom
;G28 ; home all axes
G1 Z5 F5000 ; lift nozzle
M109 S200 ; set temperature and wait for it to be reached
G21 ; set units to millimeters
G90 ; use absolute coordinates
M82 ; use absolute distances for extrusion
G92 E0
; Filament gcode
M106 S255
;LAYER_CHANGE
;Z:0.8
;HEIGHT:0.8
G1 Z.8 F4800
G1 E-2 F2400
G92 E0
G1 Z1.8 F4800
G1 X-2.194 Y3.156
G1 Z.8
G1 E2 F2400
;TYPE:External perimeter
;WIDTH:1.2
G1 F600
G1 X-2.469 Y3.208 E2.09566
G1 X-17.869 Y10.908 E7.98447
G1 X-39.686 Y0 E16.32696
G1 X-17.869 Y-10.908 E24.66946
G1 X-2.469 Y-3.208 E30.55826
G1 X-2.284 Y-3.156 E30.62406
G1 X-2.009 Y-3.208 E30.71972
G1 X5.289 Y-6.858 E33.51059
G1 X12.588 Y-3.208 E36.30145
G1 X12.773 Y-3.156 E36.36724
G1 X13.047 Y-3.208 E36.4629
G1 X20.346 Y-6.858 E39.25376
G1 X27.644 Y-3.208 E42.04462
G1 X27.918 Y-3.156 E42.13984
G1 X28.104 Y-3.208 E42.20608
G1 X30.369 Y-4.34 E43.07192
G1 X30.369 Y4.34 E46.04098
G1 X28.104 Y3.208 E46.90681
G1 X27.918 Y3.156 E46.97305
G1 X27.644 Y3.208 E47.06828
G1 X20.346 Y6.858 E49.85914
G1 X13.047 Y3.208 E52.64999
G1 X12.862 Y3.156 E52.71579
G1 X12.588 Y3.208 E52.81145
G1 X5.289 Y6.858 E55.60231
G1 X-2.05 Y3.197 E58.40741
G1 E56.40741 F2400
G92 E0
G1 Z1.8 F4800
G1 X-9.062 Y0
G1 Z.8
G1 E2 F2400
G1 F600
G1 X-9.102 Y.199 E2.06935
G1 X-9.27 Y.413 E2.16257
G1 X-9.346 Y.46 E2.19307
G1 X-17.639 Y4.607 E5.36442
G1 X-17.869 Y4.661 E5.44522
G1 X-18.099 Y4.607 E5.52603
G1 X-26.393 Y.46 E8.69738
G1 X-26.58 Y.3 E8.78178
G1 X-26.668 Y.096 E8.85745
G1 X-26.668 Y-.096 E8.92345
G1 X-26.58 Y-.3 E8.99911
G1 X-26.393 Y-.46 E9.08352
G1 X-18.099 Y-4.607 E12.25487
G1 X-17.869 Y-4.661 E12.33567
G1 X-17.639 Y-4.607 E12.41648
G1 X-9.346 Y-.46 E15.58783
G1 X-9.241 Y-.39 E15.63097
G1 X-9.102 Y-.199 E15.71188
G1 X-9.091 Y-.147 E15.72992
G1 E13.72992 F2400
G92 E0
G1 Z1.8 F4800
G1 X28.687 Y-3.155
G1 Z.8
G1 E2 F2400
;TYPE:Solid infill
;WIDTH:1.20614
G1 F600
G1 X29.597 Y-2.244 E2.44303
G1 X29.597 Y-.781 E2.94637
G1 X27.993 Y-2.385 E3.72695
G1 X27.631 Y-2.405 E3.85154
G1 X27.443 Y-2.456 E3.91888
G1 X25.481 Y-3.434 E4.67304
G1 X29.597 Y.682 E6.67587
G1 X29.597 Y2.145 E7.17921
G1 X22.563 Y-4.89 E10.60204
G1 X20.346 Y-5.995 E11.45431
G1 X20.112 Y-5.878 E11.54451
G1 X28.567 Y2.578 E15.65891
G1 X28.427 Y2.508 E15.71279
G1 X27.99 Y2.385 E15.86921
G1 X27.631 Y2.405 E15.99265
G1 X27.443 Y2.456 E16.05999
G1 X27.136 Y2.609 E16.1779
G1 X19.136 Y-5.391 E20.07036
G1 X18.161 Y-4.903 E20.44553
G1 X26.16 Y3.096 E24.33759
G1 X25.184 Y3.583 E24.71289
G1 X17.186 Y-4.415 E28.60453
G1 X16.21 Y-3.928 E28.9797
G1 X24.208 Y4.07 E32.87094
G1 X23.231 Y4.556 E33.24624
G1 X15.235 Y-3.44 E37.13707
G1 X14.26 Y-2.952 E37.51224
G1 X22.255 Y5.043 E41.40266
G1 X21.279 Y5.53 E41.77796
G1 X13.273 Y-2.477 E45.67379
G1 X13.038 Y-2.4 E45.7588
G1 X12.818 Y-2.382 E45.83478
G1 X12.597 Y-2.4 E45.91076
G1 X12.26 Y-2.51 E46.03289
G1 X11.293 Y-2.994 E46.40496
G1 X20.217 Y5.931 E50.7474
G1 X17.291 Y4.468 E51.87291
G1 X8.367 Y-4.457 E56.21535
G1 X5.441 Y-5.919 E57.34086
G1 X14.365 Y3.005 E61.68329
G1 X13.375 Y2.51 E62.06419
G1 X13.032 Y2.398 E62.18828
G1 X12.706 Y2.386 E62.30042
G1 X12.365 Y2.467 E62.42133
G1 X4.364 Y-5.533 E66.31407
G1 X3.389 Y-5.045 E66.68924
G1 X11.383 Y2.948 E70.57882
G1 X10.408 Y3.436 E70.95399
G1 X2.414 Y-4.558 E74.84356
G1 X1.439 Y-4.07 E75.21873
G1 X9.432 Y3.924 E79.10831
G1 X8.457 Y4.411 E79.48348
G1 X.463 Y-3.582 E83.37305
G1 X-.512 Y-3.095 E83.74822
G1 X7.482 Y4.899 E87.6378
G1 X6.506 Y5.387 E88.01297
G1 X-1.487 Y-2.607 E91.90255
G1 X-1.682 Y-2.51 E91.97728
G1 X-2.025 Y-2.398 E92.10137
G1 X-2.35 Y-2.386 E92.21352
G1 X-2.64 Y-2.446 E92.31546
G1 X-2.909 Y-2.566 E92.41682
G1 X5.531 Y5.874 E96.52375
G1 X5.289 Y5.995 E96.61684
G1 X3.089 Y4.895 E97.46308
G1 X-5.835 Y-4.029 E101.80552
G1 X-8.761 Y-5.492 E102.93103
G1 X.163 Y3.432 E107.27347
G1 X-1.682 Y2.51 E107.98318
G1 X-2.019 Y2.4 E108.10531
G1 X-2.342 Y2.39 E108.21628
G1 X-11.687 Y-6.955 E112.76354
G1 X-14.613 Y-8.418 E113.88905
G1 X-3.389 Y2.806 E119.35034
G1 X-4.364 Y3.294 E119.72551
G1 X-17.539 Y-9.881 E126.13591
G1 X-17.869 Y-10.046 E126.26302
G1 X-18.734 Y-9.614 E126.59582
G1 X-11.54 Y-2.419 E130.09634
G1 X-8.987 Y-1.143 E131.07859
G1 X-8.737 Y-.977 E131.18161
G1 X-8.531 Y-.751 E131.28696
G1 X-8.389 Y-.499 E131.38651
G1 X-8.312 Y-.243 E131.47845
G1 X-8.289 Y0 E131.56233
G1 X-8.312 Y.243 E131.6462
G1 X-8.389 Y.499 E131.73815
G1 X-8.473 Y.648 E131.79705
G1 X-5.34 Y3.781 E133.32163
G1 X-6.315 Y4.269 E133.6968
G1 X-9.29 Y1.294 E135.14428
G1 X-10.265 Y1.782 E135.51945
G1 X-7.29 Y4.757 E136.96693
G1 X-8.265 Y5.244 E137.34209
G1 X-11.24 Y2.269 E138.78957
G1 X-12.216 Y2.757 E139.16474
G1 X-9.241 Y5.732 E140.61222
G1 X-10.216 Y6.22 E140.98739
G1 X-13.191 Y3.245 E142.43487
G1 X-14.166 Y3.732 E142.81004
G1 X-11.191 Y6.707 E144.25752
G1 X-12.167 Y7.195 E144.63269
G1 X-15.141 Y4.22 E146.08018
G1 X-16.117 Y4.708 E146.45535
G1 X-13.142 Y7.682 E147.90283
G1 X-14.117 Y8.17 E148.278
G1 X-17.092 Y5.195 E149.72548
G1 X-17.308 Y5.303 E149.80851
G1 X-17.577 Y5.4 E149.90696
G1 X-17.869 Y5.434 E150.00814
G1 X-18.161 Y5.4 E150.10932
G1 X-18.464 Y5.287 E150.22042
G1 X-15.093 Y8.658 E151.86072
G1 X-16.068 Y9.145 E152.23589
G1 X-22.424 Y2.789 E155.32876
G1 E153.32876 F2400
G92 E0
G1 Z1.8 F4800
G1 X-22.708 Y3.356
G1 X-27.513 Y.953
G1 X-27.513 Y-.953
G1 X-17.869 Y-5.775
G1 X-13.184 Y-3.433
G1 X-13.148 Y-3.415
G1 X-13.431 Y-2.848
G1 Z.8
G1 E2 F2400
G1 F600
G1 X-19.71 Y-9.126 E5.05488
G1 X-20.685 Y-8.638 E5.43005
G1 X-17.374 Y-5.327 E7.04126
G1 X-17.577 Y-5.4 E7.11567
G1 X-17.869 Y-5.434 E7.21685
G1 X-18.161 Y-5.4 E7.31803
G1 X-18.431 Y-5.303 E7.41648
G1 X-18.685 Y-5.176 E7.51453
G1 X-21.66 Y-8.151 E8.96201
G1 X-22.636 Y-7.663 E9.33717
G1 X-19.661 Y-4.688 E10.78466
G1 X-20.636 Y-4.2 E11.15982
G1 X-23.611 Y-7.175 E12.6073
G1 X-24.586 Y-6.688 E12.98247
G1 X-21.611 Y-3.713 E14.42995
G1 X-22.587 Y-3.225 E14.80512
G1 X-25.561 Y-6.2 E16.2526
G1 X-26.537 Y-5.712 E16.62777
G1 X-23.562 Y-2.738 E18.07525
G1 X-24.537 Y-2.25 E18.45042
G1 X-27.512 Y-5.225 E19.8979
G1 X-28.487 Y-4.737 E20.27307
G1 X-25.513 Y-1.762 E21.72055
G1 X-26.488 Y-1.275 E22.09572
G1 X-29.463 Y-4.249 E23.5432
G1 X-30.438 Y-3.762 E23.91837
G1 X-27.287 Y-.61 E25.45173
G1 X-27.349 Y-.499 E25.49583
G1 X-27.426 Y-.243 E25.58778
G1 X-27.449 Y0 E25.67165
G1 X-27.426 Y.243 E25.75553
G1 X-27.349 Y.499 E25.84747
G1 X-27.208 Y.751 E25.94702
G1 X-27.001 Y.977 E26.05237
G1 X-26.752 Y1.143 E26.1554
G1 X-24.315 Y2.361 E27.09259
G1 X-17.043 Y9.633 E30.6311
G1 X-17.869 Y10.046 E30.94888
G1 X-18.317 Y9.822 E31.12104
G1 X-31.413 Y-3.274 E37.49346
G1 X-32.389 Y-2.786 E37.86863
G1 X-21.243 Y8.359 E43.29193
G1 X-24.169 Y6.896 E44.41744
G1 X-33.364 Y-2.299 E48.89164
G1 X-34.339 Y-1.811 E49.26681
G1 X-27.094 Y5.434 E52.79189
G1 X-30.02 Y3.971 E53.9174
G1 X-35.314 Y-1.324 E56.49337
G1 X-36.29 Y-.836 E56.86854
G1 X-32.946 Y2.508 E58.49541
G1 X-35.872 Y1.045 E59.62092
G1 X-37.61 Y-.693 E60.4665
G1 E58.4665 F2400
G92 E0
G1 Z1.8 F4800
G1 X-37.606 Y-.644
G1 X-36.417 Y-.743
G1 X-35.94 Y-.819
G1 X-12.975 Y-7.407
G1 X-8.732 Y-5.286
G1 X29.026 Y-11.288
G1 X29.039 Y-11.293
G1 Z.8
G1 E2 F2400
;TYPE:External perimeter
;WIDTH:1.042
G1 F600
G1 X30.448 Y-11.997 E2.45575
G1 X30.448 Y-10.589 E2.86339
G1 X29.173 Y-11.226 E3.27571
G1 E1.27571 F2400
G92 E0
G1 Z1.8 F4800
G1 X29.06 Y-11.188
G1 X29.127 Y-3.42
G1 X29.087 Y3.3
G1 X29.03 Y11.29
G1 X29.039 Y11.293
G1 Z.8
G1 E2 F2400
;WIDTH:1.042
G1 F600
G1 X30.448 Y10.588 E2.45575
G1 X30.448 Y11.997 E2.86338
G1 X29.173 Y11.36 E3.27571
;LAYER_CHANGE
;Z:1.6
;HEIGHT:0.8
G1 Z1.6 F4800
G1 E1.27571 F2400
G92 E0
G1 Z2.6 F4800
G1 X28.77 Y11.174
G1 X28.428 Y11.016
G1 X10.974 Y2.962
G1 X-2.239 Y-2.04
G1 X-2.722 Y-2.281
G1 X-2.284 Y-3.156
G1 Z1.6
G1 E2 F2400
;WIDTH:1.2
G1 F600
G1 X-2.009 Y-3.208 E2.09566
G1 X5.289 Y-6.858 E4.88652
G1 X12.588 Y-3.208 E7.67738
G1 X12.773 Y-3.156 E7.74318
G1 X13.047 Y-3.208 E7.83884
G1 X20.346 Y-6.858 E10.6297
G1 X27.644 Y-3.208 E13.42055
G1 X28.104 Y-3.208 E13.57784
G1 X28.171 Y-3.241 E13.60319
G1 X28.171 Y3.241 E15.8205
G1 X28.104 Y3.208 E15.84584
G1 X27.644 Y3.208 E16.00313
G1 X20.346 Y6.858 E18.79399
G1 X13.047 Y3.208 E21.58485
G1 X12.862 Y3.156 E21.65064
G1 X12.588 Y3.208 E21.7463
G1 X5.289 Y6.858 E24.53716
G1 X-2.009 Y3.208 E27.32803
G1 X-2.194 Y3.156 E27.39383
G1 X-2.469 Y3.208 E27.48949
G1 X-17.869 Y10.908 E33.37829
G1 X-39.686 Y0 E41.72079
G1 X-17.869 Y-10.908 E50.06328
G1 X-2.428 Y-3.197 E55.96633
G1 E53.96633 F2400
G92 E0
G1 Z2.6 F4800
G1 X-9.071 Y.096
G1 Z1.6
G1 E2 F2400
G1 F480
G1 X-9.158 Y.3 E2.07566
G1 X-9.346 Y.46 E2.16007
G1 X-17.639 Y4.607 E5.33141
G1 X-17.869 Y4.661 E5.41222
G1 X-18.099 Y4.607 E5.49302
G1 X-26.393 Y.46 E8.66437
G1 X-26.58 Y.3 E8.74878
G1 X-26.668 Y.096 E8.82444
G1 X-26.668 Y-.096 E8.89044
G1 X-26.58 Y-.3 E8.96611
G1 X-26.393 Y-.46 E9.05051
G1 X-18.099 Y-4.607 E12.22186
G1 X-17.869 Y-4.661 E12.30267
G1 X-17.639 Y-4.607 E12.38347
G1 X-9.346 Y-.46 E15.55482
G1 X-9.158 Y-.3 E15.63923
G1 X-9.071 Y-.096 E15.71489
G1 X-9.071 Y-.054 E15.72959
G1 E13.72959 F2400
G92 E0
G1 Z2.6 F4800
G1 X-8.225 Y-.054
G1 X12.818 Y2.04
G1 X20.125 Y5.693
G1 X20.273 Y5.767
G1 X19.989 Y6.334
G1 Z1.6
G1 E2 F2400
;TYPE:Solid infill
;WIDTH:1.21144
G1 F600
G1 X23.058 Y3.265 E3.50102
G1 X23.058 Y1.795 E4.00954
G1 X19.354 Y5.499 E5.82132
G1 X18.374 Y5.009 E6.20034
G1 X23.058 Y.324 E8.49155
G1 X23.058 Y-1.146 E9.00007
G1 X17.393 Y4.519 E11.77072
G1 X16.413 Y4.029 E12.14975
G1 X23.058 Y-2.617 E15.39983
G1 X23.058 Y-4.087 E15.90835
G1 X15.433 Y3.539 E19.63787
G1 X14.452 Y3.049 E20.0169
G1 X22.446 Y-4.945 E23.92643
G1 X21.466 Y-5.435 E24.30546
G1 X13.472 Y2.558 E28.21499
G1 X13.038 Y2.4 E28.37492
G1 X12.818 Y2.382 E28.45129
G1 X12.597 Y2.4 E28.52766
G1 X12.26 Y2.51 E28.65042
G1 X11.84 Y2.72 E28.81258
G1 X20.486 Y-5.925 E33.04068
G1 X20.346 Y-5.995 E33.09469
G1 X17.824 Y-4.734 E34.06976
G1 X8.9 Y4.19 E38.43449
G1 X5.959 Y5.661 E39.57158
G1 X14.883 Y-3.264 E43.93631
G1 X13.375 Y-2.51 E44.51937
G1 X13.038 Y-2.4 E44.64212
G1 X12.818 Y-2.382 E44.71849
G1 X12.561 Y-2.412 E44.80787
G1 X4.532 Y5.617 E48.73456
G1 X3.552 Y5.127 E49.11359
G1 X11.545 Y-2.867 E53.02312
G1 X10.565 Y-3.357 E53.40215
G1 X2.571 Y4.636 E57.31169
G1 X1.591 Y4.146 E57.69072
G1 X9.585 Y-3.847 E61.60026
G1 X8.605 Y-4.338 E61.97929
G1 X.611 Y3.656 E65.88882
G1 X-.37 Y3.166 E66.26785
G1 X7.624 Y-4.828 E70.17739
G1 X6.644 Y-5.318 E70.55642
G1 X-1.35 Y2.676 E74.46596
G1 X-1.682 Y2.51 E74.59427
G1 X-2.019 Y2.4 E74.71703
G1 X-2.239 Y2.382 E74.7934
G1 X-2.459 Y2.4 E74.86977
G1 X-2.586 Y2.441 E74.91566
G1 X5.664 Y-5.808 E78.95014
G1 X5.289 Y-5.995 E79.09497
G1 X3.472 Y-5.087 E79.79758
G1 X-5.453 Y3.838 E84.1623
G1 X-8.393 Y5.308 E85.29939
G1 X.531 Y-3.616 E89.66411
G1 X-1.682 Y-2.51 E90.51963
G1 X-2.025 Y-2.398 E90.64436
G1 X-2.163 Y-2.393 E90.69213
G1 X-11.334 Y6.779 E95.17775
G1 X-14.275 Y8.249 E96.31484
G1 X-3.276 Y-2.75 E101.69406
G1 X-4.257 Y-3.24 E102.07309
G1 X-17.216 Y9.72 E108.41119
G1 X-17.869 Y10.046 E108.6637
G1 X-18.632 Y9.665 E108.95856
G1 X-11.233 Y2.265 E112.57736
G1 X-8.987 Y1.143 E113.44569
G1 X-8.737 Y.977 E113.54923
G1 X-8.531 Y.751 E113.65512
G1 X-8.389 Y.499 E113.75518
G1 X-8.312 Y.243 E113.8476
G1 X-8.289 Y0 E113.93191
G1 X-8.312 Y-.243 E114.01621
G1 X-8.418 Y-.549 E114.12836
G1 X-5.237 Y-3.73 E115.68394
G1 X-6.217 Y-4.22 E116.06297
G1 X-9.192 Y-1.245 E117.51788
G1 X-10.172 Y-1.735 E117.89691
G1 X-7.198 Y-4.71 E119.35182
G1 X-8.178 Y-5.2 E119.73085
G1 X-11.153 Y-2.226 E121.18576
G1 X-12.133 Y-2.716 E121.56479
G1 X-9.158 Y-5.691 E123.0197
G1 X-10.139 Y-6.181 E123.39873
G1 X-13.113 Y-3.206 E124.85364
G1 X-14.094 Y-3.696 E125.23267
G1 X-11.119 Y-6.671 E126.68758
G1 X-12.099 Y-7.161 E127.06661
G1 X-15.074 Y-4.186 E128.52152
G1 X-16.054 Y-4.676 E128.90055
G1 X-13.079 Y-7.651 E130.35547
G1 X-14.06 Y-8.141 E130.73449
G1 X-17.035 Y-5.167 E132.18941
G1 X-17.308 Y-5.303 E132.2951
G1 X-17.577 Y-5.4 E132.39405
G1 X-17.869 Y-5.434 E132.49575
G1 X-18.161 Y-5.4 E132.59746
G1 X-18.333 Y-5.338 E132.66062
G1 X-15.04 Y-8.631 E134.27123
G1 X-16.02 Y-9.122 E134.65025
G1 X-22.282 Y-2.86 E137.71253
G1 E135.71253 F2400
G92 E0
G1 Z2.6 F4800
G1 X-22.565 Y-3.427
G1 X-17.869 Y-5.775
G1 X-8.225 Y-.953
G1 X-8.225 Y.953
G1 X-11.936 Y2.809
G1 X-12.855 Y3.268
G1 X-13.139 Y2.701
G1 Z1.6
G1 E2 F2400
G1 F600
G1 X-19.612 Y9.175 E5.16599
G1 X-20.592 Y8.685 E5.54502
G1 X-17.114 Y5.206 E7.24609
G1 X-17.308 Y5.303 E7.32096
G1 X-17.577 Y5.4 E7.41991
G1 X-17.869 Y5.434 E7.52161
G1 X-18.161 Y5.4 E7.62331
G1 X-18.431 Y5.303 E7.72226
G1 X-18.598 Y5.22 E7.78696
G1 X-21.573 Y8.194 E9.24188
G1 X-22.553 Y7.704 E9.62091
G1 X-19.578 Y4.729 E11.07583
G1 X-20.558 Y4.239 E11.45485
G1 X-23.533 Y7.214 E12.90977
G1 X-24.514 Y6.724 E13.2888
G1 X-21.539 Y3.749 E14.74372
G1 X-22.519 Y3.259 E15.12275
G1 X-25.494 Y6.234 E16.57766
G1 X-26.474 Y5.744 E16.95669
G1 X-23.499 Y2.769 E18.41161
G1 X-24.48 Y2.279 E18.79064
G1 X-27.455 Y5.253 E20.24555
G1 X-28.435 Y4.763 E20.62458
G1 X-25.46 Y1.788 E22.0795
G1 X-26.44 Y1.298 E22.45852
G1 X-29.415 Y4.273 E23.91344
G1 X-30.395 Y3.783 E24.29247
G1 X-27.264 Y.651 E25.82409
G1 X-27.349 Y.499 E25.88462
G1 X-27.426 Y.243 E25.97704
G1 X-27.449 Y0 E26.06134
G1 X-27.426 Y-.243 E26.14564
G1 X-27.349 Y-.499 E26.23806
G1 X-27.206 Y-.755 E26.33976
G1 X-26.936 Y-1.029 E26.47275
G1 X-26.748 Y-1.145 E26.54911
G1 X-24.188 Y-2.425 E27.5388
G1 X-17.001 Y-9.612 E31.0539
G1 X-17.869 Y-10.046 E31.38975
G1 X-18.204 Y-9.879 E31.51928
G1 X-31.376 Y3.293 E37.96109
G1 X-32.356 Y2.803 E38.34012
G1 X-21.145 Y-8.408 E43.82305
G1 X-24.086 Y-6.938 E44.96014
G1 X-33.336 Y2.313 E49.4842
G1 X-34.317 Y1.822 E49.86323
G1 X-27.027 Y-5.467 E53.42841
G1 X-29.968 Y-3.997 E54.5655
G1 X-35.297 Y1.332 E57.17181
G1 X-36.277 Y.842 E57.55084
G1 X-32.909 Y-2.526 E59.19827
G1 X-35.85 Y-1.056 E60.33536
G1 X-37.602 Y.697 E61.19261
G1 E59.19261 F2400
G92 E0
G1 Z2.6 F4800
G1 X-37.598 Y.645
G1 X-36.422 Y.743
G1 X-35.666 Y.956
G1 X-12.97 Y7.405
G1 X-2.239 Y2.04
G1 X12.818 Y2.04
G1 X24.087 Y3.933
G1 X24.753 Y4.32
G1 Z1.6
G1 E2 F2400
;TYPE:Top solid infill
;WIDTH:1.04165
G1 F600
G1 X27.499 Y1.574 E3.12369
G1 X27.499 Y.344 E3.47969
G1 X23.987 Y3.856 E4.91706
G1 X23.987 Y2.626 E5.27306
G1 X27.499 Y-.886 E6.71043
G1 X27.499 Y-2.117 E7.06643
G1 X23.987 Y1.396 E8.5038
G1 X23.987 Y.165 E8.8598
G1 X26.955 Y-2.803 E10.07436
G1 X26.135 Y-3.213 E10.33971
G1 X23.987 Y-1.065 E11.21863
G1 X23.987 Y-2.295 E11.57463
G1 X25.314 Y-3.623 E12.11791
G1 X24.494 Y-4.033 E12.38326
G1 X23.614 Y-3.153 E12.74344
;LAYER_CHANGE
;Z:2.4
;HEIGHT:0.8
G1 Z2.4 F4800
G1 E10.74344 F2400
G92 E0
G1 Z3.4 F4800
G1 X13.826 Y1.31
G1 Z2.4
G1 E2 F2400
;TYPE:Perimeter
;WIDTH:1.2
G1 F600
G1 X13.63 Y1.229 E2.0724
G1 X13.24 Y1.132 E2.20995
G1 X12.593 Y1.107 E2.4313
G1 X12.005 Y1.229 E2.63701
G1 X11.668 Y1.369 E2.76167
G1 X5.289 Y4.558 E5.20082
G1 X-1.09 Y1.369 E7.63998
G1 X-1.426 Y1.229 E7.76464
G1 X-1.817 Y1.132 E7.90219
G1 X-2.463 Y1.107 E8.12354
G1 X-3.052 Y1.229 E8.32925
G1 X-3.389 Y1.369 E8.45391
G1 X-6.34 Y2.844 E9.58231
;WIDTH:1.24417
G1 X-6.538 Y2.919 E9.65771
;WIDTH:1.28835
G1 X-6.736 Y2.993 E9.73621
;WIDTH:1.33252
