; generated by PrusaSlicer 2.5.2+win64 on 2023-05-03 at 21:08:25 UTC

; 

; external perimeters extrusion width = 1.20mm
; perimeters extrusion width = 1.20mm
; infill extrusion width = 1.20mm
; solid infill extrusion width = 1.20mm
; top infill extrusion width = 1.00mm
; first layer extrusion width = 1.20mm

; external perimeters extrusion width = 1.20mm
; perimeters extrusion width = 1.20mm
; infill extrusion width = 1.20mm
; solid infill extrusion width = 1.20mm
; top infill extrusion width = 1.00mm
; first layer extrusion width = 1.20mm

M107
M104 S200 ; set temperature
;TYPE:Custom
;G28 ; home all axes
G1 Z5 F5000 ; lift nozzle
M109 S200 ; set temperature and wait for it to be reached
G21 ; set units to millimeters
G90 ; use absolute coordinates
M82 ; use absolute distances for extrusion
G92 E0
; Filament gcode
M107
;LAYER_CHANGE
;Z:0.8
;HEIGHT:0.8
G1 Z.8 F4800
G1 E-2 F2400
G92 E0
G1 Z1.8 F4800
G1 X4.301 Y3.279
G1 Z.8
G1 E2 F2400
;TYPE:External perimeter
;WIDTH:1.2
G1 F600
G1 X4.202 Y3.202 E2.04297
G1 X3.982 Y3.131 E2.12198
G1 X3.746 Y3.165 E2.20349
G1 X3.574 Y3.279 E2.27421
G1 X.173 Y6.68 E3.91906
G1 X-3.167 Y3.34 E5.53455
G1 X-3.327 Y3.202 E5.60675
G1 X-3.546 Y3.131 E5.68576
G1 X-3.782 Y3.165 E5.76727
G1 X-3.955 Y3.279 E5.83799
G1 X-7.355 Y6.68 E7.48284
G1 X-10.79 Y3.248 E9.14361
G1 X-11.035 Y3.136 E9.23566
G1 X-11.282 Y3.155 E9.32044
G1 X-11.483 Y3.279 E9.40124
G1 X-18.935 Y10.731 E13.00541
G1 X-29.665 Y0 E18.19571
G1 X-18.935 Y-10.731 E23.38601
G1 X-11.483 Y-3.279 E26.99018
G1 X-11.192 Y-3.134 E27.1014
G1 X-10.957 Y-3.155 E27.18221
G1 X-10.756 Y-3.279 E27.26301
G1 X-7.355 Y-6.68 E28.90786
G1 X-4.016 Y-3.34 E30.52335
G1 X-3.856 Y-3.202 E30.59556
G1 X-3.636 Y-3.131 E30.67456
G1 X-3.4 Y-3.165 E30.75608
G1 X-3.228 Y-3.279 E30.82679
G1 X.173 Y-6.68 E32.47164
G1 X3.513 Y-3.34 E34.08713
G1 X3.673 Y-3.202 E34.15933
G1 X3.892 Y-3.131 E34.23834
G1 X4.128 Y-3.165 E34.31985
G1 X4.301 Y-3.279 E34.39057
G1 X8.186 Y-7.165 E36.26999
G1 X8.322 Y-7.405 E36.36433
G1 X8.322 Y-7.651 E36.4485
G1 X8.186 Y-7.892 E36.54305
G1 X4.786 Y-11.293 E38.1879
G1 X11.21 Y-17.717 E41.29523
G1 X12.028 Y-18.556 E41.69614
G1 X12.099 Y-18.776 E41.77515
G1 X12.064 Y-19.012 E41.85666
G1 X11.951 Y-19.185 E41.92738
G1 X8.55 Y-22.585 E43.57223
G1 X15.23 Y-29.265 E46.80321
G1 X21.91 Y-22.585 E50.0342
G1 X18.57 Y-19.245 E51.6497
G1 X18.432 Y-19.086 E51.7219
G1 X18.36 Y-18.866 E51.8009
G1 X18.395 Y-18.63 E51.88242
G1 X18.509 Y-18.457 E51.95313
G1 X21.91 Y-15.057 E53.59799
G1 X18.509 Y-11.656 E55.24284
G1 X18.38 Y-11.442 E55.3284
G1 X18.373 Y-11.17 E55.42137
G1 X18.509 Y-10.929 E55.51591
G1 X22.395 Y-7.043 E57.39534
G1 X22.635 Y-6.908 E57.48988
G1 X22.903 Y-6.914 E57.5813
G1 X23.122 Y-7.043 E57.66841
G1 X26.522 Y-10.444 E59.31327
G1 X29.951 Y-7.017 E60.97121
G1 X30.184 Y-6.903 E61.05986
G1 X30.457 Y-6.922 E61.15353
G1 X30.65 Y-7.043 E61.23157
G1 X34.051 Y-10.444 E62.87642
G1 X37.451 Y-7.043 E64.52128
G1 X37.644 Y-6.922 E64.59898
G1 X37.959 Y-6.994 E64.70942
G1 X37.959 Y6.994 E69.49332
G1 X37.644 Y6.922 E69.60376
G1 X37.451 Y7.043 E69.68146
G1 X34.051 Y10.444 E71.32631
G1 X30.587 Y6.99 E72.99945
G1 X30.395 Y6.904 E73.07116
G1 X30.136 Y6.915 E73.15981
G1 X29.923 Y7.043 E73.24494
G1 X26.522 Y10.444 E74.88979
G1 X23.122 Y7.043 E76.53464
G1 X22.903 Y6.914 E76.62176
G1 X22.635 Y6.908 E76.71318
G1 X22.395 Y7.043 E76.80772
G1 X18.509 Y10.929 E78.68714
G1 X18.373 Y11.17 E78.78169
G1 X18.38 Y11.442 E78.87465
G1 X18.509 Y11.656 E78.96021
G1 X21.91 Y15.057 E80.60507
G1 X18.57 Y18.397 E82.22057
G1 X18.432 Y18.556 E82.29276
G1 X18.36 Y18.776 E82.37177
G1 X18.395 Y19.012 E82.45328
G1 X18.509 Y19.185 E82.524
G1 X21.91 Y22.585 E84.16885
G1 X15.23 Y29.265 E87.39985
G1 X8.55 Y22.585 E90.63083
G1 X11.89 Y19.245 E92.24632
G1 X12.028 Y19.086 E92.31853
G1 X12.099 Y18.866 E92.39753
G1 X12.064 Y18.63 E92.47905
G1 X11.951 Y18.457 E92.54976
G1 X4.786 Y11.293 E96.01532
G1 X8.186 Y7.892 E97.66017
G1 X8.321 Y7.655 E97.75331
G1 X8.322 Y7.405 E97.83889
G1 X8.186 Y7.165 E97.93323
G1 X4.407 Y3.385 E99.76135
G1 E97.76135 F2400
G92 E0
G1 Z1.8 F4800
G1 X-14.275 Y-.163
G1 Z.8
G1 E2 F2400
G1 F600
G1 X-14.253 Y.073 E2.08081
G1 X-14.322 Y.265 E2.15042
G1 X-14.399 Y.364 E2.1934
G1 X-18.571 Y4.536 E4.21143
G1 X-18.809 Y4.671 E4.30505
G1 X-19.06 Y4.671 E4.39088
G1 X-19.298 Y4.536 E4.4845
G1 X-23.47 Y.364 E6.50253
G1 X-23.605 Y.125 E6.59614
G1 X-23.605 Y-.125 E6.68198
G1 X-23.47 Y-.364 E6.7756
G1 X-19.298 Y-4.536 E8.79363
G1 X-19.06 Y-4.671 E8.88725
G1 X-18.809 Y-4.671 E8.97309
G1 X-18.571 Y-4.536 E9.0667
G1 X-14.399 Y-.364 E11.08474
G1 X-14.354 Y-.29 E11.11424
G1 E9.11424 F2400
G92 E0
G1 Z1.8 F4800
G1 X-13.673 Y-.971
G1 X3.937 Y-1.583
G1 X9.883 Y-7.528
G1 X13.647 Y-18.821
G1 X14.571 Y-27.273
G1 X14.694 Y-27.396
G1 X14.246 Y-27.845
G1 Z.8
G1 E2 F2400
;TYPE:Solid infill
;WIDTH:1.21254
G1 F600
G1 X20.163 Y-21.927 E4.89719
G1 X19.428 Y-21.19 E5.25753
G1 X13.837 Y-26.781 E7.99504
G1 X13.101 Y-26.045 E8.35538
G1 X18.693 Y-20.453 E11.0934
G1 X17.958 Y-19.716 E11.45374
G1 X12.365 Y-25.309 E14.19227
G1 X11.629 Y-24.573 E14.55261
G1 X17.608 Y-18.594 E17.48016
G1 X17.678 Y-18.345 E17.56969
G1 X17.772 Y-18.154 E17.64324
G1 X17.953 Y-17.923 E17.74474
G1 X20.819 Y-15.057 E19.14812
G1 X20.246 Y-14.484 E19.42854
G1 X10.893 Y-23.837 E24.00786
G1 X10.157 Y-23.101 E24.3682
G1 X19.51 Y-13.748 E28.94752
G1 X18.774 Y-13.012 E29.30785
G1 X12.864 Y-18.923 E32.20165
G1 X12.874 Y-18.821 E32.23703
G1 X12.849 Y-18.57 E32.3245
G1 X12.782 Y-18.345 E32.40573
G1 X12.687 Y-18.154 E32.47929
G1 X12.449 Y-17.865 E32.60901
G1 X18.365 Y-11.949 E35.50562
G1 E33.50562 F2400
G92 E0
G1 Z1.8 F4800
G1 X17.917 Y-12.397
G1 X16.812 Y-11.293
G1 X22.758 Y-5.347
G1 X30.287 Y-5.347
G1 X33.203 Y-8.263
G1 X33.515 Y-8.575
G1 X33.067 Y-9.024
G1 Z.8
G1 E2 F2400
G1 F600
G1 X37.187 Y-4.903 E4.01744
G1 X37.187 Y-3.431 E4.52703
G1 X32.658 Y-7.96 E6.74461
G1 X31.922 Y-7.224 E7.10495
G1 X37.187 Y-1.959 E9.68286
G1 X37.187 Y-.487 E10.19246
G1 X31.186 Y-6.489 E13.1308
G1 X31.032 Y-6.358 E13.2007
G1 X30.716 Y-6.193 E13.32417
G1 X30.396 Y-6.124 E13.43723
G1 X30.059 Y-6.143 E13.5542
G1 X37.187 Y.985 E17.04411
G1 X37.187 Y2.457 E17.5537
G1 X25.949 Y-8.781 E23.05578
G1 X25.213 Y-8.046 E23.41612
G1 X37.187 Y3.929 E29.27877
G1 X37.187 Y5.401 E29.78837
G1 X24.476 Y-7.31 E36.01159
G1 X23.74 Y-6.575 E36.37193
G1 X36.859 Y6.545 E42.79511
G1 X36.123 Y7.281 E43.15544
G1 X11.713 Y-17.129 E55.10641
G1 X10.977 Y-16.393 E55.46675
G1 X35.387 Y8.017 E67.41772
G1 X34.651 Y8.753 E67.77806
G1 X10.241 Y-15.657 E79.72903
G1 X9.505 Y-14.921 E80.08937
G1 X30.584 Y6.157 E90.40923
G1 X30.28 Y6.12 E90.51523
G1 X29.916 Y6.174 E90.64262
G1 X29.664 Y6.281 E90.73748
G1 X29.417 Y6.463 E90.84351
G1 X8.769 Y-14.185 E100.95255
G1 X8.033 Y-13.449 E101.31289
G1 X28.681 Y7.198 E111.4217
G1 X27.944 Y7.934 E111.78203
G1 X7.297 Y-12.713 E121.8906
G1 X6.561 Y-11.977 E122.25094
G1 X27.208 Y8.669 E132.35927
G1 X26.522 Y9.354 E132.69446
G1 X23.658 Y6.489 E134.09672
G1 X23.471 Y6.335 E134.18059
G1 X23.34 Y6.274 E134.23092
G1 X8.975 Y-8.092 E141.26389
G1 X9.069 Y-7.848 E141.35433
G1 X9.102 Y-7.669 E141.41729
G1 X9.099 Y-7.358 E141.52488
G1 X8.986 Y-6.978 E141.66218
G1 X8.844 Y-6.75 E141.75518
G1 X21.982 Y6.387 E148.18708
G1 X21.858 Y6.489 E148.24259
G1 X21.235 Y7.113 E148.54767
G1 X8.117 Y-6.005 E154.9699
G1 X7.381 Y-5.269 E155.33024
G1 X20.499 Y7.849 E161.75247
G1 X19.763 Y8.585 E162.1128
G1 X6.645 Y-4.533 E168.53503
G1 X5.909 Y-3.797 E168.89537
G1 X19.027 Y9.321 E175.3176
G1 X18.291 Y10.057 E175.67794
G1 X5.173 Y-3.061 E182.10017
G1 X4.835 Y-2.723 E182.26579
G1 X4.604 Y-2.542 E182.36728
G1 X4.337 Y-2.425 E182.46815
G1 X17.655 Y10.892 E188.98834
G1 X17.622 Y10.99 E189.02385
G1 X17.585 Y11.289 E189.12811
G1 X17.638 Y11.657 E189.25691
G1 X17.717 Y11.857 E189.33138
G1 X17.825 Y12.039 E189.40452
G1 X17.956 Y12.194 E189.47493
G1 X20.819 Y15.057 E190.8767
G1 X20.584 Y15.293 E190.99222
G1 X-.064 Y-5.354 E201.10085
G1 X-.801 Y-4.619 E201.46119
G1 X19.849 Y16.03 E211.57086
G1 X19.114 Y16.767 E211.9312
G1 X-1.538 Y-3.884 E222.04189
G1 X-2.275 Y-3.149 E222.40222
G1 X3.372 Y2.497 E225.16666
G1 X3.459 Y2.447 E225.20151
G1 X3.824 Y2.36 E225.33164
G1 X4.183 Y2.379 E225.45604
G1 X4.413 Y2.448 E225.53924
G1 X4.604 Y2.542 E225.6128
G1 X4.835 Y2.723 E225.71429
G1 X8.739 Y6.627 E227.62557
G1 X8.864 Y6.773 E227.69212
G1 X8.986 Y6.978 E227.7749
G1 X9.099 Y7.358 E227.91221
G1 X9.102 Y7.669 E228.0198
G1 X9.069 Y7.848 E228.08275
G1 X8.971 Y8.097 E228.17542
G1 X18.379 Y17.504 E232.78115
G1 X17.864 Y18.021 E233.03345
G1 X17.702 Y18.299 E233.14518
G1 X8.28 Y8.878 E237.75786
G1 X7.546 Y9.615 E238.11819
G1 X20.667 Y22.737 E244.54235
G1 X19.931 Y23.473 E244.90269
G1 X6.811 Y10.353 E251.32608
G1 X6.077 Y11.091 E251.68642
G1 X19.195 Y24.209 E258.10905
G1 X18.459 Y24.945 E258.46939
G1 X12.789 Y19.274 E261.24563
G1 X12.595 Y19.621 E261.38315
G1 X12.13 Y20.088 E261.61122
G1 X17.723 Y25.681 E264.34949
G1 X16.987 Y26.417 E264.70983
G1 X11.395 Y20.825 E267.4476
G1 X10.66 Y21.562 E267.80793
G1 X16.251 Y27.153 E270.54519
G1 X15.515 Y27.889 E270.90552
G1 X9.598 Y21.972 E273.80246
G1 E271.80246 F2400
G92 E0
G1 Z1.8 F4800
G1 X10.047 Y22.421
G1 X13.647 Y18.821
G1 X9.883 Y7.528
G1 X3.937 Y1.583
G1 X2.792 Y2.728
G1 X2.461 Y3.059
G1 X2.913 Y3.511
G1 Z.8
G1 E2 F2400
G1 F600
G1 X-3.07 Y-2.472 E4.92909
G1 X-3.34 Y-2.381 E5.02777
G1 X-3.591 Y-2.356 E5.11523
G1 X-3.843 Y-2.381 E5.20269
G1 X-4.068 Y-2.448 E5.28393
G1 X-4.258 Y-2.542 E5.35749
G1 X-4.489 Y-2.723 E5.45898
G1 X-7.356 Y-5.589 E6.86244
G1 X-7.508 Y-5.438 E6.93674
G1 X1.849 Y3.919 E11.51751
G1 X1.112 Y4.654 E11.87784
G1 X-8.244 Y-4.702 E16.45845
G1 X-8.981 Y-3.967 E16.81878
G1 X.375 Y5.388 E21.39922
G1 X.173 Y5.59 E21.49787
G1 X-2.791 Y2.634 E22.94683
G1 X-3.107 Y2.45 E23.07334
G1 X-3.34 Y2.381 E23.1576
G1 X-3.591 Y2.356 E23.24506
G1 X-3.843 Y2.381 E23.33252
G1 X-4.045 Y2.441 E23.40547
G1 X-9.718 Y-3.232 E26.18291
G1 X-10.298 Y-2.652 E26.46701
G1 X-10.487 Y-2.529 E26.5449
G1 X-4.862 Y3.096 E29.29872
G1 X-5.598 Y3.832 E29.65906
G1 X-19.002 Y-9.572 E36.22159
G1 X-19.738 Y-8.836 E36.58193
G1 X-6.334 Y4.568 E43.14447
G1 X-7.07 Y5.304 E43.5048
G1 X-20.474 Y-8.1 E50.06734
G1 X-21.21 Y-7.364 E50.42768
G1 X-19.262 Y-5.416 E51.38168
G1 X-18.935 Y-5.46 E51.49588
G1 X-18.619 Y-5.42 E51.60588
G1 X-18.304 Y-5.295 E51.72325
G1 X-18.038 Y-5.094 E51.83883
G1 X-13.778 Y-.828 E53.92604
G1 X-13.657 Y-.659 E53.9979
G1 X-13.543 Y-.409 E54.09289
G1 X-13.49 Y-.184 E54.1729
G1 X-13.476 Y0 E54.23687
G1 X-13.49 Y.184 E54.30084
G1 X-13.522 Y.323 E54.35031
G1 X-11.443 Y2.403 E55.36831
G1 X-11.529 Y2.423 E55.39886
G1 X-11.783 Y2.54 E55.4958
G1 X-12.017 Y2.723 E55.59862
G1 X-12.306 Y3.012 E55.74
G1 X-14.131 Y1.187 E56.6335
G1 X-14.867 Y1.923 E56.99384
G1 X-13.042 Y3.748 E57.88733
G1 X-13.778 Y4.484 E58.24767
G1 X-15.603 Y2.659 E59.14116
G1 X-16.339 Y3.395 E59.5015
G1 X-14.514 Y5.22 E60.395
G1 X-15.25 Y5.956 E60.75533
G1 X-17.075 Y4.131 E61.64883
G1 X-17.811 Y4.867 E62.00917
G1 X-15.659 Y7.019 E63.06287
G1 E61.06287 F2400
G92 E0
G1 Z1.8 F4800
G1 X-16.107 Y6.57
G1 X-12.702 Y0
G1 X-18.935 Y-6.232
G1 X-20.176 Y-4.991
G1 X-20.242 Y-4.925
G1 X-19.794 Y-4.476
G1 Z.8
G1 E2 F2400
G1 F600
G1 X-21.946 Y-6.628 E3.05369
G1 X-22.682 Y-5.892 E3.41403
G1 X-20.857 Y-4.067 E4.30752
G1 X-21.593 Y-3.331 E4.66786
G1 X-23.418 Y-5.156 E5.56136
G1 X-24.154 Y-4.42 E5.92169
G1 X-22.329 Y-2.595 E6.81519
G1 X-23.065 Y-1.859 E7.17553
G1 X-24.89 Y-3.684 E8.06902
G1 X-25.626 Y-2.948 E8.42936
G1 X-23.474 Y-.796 E9.48305
G1 E7.48305 F2400
G92 E0
G1 Z1.8 F4800
G1 X-26.689 Y-2.54
G1 Z.8
G1 E2 F2400
G1 F600
G1 X-24.367 Y-.217 E3.13691
G1 X-24.394 Y0 E3.21277
G1 X-24.355 Y.315 E3.32277
G1 X-24.23 Y.63 E3.44014
G1 X-24.028 Y.896 E3.5557
G1 X-19.831 Y5.094 E5.61057
G1 X-19.565 Y5.295 E5.72613
G1 X-19.25 Y5.42 E5.84349
G1 X-18.935 Y5.46 E5.95349
G1 X-18.717 Y5.433 E6.02935
G1 X-16.722 Y7.428 E7.00607
G1 X-17.458 Y8.164 E7.3664
G1 X-27.098 Y-1.476 E12.08603
G1 X-27.834 Y-.74 E12.44636
G1 X-18.194 Y8.9 E17.16598
G1 X-18.93 Y9.636 E17.52632
G1 X-28.897 Y-.332 E22.40614
;LAYER_CHANGE
;Z:1.6
;HEIGHT:0.8
G1 Z1.6 F4800
G1 E20.40614 F2400
G92 E0
G1 Z2.6 F4800
G1 X-28.197 Y-.135
G1 X-18.935 Y9.398
G1 X-11.12 Y1.583
G1 X3.937 Y1.583
G1 X4.967 Y2.613
G1 X4.301 Y3.279
G1 Z1.6
G1 E2 F2400
;TYPE:External perimeter
;WIDTH:1.2
G1 F600
G1 X4.202 Y3.202 E2.04297
G1 X3.982 Y3.131 E2.12198
G1 X3.746 Y3.165 E2.20349
G1 X3.574 Y3.279 E2.27421
G1 X.173 Y6.68 E3.91906
G1 X-3.167 Y3.34 E5.53455
G1 X-3.327 Y3.202 E5.60675
G1 X-3.546 Y3.131 E5.68576
G1 X-3.782 Y3.165 E5.76727
G1 X-3.955 Y3.279 E5.83799
G1 X-7.355 Y6.68 E7.48284
G1 X-10.79 Y3.248 E9.14361
G1 X-11.035 Y3.136 E9.23566
G1 X-11.282 Y3.155 E9.32044
G1 X-11.483 Y3.279 E9.40124
G1 X-18.935 Y10.731 E13.00541
G1 X-29.665 Y0 E18.19571
G1 X-18.935 Y-10.731 E23.38601
G1 X-11.483 Y-3.279 E26.99018
G1 X-11.192 Y-3.134 E27.1014
G1 X-10.957 Y-3.155 E27.18221
G1 X-10.756 Y-3.279 E27.26301
G1 X-7.355 Y-6.68 E28.90786
G1 X-4.016 Y-3.34 E30.52335
G1 X-3.856 Y-3.202 E30.59556
G1 X-3.636 Y-3.131 E30.67456
G1 X-3.4 Y-3.165 E30.75608
G1 X-3.228 Y-3.279 E30.82679
G1 X.173 Y-6.68 E32.47164
G1 X3.513 Y-3.34 E34.08713
G1 X3.673 Y-3.202 E34.15933
G1 X3.892 Y-3.131 E34.23834
G1 X4.128 Y-3.165 E34.31985
G1 X4.301 Y-3.279 E34.39057
G1 X8.186 Y-7.165 E36.26999
G1 X8.322 Y-7.405 E36.36433
G1 X8.322 Y-7.651 E36.4485
G1 X8.186 Y-7.892 E36.54305
G1 X4.786 Y-11.293 E38.1879
G1 X11.21 Y-17.717 E41.29523
G1 X12.028 Y-18.556 E41.69614
G1 X12.099 Y-18.776 E41.77515
G1 X12.064 Y-19.012 E41.85666
G1 X11.951 Y-19.185 E41.92738
G1 X8.55 Y-22.585 E43.57223
G1 X15.23 Y-29.265 E46.80321
G1 X21.91 Y-22.585 E50.0342
G1 X18.57 Y-19.245 E51.6497
G1 X18.432 Y-19.086 E51.7219
G1 X18.36 Y-18.866 E51.80091
G1 X18.395 Y-18.63 E51.88242
G1 X18.509 Y-18.457 E51.95313
G1 X21.91 Y-15.057 E53.59799
G1 X18.509 Y-11.656 E55.24285
G1 X18.38 Y-11.442 E55.3284
G1 X18.373 Y-11.17 E55.42137
G1 X18.509 Y-10.929 E55.51591
G1 X22.395 Y-7.043 E57.39534
G1 X22.635 Y-6.908 E57.48988
G1 X22.903 Y-6.914 E57.5813
G1 X23.122 Y-7.043 E57.66841
G1 X26.522 Y-10.444 E59.31327
G1 X29.923 Y-7.043 E60.95812
G1 X29.999 Y-6.981 E60.9919
G1 X30.238 Y-6.895 E61.07857
G1 X30.47 Y-6.927 E61.15874
G1 X30.65 Y-7.043 E61.23214
G1 X34.051 Y-10.444 E62.87699
G1 X35.761 Y-8.734 E63.70399
G1 X35.761 Y8.734 E69.67861
G1 X34.051 Y10.444 E70.5056
G1 X30.65 Y7.043 E72.15045
G1 X30.561 Y6.972 E72.18947
G1 X30.384 Y6.902 E72.2546
G1 X30.144 Y6.913 E72.33661
G1 X29.923 Y7.043 E72.42451
G1 X26.522 Y10.444 E74.06936
G1 X23.122 Y7.043 E75.71421
G1 X22.903 Y6.914 E75.80133
G1 X22.635 Y6.908 E75.89275
G1 X22.395 Y7.043 E75.98729
G1 X18.509 Y10.929 E77.86671
G1 X18.373 Y11.17 E77.96126
G1 X18.38 Y11.442 E78.05422
G1 X18.509 Y11.656 E78.13978
G1 X21.91 Y15.057 E79.78464
G1 X18.57 Y18.397 E81.40014
G1 X18.432 Y18.556 E81.47233
G1 X18.36 Y18.776 E81.55134
G1 X18.395 Y19.012 E81.63285
G1 X18.509 Y19.185 E81.70357
G1 X21.91 Y22.585 E83.34842
G1 X15.23 Y29.265 E86.57942
G1 X8.55 Y22.585 E89.8104
G1 X11.89 Y19.245 E91.42589
G1 X12.028 Y19.086 E91.4981
G1 X12.099 Y18.866 E91.5771
G1 X12.064 Y18.63 E91.65862
G1 X11.951 Y18.457 E91.72933
G1 X4.786 Y11.293 E95.19488
G1 X8.186 Y7.892 E96.83974
G1 X8.321 Y7.655 E96.93288
G1 X8.322 Y7.405 E97.01846
G1 X8.186 Y7.165 E97.1128
G1 X4.407 Y3.385 E98.94092
G1 E96.94092 F2400
G92 E0
G1 Z2.6 F4800
G1 X-14.275 Y-.163
G1 Z1.6
G1 E2 F2400
G1 F480
G1 X-14.253 Y.073 E2.08081
G1 X-14.322 Y.265 E2.15042
G1 X-14.399 Y.364 E2.1934
G1 X-18.571 Y4.536 E4.21143
G1 X-18.809 Y4.671 E4.30505
G1 X-19.06 Y4.671 E4.39088
G1 X-19.23 Y4.593 E4.45475
G1 X-19.298 Y4.536 E4.48524
G1 X-23.47 Y.364 E6.50328
G1 X-23.605 Y.125 E6.59689
G1 X-23.605 Y-.125 E6.68273
G1 X-23.47 Y-.364 E6.77634
G1 X-19.298 Y-4.536 E8.79438
G1 X-19.06 Y-4.671 E8.888
G1 X-18.809 Y-4.671 E8.97383
G1 X-18.571 Y-4.536 E9.06745
G1 X-14.399 Y-.364 E11.08549
G1 X-14.354 Y-.29 E11.11499
G1 E9.11499 F2400
G92 E0
G1 Z2.6 F4800
G1 X-13.673 Y-.971
G1 X3.937 Y1.583
G1 X9.883 Y7.528
G1 X19.405 Y23.756
G1 X20.577 Y22.585
G1 X21.143 Y22.254
G1 Z1.6
G1 E2 F2400
;TYPE:Solid infill
;WIDTH:1.21018
G1 F600
G1 X15.226 Y28.171 E4.89005
