; generated by PrusaSlicer 2.5.2+win64 on 2023-05-28 at 07:03:05 UTC

; 

; external perimeters extrusion width = 0.45mm
; perimeters extrusion width = 0.45mm
; infill extrusion width = 0.45mm
; solid infill extrusion width = 0.45mm
; top infill extrusion width = 0.40mm
; first layer extrusion width = 0.42mm

; external perimeters extrusion width = 0.45mm
; perimeters extrusion width = 0.45mm
; infill extrusion width = 0.45mm
; solid infill extrusion width = 0.45mm
; top infill extrusion width = 0.40mm
; first layer extrusion width = 0.42mm

M107
M104 S200 ; set temperature
;TYPE:Custom
;G28 ; home all axes
G1 Z5 F5000 ; lift nozzle
M109 S200 ; set temperature and wait for it to be reached
G21 ; set units to millimeters
G90 ; use absolute coordinates
M82 ; use absolute distances for extrusion
G92 E0
; Filament gcode
M106 S255
;LAYER_CHANGE
;Z:0.3
;HEIGHT:0.3
G1 Z.3 F4800
G1 E-5 F2400
G92 E0
G1 Z1.3 F4800
G1 X-8.307 Y9.75
G1 Z.3
G1 E5 F2400
;TYPE:Skirt/Brim
;WIDTH:0.42
G1 X-9.138 Y10.142 E5.04075
G1 X-9.528 Y10.196 E5.05821
G1 X-10.34 Y10.175 E5.09423
G1 X-10.79 Y10.05 E5.11494
G1 X-11.313 Y9.776 E5.14112
G1 X-13.588 Y7.534 E5.28282
G1 X-15.766 Y9.701 E5.41911
G1 X-16.384 Y10.047 E5.45053
G1 X-17.023 Y10.193 E5.47957
G1 X-17.988 Y10.153 E5.52244
G1 X-18.316 Y10.051 E5.53768
G1 X-18.895 Y9.738 E5.56687
G1 X-21.118 Y7.535 E5.70568
G1 X-27.345 Y13.752 E6.09597
G1 X-27.952 Y14.091 E6.1268
G1 X-28.43 Y14.226 E6.14881
G1 X-29.441 Y14.226 E6.19366
G1 X-29.88 Y14.107 E6.21385
G1 X-30.563 Y13.723 E6.24861
G1 X-42.662 Y1.623 E7.00756
G1 X-43.128 Y.688 E7.05389
G1 X-43.181 Y.314 E7.07066
G1 X-43.181 Y-.327 E7.09909
G1 X-43.031 Y-.972 E7.12848
G1 X-42.658 Y-1.628 E7.16194
G1 X-30.563 Y-13.723 E7.92063
G1 X-29.915 Y-14.092 E7.95368
G1 X-29.488 Y-14.219 E7.97347
G1 X-28.382 Y-14.219 E8.02254
G1 X-27.954 Y-14.092 E8.04233
G1 X-27.307 Y-13.723 E8.07537
G1 X-21.12 Y-7.536 E8.46346
G1 X-18.979 Y-9.677 E8.59775
G1 X-18.043 Y-10.142 E8.64412
G1 X-17.655 Y-10.196 E8.66148
G1 X-16.801 Y-10.168 E8.6994
G1 X-16.392 Y-10.05 E8.71824
G1 X-15.913 Y-9.808 E8.74205
G1 X-13.594 Y-7.534 E8.88613
G1 X-11.455 Y-9.672 E9.02028
G1 X-10.798 Y-10.047 E9.05382
G1 X-10.115 Y-10.197 E9.08483
G1 X-9.236 Y-10.161 E9.12384
G1 X-8.893 Y-10.062 E9.13969
G1 X-8.665 Y-9.948 E9.15099
G1 X-8.484 Y-10.124 E9.16216
G1 X-8.611 Y-10.399 E9.1756
G1 X-8.726 Y-10.929 E9.19965
G1 X-8.73 Y-11.658 E9.23199
G1 X-8.53 Y-12.386 E9.26546
G1 X-8.204 Y-12.917 E9.29309
G1 X-2.302 Y-18.826 E9.66356
G1 X-4.627 Y-21.217 E9.81152
G1 X-4.861 Y-21.733 E9.83662
G1 X-4.966 Y-22.259 E9.86042
G1 X-4.951 Y-23.05 E9.89552
G1 X-4.725 Y-23.769 E9.92894
G1 X-4.417 Y-24.239 E9.95388
G1 X3.602 Y-32.258 E10.45685
G1 X4.249 Y-32.627 E10.4899
G1 X4.682 Y-32.755 E10.50993
G1 X5.71 Y-32.76 E10.55552
G1 X6.192 Y-32.636 E10.5776
G1 X6.858 Y-32.258 E10.61155
G1 X14.904 Y-24.211 E11.11629
G1 X15.336 Y-23.398 E11.15714
G1 X15.409 Y-23.025 E11.174
G1 X15.412 Y-22.133 E11.21353
G1 X15.214 Y-21.466 E11.24439
G1 X14.989 Y-21.073 E11.26451
G1 X12.763 Y-18.823 E11.40487
G1 X14.933 Y-16.643 E11.5413
G1 X15.278 Y-16.022 E11.57281
G1 X15.399 Y-15.587 E11.59285
G1 X15.407 Y-14.559 E11.63844
G1 X15.291 Y-14.122 E11.65848
G1 X15.176 Y-13.889 E11.66998
G1 X15.358 Y-13.709 E11.68133
G1 X15.589 Y-13.826 E11.69278
G1 X16.072 Y-13.946 E11.71488
G1 X16.859 Y-13.958 E11.74978
G1 X17.257 Y-13.892 E11.76769
G1 X17.998 Y-13.546 E11.80393
G1 X20.286 Y-11.299 E11.94623
G1 X22.552 Y-13.532 E12.08732
G1 X23.084 Y-13.813 E12.11402
G1 X23.602 Y-13.946 E12.13773
G1 X24.362 Y-13.96 E12.17143
G1 X24.739 Y-13.906 E12.18834
G1 X25.674 Y-13.441 E12.23467
G1 X27.816 Y-11.3 E12.36901
G1 X30.085 Y-13.535 E12.51029
G1 X30.755 Y-13.864 E12.54341
G1 X31.252 Y-13.96 E12.56586
G1 X31.927 Y-13.957 E12.59577
G1 X32.43 Y-13.854 E12.61854
G1 X33.203 Y-13.441 E12.65742
G1 X35.357 Y-11.286 E12.79258
G1 X35.918 Y-11.545 E12.81997
G1 X36.584 Y-11.664 E12.84998
G1 X37.204 Y-11.597 E12.87762
G1 X38.218 Y-11.19 E12.92611
G1 X38.868 Y-10.655 E12.96345
G1 X39.228 Y-10.07 E12.99393
G1 X39.401 Y-9.421 E13.02369
G1 X39.401 Y9.422 E13.85947
G1 X39.152 Y10.232 E13.89708
G1 X38.793 Y10.741 E13.9247
G1 X38.357 Y11.108 E13.94998
G1 X37.252 Y11.585 E14.00337
G1 X36.632 Y11.666 E14.03111
G1 X35.859 Y11.525 E14.06595
G1 X35.36 Y11.284 E14.09054
G1 X33.207 Y13.437 E14.22555
G1 X32.551 Y13.81 E14.25904
G1 X31.945 Y13.955 E14.2867
G1 X31.265 Y13.96 E14.31686
G1 X30.891 Y13.906 E14.33359
G1 X30.103 Y13.546 E14.37202
G1 X27.816 Y11.299 E14.51423
G1 X25.674 Y13.441 E14.64857
G1 X24.738 Y13.906 E14.69495
G1 X24.35 Y13.96 E14.71231
G1 X23.496 Y13.932 E14.75022
G1 X23.088 Y13.814 E14.76907
G1 X22.609 Y13.572 E14.79287
G1 X20.288 Y11.297 E14.93703
G1 X18.063 Y13.501 E15.07596
G1 X17.497 Y13.808 E15.1045
G1 X17.028 Y13.94 E15.12613
G1 X16.016 Y13.94 E15.17098
G1 X15.573 Y13.819 E15.19134
G1 X15.094 Y13.575 E15.21522
G1 X15.384 Y14.437 E15.25556
G1 X15.4 Y15.575 E15.30605
G1 X15.279 Y16.022 E15.32659
G1 X14.933 Y16.643 E15.35811
G1 X12.763 Y18.823 E15.49454
G1 X14.988 Y21.072 E15.63486
G1 X15.23 Y21.506 E15.6569
G1 X15.421 Y22.196 E15.68864
G1 X15.409 Y23.032 E15.72573
G1 X15.316 Y23.453 E15.74483
G1 X14.934 Y24.17 E15.78088
G1 X6.853 Y32.262 E16.28814
G1 X5.918 Y32.727 E16.33446
G1 X5.544 Y32.781 E16.35123
G1 X4.903 Y32.781 E16.37967
G1 X4.257 Y32.631 E16.40905
G1 X3.602 Y32.258 E16.44252
G1 X-4.417 Y24.239 E16.94548
G1 X-4.747 Y23.722 E16.97271
G1 X-4.959 Y22.996 E17.00624
G1 X-4.966 Y22.257 E17.03902
G1 X-4.861 Y21.733 E17.06274
G1 X-4.627 Y21.217 E17.08784
G1 X-2.302 Y18.826 E17.2358
G1 X-8.204 Y12.917 E17.60627
G1 X-8.53 Y12.386 E17.6339
G1 X-8.73 Y11.658 E17.66737
G1 X-8.726 Y10.929 E17.69971
G1 X-8.611 Y10.399 E17.72374
G1 X-8.333 Y9.804 E17.75289
G1 X-8.049 Y10.055 F4800
G1 F2400
G1 X-5.565 Y7.531 E17.90998
G1 X-6.063 Y7.033 E17.94123
G1 X-8.435 Y9.405 E18.09
G1 X-9.219 Y9.795 E18.12885
G1 X-9.534 Y9.84 E18.14298
G1 X-10.308 Y9.82 E18.1773
G1 X-10.645 Y9.724 E18.19286
G1 X-11.084 Y9.503 E18.21464
G1 X-13.59 Y7.032 E18.37075
G1 X-15.961 Y9.403 E18.51945
G1 X-16.534 Y9.723 E18.54856
G1 X-17.075 Y9.841 E18.57312
G1 X-17.907 Y9.806 E18.61007
G1 X-18.167 Y9.728 E18.62211
G1 X-18.664 Y9.466 E18.64703
G1 X-21.12 Y7.033 E18.80034
G1 X-27.54 Y13.454 E19.20308
G1 X-28.108 Y13.771 E19.23193
G1 X-28.455 Y13.871 E19.24793
G1 X-29.414 Y13.871 E19.2905
G1 X-29.761 Y13.771 E19.3065
G1 X-30.329 Y13.454 E19.33535
G1 X-42.39 Y1.392 E20.09193
G1 X-42.78 Y.608 E20.13076
G1 X-42.825 Y.301 E20.14455
G1 X-42.825 Y-.307 E20.17153
G1 X-42.708 Y-.822 E20.19494
G1 X-42.388 Y-1.394 E20.22402
G1 X-30.329 Y-13.454 E20.98046
G1 X-29.761 Y-13.771 E21.00931
G1 X-29.414 Y-13.871 E21.02531
G1 X-28.455 Y-13.871 E21.06788
G1 X-28.108 Y-13.771 E21.08388
G1 X-27.54 Y-13.454 E21.11273
G1 X-21.12 Y-7.033 E21.51548
G1 X-18.748 Y-9.405 E21.66425
G1 X-17.963 Y-9.795 E21.7031
G1 X-17.648 Y-9.84 E21.71723
G1 X-16.875 Y-9.82 E21.75155
G1 X-16.537 Y-9.724 E21.76711
G1 X-16.099 Y-9.503 E21.78889
G1 X-13.592 Y-7.032 E21.945
G1 X-11.221 Y-9.403 E22.0937
G1 X-10.648 Y-9.723 E22.12281
G1 X-10.107 Y-9.841 E22.14737
G1 X-9.275 Y-9.806 E22.18432
G1 X-9.015 Y-9.728 E22.19636
G1 X-8.518 Y-9.466 E22.22128
G1 X-6.063 Y-7.033 E22.37459
G1 X-5.565 Y-7.531 E22.40583
G1 X-8.049 Y-10.055 E22.56292
G1 X-8.269 Y-10.498 E22.58484
G1 X-8.374 Y-10.985 E22.60695
G1 X-8.374 Y-11.632 E22.63564
G1 X-8.196 Y-12.263 E22.66471
G1 X-7.915 Y-12.71 E22.68813
G1 X-1.801 Y-18.824 E23.07164
G1 X-4.318 Y-21.395 E23.23123
G1 X-4.517 Y-21.826 E23.2523
G1 X-4.61 Y-22.276 E23.27268
G1 X-4.603 Y-22.972 E23.30357
G1 X-4.412 Y-23.598 E23.33258
G1 X-4.151 Y-24.001 E23.35389
G1 X3.835 Y-31.988 E23.85487
G1 X4.403 Y-32.306 E23.88372
G1 X4.755 Y-32.406 E23.89997
G1 X5.647 Y-32.41 E23.93953
G1 X6.041 Y-32.313 E23.95753
G1 X6.624 Y-31.988 E23.98711
G1 X14.633 Y-23.979 E24.48949
G1 X15.007 Y-23.259 E24.52551
G1 X15.054 Y-23.008 E24.53681
G1 X15.056 Y-22.159 E24.57447
G1 X14.894 Y-21.622 E24.59939
G1 X14.718 Y-21.305 E24.61546
G1 X12.262 Y-18.822 E24.77034
G1 X14.663 Y-16.411 E24.92125
G1 X14.956 Y-15.87 E24.94853
G1 X15.043 Y-15.56 E24.96284
G1 X15.051 Y-14.583 E25.00619
G1 X14.955 Y-14.24 E25.02198
G1 X14.701 Y-13.756 E25.0462
G1 X12.262 Y-11.294 E25.19994
G1 X12.758 Y-10.797 E25.23107
G1 X15.128 Y-13.167 E25.37972
G1 X15.701 Y-13.487 E25.40883
G1 X16.138 Y-13.596 E25.42879
G1 X16.822 Y-13.604 E25.45917
G1 X17.132 Y-13.559 E25.47303
G1 X17.819 Y-13.237 E25.50668
G1 X20.287 Y-10.797 E25.6606
G1 X22.741 Y-13.23 E25.81387
G1 X23.23 Y-13.488 E25.8384
G1 X23.666 Y-13.596 E25.85831
G1 X24.351 Y-13.604 E25.88869
G1 X24.659 Y-13.559 E25.90251
G1 X25.443 Y-13.169 E25.94134
G1 X27.815 Y-10.797 E26.09011
G1 X30.271 Y-13.23 E26.24344
G1 X30.849 Y-13.521 E26.27214
G1 X31.271 Y-13.604 E26.2912
G1 X31.878 Y-13.604 E26.31816
G1 X32.29 Y-13.526 E26.33674
G1 X32.971 Y-13.17 E26.37083
G1 X35.347 Y-10.794 E26.51985
G1 X35.579 Y-10.996 E26.53353
G1 X36.005 Y-11.199 E26.55445
G1 X36.62 Y-11.309 E26.58214
G1 X37.137 Y-11.247 E26.60522
G1 X38.059 Y-10.872 E26.6494
G1 X38.583 Y-10.44 E26.67951
G1 X38.893 Y-9.949 E26.70529
G1 X39.045 Y-9.397 E26.73069
G1 X39.045 Y9.395 E27.5642
G1 X38.844 Y10.051 E27.5946
G1 X38.517 Y10.516 E27.61987
G1 X38.152 Y10.817 E27.64083
G1 X37.137 Y11.247 E27.68971
G1 X36.618 Y11.309 E27.71288
G1 X35.952 Y11.181 E27.74299
G1 X35.569 Y10.989 E27.76199
G1 X35.344 Y10.796 E27.77512
G1 X32.974 Y13.167 E27.92383
G1 X32.401 Y13.487 E27.9529
G1 X31.887 Y13.604 E27.97632
G1 X31.279 Y13.604 E28.00329
G1 X30.97 Y13.559 E28.01713
G1 X30.283 Y13.237 E28.05079
G1 X27.815 Y10.797 E28.2047
G1 X25.443 Y13.169 E28.35348
G1 X24.659 Y13.559 E28.39233
G1 X24.344 Y13.604 E28.40645
G1 X23.57 Y13.584 E28.44077
G1 X23.232 Y13.489 E28.45633
G1 X22.794 Y13.267 E28.47811
G1 X20.287 Y10.797 E28.63422
G1 X17.832 Y13.23 E28.78755
G1 X17.348 Y13.485 E28.81182
G1 X17.002 Y13.584 E28.82776
G1 X16.043 Y13.584 E28.87034
G1 X15.696 Y13.485 E28.88634
G1 X15.128 Y13.167 E28.91519
G1 X12.758 Y10.797 E29.06384
G1 X12.262 Y11.294 E29.09497
G1 X14.69 Y13.739 E29.24782
G1 X14.883 Y14.066 E29.26467
G1 X15.029 Y14.473 E29.28385
G1 X15.044 Y15.554 E29.33181
G1 X14.956 Y15.87 E29.34636
G1 X14.663 Y16.411 E29.37364
G1 X12.262 Y18.822 E29.52455
G1 X14.718 Y21.305 E29.67943
G1 X14.894 Y21.624 E29.69561
G1 X15.065 Y22.218 E29.72302
G1 X15.054 Y23.01 E29.75817
G1 X14.99 Y23.308 E29.77167
G1 X14.633 Y23.979 E29.80541
G1 X6.622 Y31.99 E30.3079
G1 X5.838 Y32.38 E30.34674
G1 X5.53 Y32.425 E30.36053
G1 X4.922 Y32.425 E30.3875
G1 X4.408 Y32.308 E30.41092
G1 X3.835 Y31.988 E30.43999
G1 X-4.151 Y24.002 E30.94093
G1 X-4.432 Y23.555 E30.96434
G1 X-4.61 Y22.925 E30.99341
G1 X-4.61 Y22.277 E31.02215
G1 X-4.517 Y21.826 E31.04257
G1 X-4.318 Y21.395 E31.06364
G1 X-1.801 Y18.824 E31.22323
G1 X-7.915 Y12.71 E31.60673
G1 X-8.196 Y12.263 E31.63015
G1 X-8.374 Y11.632 E31.65922
G1 X-8.374 Y10.985 E31.68791
G1 X-8.269 Y10.498 E31.71002
G1 X-8.076 Y10.109 E31.72928
G1 X-7.774 Y10.282 F4800
G1 F2400
G1 X-5.064 Y7.529 E31.90062
G1 X-6.063 Y6.53 E31.96329
G1 X-8.666 Y9.133 E32.12655
G1 X-9.3 Y9.447 E32.15796
G1 X-9.544 Y9.484 E32.16888
G1 X-10.237 Y9.471 E32.19965
G1 X-10.502 Y9.399 E32.21182
G1 X-10.898 Y9.198 E32.23152
G1 X-13.591 Y6.53 E32.39966
G1 X-16.194 Y9.133 E32.5629
G1 X-16.681 Y9.398 E32.58749
G1 X-17.085 Y9.485 E32.60583
G1 X-17.831 Y9.458 E32.63896
G1 X-18.018 Y9.404 E32.6476
G1 X-18.475 Y9.164 E32.67049
G1 X-21.12 Y6.531 E32.83603
G1 X-27.773 Y13.184 E33.25336
G1 X-28.258 Y13.448 E33.27788
G1 X-28.525 Y13.521 E33.29013
G1 X-29.345 Y13.521 E33.32649
G1 X-29.611 Y13.448 E33.33875
G1 X-30.096 Y13.184 E33.36327
G1 X-42.118 Y1.161 E34.11738
G1 X-42.433 Y.527 E34.14879
G1 X-42.47 Y.287 E34.15958
G1 X-42.47 Y-.288 E34.18508
G1 X-42.383 Y-.675 E34.20266
G1 X-42.118 Y-1.162 E34.22723
G1 X-30.096 Y-13.184 E34.98133
G1 X-29.611 Y-13.448 E35.00585
G1 X-29.345 Y-13.521 E35.01811
G1 X-28.525 Y-13.521 E35.05447
G1 X-28.258 Y-13.448 E35.06672
G1 X-27.773 Y-13.184 E35.09124
G1 X-21.12 Y-6.53 E35.50858
G1 X-18.517 Y-9.133 E35.67184
G1 X-17.882 Y-9.447 E35.70326
G1 X-17.639 Y-9.484 E35.71418
G1 X-16.945 Y-9.471 E35.74494
G1 X-16.681 Y-9.399 E35.75712
G1 X-16.284 Y-9.198 E35.77681
G1 X-13.591 Y-6.53 E35.94495
G1 X-10.989 Y-9.133 E36.1082
G1 X-10.502 Y-9.398 E36.13279
G1 X-10.098 Y-9.485 E36.15113
G1 X-9.351 Y-9.458 E36.18425
G1 X-9.164 Y-9.404 E36.1929
G1 X-8.708 Y-9.164 E36.21579
G1 X-6.063 Y-6.531 E36.38133
G1 X-5.064 Y-7.529 E36.44398
G1 X-7.774 Y-10.282 E36.61532
G1 X-7.938 Y-10.63 E36.63237
G1 X-8.019 Y-11.004 E36.64935
G1 X-8.019 Y-11.606 E36.67604
G1 X-7.862 Y-12.137 E36.70062
G1 X-7.65 Y-12.472 E36.7182
G1 X-1.3 Y-18.822 E37.11653
G1 X-4.01 Y-21.575 E37.28786
G1 X-4.174 Y-21.922 E37.30492
G1 X-4.255 Y-22.297 E37.3219
G1 X-4.255 Y-22.898 E37.34859
G1 X-4.098 Y-23.43 E37.37316
G1 X-3.886 Y-23.764 E37.39074
G1 X4.068 Y-31.718 E37.88965
G1 X4.553 Y-31.983 E37.91417
G1 X4.824 Y-32.057 E37.92663
G1 X5.625 Y-32.054 E37.96213
G1 X5.893 Y-31.989 E37.97437
G1 X6.391 Y-31.718 E37.99954
G1 X14.362 Y-23.747 E38.49951
G1 X14.664 Y-23.165 E38.52861
G1 X14.699 Y-22.986 E38.53669
G1 X14.708 Y-22.235 E38.56999
G1 X14.559 Y-21.745 E38.59274
G1 X14.421 Y-21.502 E38.60512
G1 X11.76 Y-18.821 E38.77267
G1 X14.363 Y-16.218 E38.93594
G1 X14.633 Y-15.72 E38.96108
G1 X14.694 Y-15.491 E38.97159
G1 X14.701 Y-14.651 E39.00886
G1 X14.628 Y-14.382 E39.02123
G1 X14.428 Y-13.986 E39.04093
G1 X11.76 Y-11.293 E39.20906
G1 X12.758 Y-10.294 E39.27167
G1 X15.361 Y-12.897 E39.43492
G1 X15.848 Y-13.163 E39.45954
G1 X16.198 Y-13.245 E39.47547
G1 X16.81 Y-13.248 E39.50261
G1 X17.05 Y-13.211 E39.51342
G1 X17.637 Y-12.93 E39.54229
G1 X20.287 Y-10.295 E39.70803
G1 X22.931 Y-12.928 E39.87353
G1 X23.375 Y-13.162 E39.89582
G1 X23.726 Y-13.245 E39.9118
G1 X24.338 Y-13.248 E39.93894
G1 X24.578 Y-13.212 E39.9497
G1 X25.212 Y-12.897 E39.98111
G1 X27.815 Y-10.295 E40.14435
G1 X30.459 Y-12.927 E40.30984
G1 X30.946 Y-13.178 E40.33415
G1 X31.289 Y-13.249 E40.3497
G1 X31.864 Y-13.249 E40.37516
G1 X32.154 Y-13.197 E40.38823
G1 X32.74 Y-12.898 E40.41742
G1 X35.348 Y-10.29 E40.581
G1 X35.766 Y-10.692 E40.60675
G1 X36.094 Y-10.854 E40.62294
G1 X36.654 Y-10.954 E40.64818
G1 X37.065 Y-10.899 E40.66656
G1 X37.898 Y-10.553 E40.70659
G1 X38.301 Y-10.223 E40.72967
G1 X38.56 Y-9.823 E40.7508
G1 X38.69 Y-9.371 E40.77169
G1 X38.69 Y9.369 E41.60289
G1 X38.537 Y9.869 E41.62607
G1 X38.241 Y10.29 E41.64891
G1 X37.95 Y10.523 E41.66543
G1 X37.026 Y10.909 E41.70986
G1 X36.608 Y10.953 E41.72848
G1 X36.09 Y10.853 E41.75191
G1 X35.756 Y10.685 E41.76847
G1 X35.344 Y10.294 E41.79368
G1 X32.741 Y12.897 E41.95696
G1 X32.254 Y13.162 E41.98154
G1 X31.868 Y13.249 E41.99912
G1 X31.293 Y13.249 E42.02462
G1 X31.051 Y13.211 E42.03546
G1 X30.464 Y12.93 E42.06433
G1 X27.815 Y10.295 E42.23008
G1 X25.212 Y12.897 E42.39332
G1 X24.578 Y13.212 E42.42473
G1 X24.334 Y13.248 E42.43565
G1 X23.641 Y13.235 E42.46642
G1 X23.376 Y13.163 E42.47859
G1 X22.98 Y12.962 E42.49829
G1 X20.287 Y10.295 E42.66641
G1 X17.642 Y12.928 E42.83194
G1 X17.2 Y13.161 E42.85412
G1 X16.932 Y13.235 E42.86643
G1 X16.112 Y13.235 E42.90279
G1 X15.846 Y13.162 E42.91505
G1 X15.361 Y12.897 E42.93957
G1 X12.758 Y10.294 E43.10281
G1 X11.76 Y11.293 E43.16544
G1 X14.421 Y13.973 E43.33297
G1 X14.553 Y14.201 E43.34465
G1 X14.684 Y14.565 E43.36181
G1 X14.694 Y15.488 E43.40276
G1 X14.633 Y15.721 E43.41342
G1 X14.363 Y16.218 E43.43855
G1 X11.76 Y18.821 E43.60182
G1 X14.421 Y21.502 E43.76937
G1 X14.559 Y21.743 E43.7817
G1 X14.715 Y22.289 E43.80689
G1 X14.699 Y22.983 E43.83766
G1 X14.649 Y23.207 E43.84783
G1 X14.363 Y23.747 E43.87495
G1 X6.391 Y31.718 E44.37497
G1 X5.757 Y32.033 E44.40638
G1 X5.516 Y32.07 E44.41717
G1 X4.941 Y32.07 E44.44267
G1 X4.555 Y31.983 E44.46025
G1 X4.068 Y31.718 E44.48482
G1 X-3.886 Y23.764 E44.98373
G1 X-4.098 Y23.43 E45.00131
G1 X-4.255 Y22.898 E45.02589
G1 X-4.255 Y22.297 E45.05258
G1 X-4.174 Y21.922 E45.06956
G1 X-4.01 Y21.575 E45.08661
G1 X-1.3 Y18.822 E45.25795
G1 X-7.65 Y12.472 E45.65628
G1 X-7.862 Y12.137 E45.67386
G1 X-8.019 Y11.606 E45.69844
G1 X-8.019 Y11.004 E45.72512
G1 X-7.938 Y10.63 E45.7421
G1 X-7.8 Y10.336 E45.7565
