; generated by PrusaSlicer 2.5.2+win64 on 2023-05-28 at 08:43:21 UTC

; 

; external perimeters extrusion width = 0.45mm
; perimeters extrusion width = 0.45mm
; infill extrusion width = 0.45mm
; solid infill extrusion width = 0.45mm
; top infill extrusion width = 0.40mm
; support material extrusion width = 0.40mm
; first layer extrusion width = 0.49mm

; external perimeters extrusion width = 0.45mm
; perimeters extrusion width = 0.45mm
; infill extrusion width = 0.45mm
; solid infill extrusion width = 0.45mm
; top infill extrusion width = 0.40mm
; support material extrusion width = 0.40mm
; first layer extrusion width = 0.49mm

M107
M104 S200 ; set temperature
;TYPE:Custom
;G28 ; home all axes
G1 Z5 F5000 ; lift nozzle
M109 S200 ; set temperature and wait for it to be reached
G21 ; set units to millimeters
G90 ; use absolute coordinates
M82 ; use absolute distances for extrusion
G92 E0
; Filament gcode
M106 S255
;LAYER_CHANGE
;Z:0.35
;HEIGHT:0.35
G1 Z.35 F4800
G1 E-5 F2400
G92 E0
G1 Z1.35 F4800
G1 X-5.94 Y5.94
G1 Z.35
G1 E5 F2400
;TYPE:Skirt/Brim
;WIDTH:0.49
G1 X-6.063 Y5.818 E5.01046
G1 X-9.008 Y8.763 E5.26193
G1 X-9.15 Y8.856 E5.27219
G1 X-9.528 Y8.98 E5.29615
G1 X-10.191 Y8.969 E5.3362
G1 X-10.504 Y8.857 E5.35627
G1 X-10.616 Y8.787 E5.36426
G1 X-13.591 Y5.818 E5.618
G1 X-16.566 Y8.787 E5.87175
G1 X-16.676 Y8.855 E5.87957
G1 X-17.058 Y8.981 E5.9038
G1 X-17.653 Y8.981 E5.93975
G1 X-17.772 Y8.96 E5.94705
G1 X-18.173 Y8.765 E5.97395
G1 X-21.12 Y5.818 E6.22555
G1 X-28.116 Y12.814 E6.82287
G1 X-28.26 Y12.908 E6.83329
G1 X-28.569 Y13.019 E6.8531
G1 X-29.3 Y13.019 E6.89722
G1 X-29.609 Y12.908 E6.91703
G1 X-29.753 Y12.814 E6.92745
G1 X-41.749 Y.819 E7.95158
G1 X-41.843 Y.674 E7.96201
G1 X-41.954 Y.364 E7.98192
G1 X-41.965 Y-.3 E8.02197
G1 X-41.842 Y-.677 E8.04593
G1 X-41.749 Y-.819 E8.05619
G1 X-29.753 Y-12.814 E9.08031
G1 X-29.611 Y-12.907 E9.09057
G1 X-29.234 Y-13.031 E9.11453
G1 X-28.571 Y-13.02 E9.15458
G1 X-28.26 Y-12.908 E9.17449
G1 X-28.116 Y-12.814 E9.18492
G1 X-21.12 Y-5.818 E9.78224
G1 X-18.172 Y-8.766 E10.03394
G1 X-17.816 Y-8.946 E10.05801
G1 X-17.651 Y-8.98 E10.06816
G1 X-16.992 Y-8.969 E10.10798
G1 X-16.679 Y-8.857 E10.12805
G1 X-16.566 Y-8.787 E10.13604
G1 X-13.591 Y-5.818 E10.38979
G1 X-10.616 Y-8.787 E10.64354
G1 X-10.506 Y-8.855 E10.65136
G1 X-10.125 Y-8.981 E10.67558
G1 X-9.529 Y-8.981 E10.71153
G1 X-9.41 Y-8.96 E10.71884
G1 X-9.01 Y-8.765 E10.74573
G1 X-6.063 Y-5.818 E10.99733
G1 X-4.353 Y-7.528 E11.14334
G1 X-7.339 Y-10.533 E11.3991
G1 X-7.48 Y-10.829 E11.41893
G1 X-7.515 Y-10.998 E11.42935
G1 X-7.515 Y-11.59 E11.46509
G1 X-7.391 Y-11.969 E11.48916
G1 X-7.298 Y-12.111 E11.49942
G1 X-.588 Y-18.821 E12.07227
G1 X-3.536 Y-21.769 E12.32396
G1 X-3.605 Y-21.868 E12.33126
G1 X-3.751 Y-22.289 E12.35815
G1 X-3.751 Y-22.883 E12.39402
G1 X-3.626 Y-23.262 E12.41809
G1 X-3.533 Y-23.404 E12.42834
G1 X4.411 Y-31.348 E13.10662
G1 X4.555 Y-31.443 E13.11705
G1 X4.865 Y-31.554 E13.13692
G1 X5.563 Y-31.561 E13.17904
G1 X5.688 Y-31.532 E13.18678
G1 X6.046 Y-31.351 E13.21101
G1 X13.994 Y-23.403 E13.88964
G1 X14.19 Y-23.002 E13.91654
G1 X14.21 Y-22.883 E13.92384
G1 X14.21 Y-22.287 E13.95979
G1 X14.085 Y-21.906 E13.98402
G1 X14.017 Y-21.796 E13.99183
G1 X11.048 Y-18.821 E14.24559
G1 X13.996 Y-15.873 E14.49728
G1 X14.177 Y-15.515 E14.52151
G1 X14.206 Y-15.39 E14.52925
G1 X14.198 Y-14.692 E14.57137
G1 X14.087 Y-14.38 E14.5914
G1 X14.017 Y-14.268 E14.59938
G1 X11.048 Y-11.292 E14.85314
G1 X12.758 Y-9.582 E14.99918
G1 X15.704 Y-12.527 E15.25066
G1 X15.846 Y-12.62 E15.26091
G1 X16.223 Y-12.744 E15.28487
G1 X16.886 Y-12.733 E15.32492
G1 X17.199 Y-12.621 E15.34499
G1 X17.312 Y-12.551 E15.35298
G1 X20.287 Y-9.582 E15.60674
G1 X23.232 Y-12.527 E15.8582
G1 X23.374 Y-12.62 E15.86846
G1 X23.751 Y-12.744 E15.89242
G1 X24.415 Y-12.733 E15.93247
G1 X24.727 Y-12.621 E15.95254
G1 X24.84 Y-12.551 E15.96052
G1 X27.815 Y-9.582 E16.21428
G1 X30.76 Y-12.527 E16.46574
G1 X30.903 Y-12.62 E16.476
G1 X31.28 Y-12.744 E16.49996
G1 X31.943 Y-12.733 E16.54001
G1 X32.256 Y-12.621 E16.56008
G1 X32.368 Y-12.551 E16.56807
G1 X35.342 Y-9.584 E16.82168
G1 X36.012 Y-10.238 E16.87823
G1 X36.176 Y-10.319 E16.88927
G1 X36.604 Y-10.396 E16.91553
G1 X36.788 Y-10.371 E16.92673
G1 X37.65 Y-10.014 E16.98304
G1 X37.838 Y-9.859 E16.99776
G1 X38.046 Y-9.548 E17.02037
G1 X38.117 Y-9.314 E17.03509
G1 X38.117 Y9.314 E18.15975
G1 X38.046 Y9.548 E18.17447
G1 X37.836 Y9.862 E18.19731
G1 X37.699 Y9.984 E18.20839
G1 X36.736 Y10.383 E18.27131
G1 X36.555 Y10.394 E18.28227
G1 X36.13 Y10.301 E18.30853
G1 X35.969 Y10.208 E18.31972
G1 X35.343 Y9.582 E18.37317
G1 X32.398 Y12.527 E18.62464
G1 X32.256 Y12.62 E18.6349
G1 X31.879 Y12.744 E18.65886
G1 X31.215 Y12.733 E18.69891
G1 X30.902 Y12.621 E18.71898
G1 X30.79 Y12.551 E18.72697
G1 X27.815 Y9.582 E18.98073
G1 X24.87 Y12.527 E19.23219
G1 X24.725 Y12.622 E19.24261
G1 X24.415 Y12.733 E19.26252
G1 X23.751 Y12.744 E19.30257
G1 X23.372 Y12.619 E19.32669
G1 X23.262 Y12.551 E19.33451
G1 X20.287 Y9.582 E19.58826
G1 X17.312 Y12.551 E19.842
G1 X17.199 Y12.621 E19.84999
G1 X16.886 Y12.733 E19.87006
G1 X16.223 Y12.744 E19.91011
G1 X15.846 Y12.62 E19.93407
G1 X15.704 Y12.527 E19.94433
G1 X12.758 Y9.582 E20.1958
G1 X11.048 Y11.292 E20.34184
G1 X14.017 Y14.268 E20.5956
G1 X14.087 Y14.38 E20.60359
G1 X14.198 Y14.692 E20.62362
G1 X14.206 Y15.39 E20.66573
G1 X14.177 Y15.515 E20.67348
G1 X13.996 Y15.873 E20.69771
G1 X11.048 Y18.821 E20.9494
G1 X13.996 Y21.769 E21.2011
G1 X14.177 Y22.127 E21.22532
G1 X14.206 Y22.254 E21.23318
G1 X14.21 Y22.88 E21.27098
G1 X14.175 Y23.046 E21.2812
G1 X13.996 Y23.401 E21.30527
G1 X6.049 Y31.348 E21.98377
G1 X5.904 Y31.443 E21.9942
G1 X5.594 Y31.554 E22.01411
G1 X4.93 Y31.565 E22.05416
G1 X4.553 Y31.441 E22.07812
G1 X4.411 Y31.348 E22.08838
G1 X-3.533 Y23.404 E22.76666
G1 X-3.626 Y23.262 E22.77691
G1 X-3.751 Y22.883 E22.80099
G1 X-3.751 Y22.289 E22.83685
G1 X-3.605 Y21.868 E22.86374
G1 X-3.536 Y21.769 E22.87105
G1 X-.588 Y18.821 E23.12273
G1 X-7.298 Y12.111 E23.69559
G1 X-7.391 Y11.969 E23.70584
G1 X-7.515 Y11.59 E23.72991
G1 X-7.515 Y10.996 E23.76578
G1 X-7.37 Y10.575 E23.79267
G1 X-7.3 Y10.476 E23.79997
G1 X-4.352 Y7.528 E24.05166
G1 X-5.898 Y5.983 E24.18363
G1 X-5.605 Y5.689 F4800
G1 F2400
G1 X-6.063 Y5.231 E24.22276
G1 X-9.288 Y8.456 E24.49811
G1 X-9.568 Y8.566 E24.51626
G1 X-10.086 Y8.566 E24.54755
G1 X-10.366 Y8.456 E24.5657
G1 X-13.591 Y5.231 E24.84105
G1 X-16.816 Y8.456 E25.11641
G1 X-17.096 Y8.566 E25.13455
G1 X-17.63 Y8.566 E25.16679
G1 X-17.906 Y8.445 E25.18494
G1 X-21.12 Y5.231 E25.45935
G1 X-28.396 Y12.507 E26.08055
G1 X-28.675 Y12.616 E26.0987
G1 X-29.194 Y12.616 E26.12999
G1 X-29.474 Y12.507 E26.14814
G1 X-41.442 Y.539 E27.16993
G1 X-41.551 Y.259 E27.18808
G1 X-41.551 Y-.259 E27.21938
G1 X-41.442 Y-.539 E27.23752
G1 X-29.474 Y-12.507 E28.25932
G1 X-29.194 Y-12.616 E28.27746
G1 X-28.675 Y-12.616 E28.30876
G1 X-28.396 Y-12.507 E28.32691
G1 X-21.12 Y-5.231 E28.94811
G1 X-17.906 Y-8.445 E29.22252
G1 X-17.63 Y-8.566 E29.24067
G1 X-17.096 Y-8.566 E29.27291
G1 X-16.816 Y-8.456 E29.29105
G1 X-13.591 Y-5.231 E29.5664
G1 X-10.366 Y-8.456 E29.84176
G1 X-10.086 Y-8.566 E29.8599
G1 X-9.517 Y-8.559 E29.89426
G1 X-9.277 Y-8.445 E29.91031
G1 X-6.063 Y-5.231 E30.18472
G1 X-3.765 Y-7.528 E30.38086
G1 X-6.98 Y-10.742 E30.65527
G1 X-7.1 Y-11.018 E30.67342
G1 X-7.1 Y-11.552 E30.70566
G1 X-7.01 Y-11.802 E30.7217
G1 X-.001 Y-18.821 E31.32055
G1 X-3.226 Y-22.046 E31.59591
G1 X-3.336 Y-22.326 E31.61405
G1 X-3.336 Y-22.844 E31.64535
G1 X-3.246 Y-23.095 E31.66139
G1 X4.691 Y-31.041 E32.33946
G1 X4.971 Y-31.151 E32.3576
G1 X5.505 Y-31.151 E32.38984
G1 X5.78 Y-31.03 E32.40799
G1 X13.675 Y-23.135 E33.08205
G1 X13.788 Y-22.895 E33.09809
G1 X13.795 Y-22.326 E33.13245
G1 X13.686 Y-22.046 E33.1506
G1 X10.461 Y-18.821 E33.42595
G1 X13.675 Y-15.607 E33.70036
G1 X13.788 Y-15.367 E33.71641
G1 X13.795 Y-14.798 E33.75077
G1 X13.686 Y-14.518 E33.76891
G1 X10.461 Y-11.293 E34.04427
G1 X12.758 Y-8.995 E34.24041
G1 X15.983 Y-12.22 E34.51577
G1 X16.263 Y-12.33 E34.53391
G1 X16.782 Y-12.33 E34.56521
G1 X17.061 Y-12.22 E34.58335
G1 X20.287 Y-8.995 E34.85871
G1 X23.512 Y-12.22 E35.13406
G1 X23.792 Y-12.33 E35.15221
G1 X24.31 Y-12.33 E35.1835
G1 X24.59 Y-12.22 E35.20165
G1 X27.815 Y-8.995 E35.477
G1 X31.04 Y-12.22 E35.75236
G1 X31.32 Y-12.33 E35.7705
G1 X31.838 Y-12.33 E35.8018
G1 X32.118 Y-12.22 E35.81994
G1 X35.343 Y-8.995 E36.0953
G1 X36.238 Y-9.89 E36.17171
G1 X36.293 Y-9.919 E36.17542
G1 X36.6 Y-9.98 E36.19434
G1 X36.661 Y-9.974 E36.19805
G1 X37.463 Y-9.642 E36.25044
G1 X37.51 Y-9.603 E36.25415
G1 X37.684 Y-9.343 E36.27306
G1 X37.702 Y-9.284 E36.27678
G1 X37.702 Y9.284 E37.39775
G1 X37.684 Y9.343 E37.40146
G1 X37.51 Y9.603 E37.42037
G1 X37.463 Y9.642 E37.42409
G1 X36.661 Y9.974 E37.47647
G1 X36.6 Y9.98 E37.48019
G1 X36.293 Y9.919 E37.4991
G1 X36.238 Y9.89 E37.50282
G1 X35.343 Y8.995 E37.57923
G1 X32.118 Y12.22 E37.85458
G1 X31.838 Y12.33 E37.87273
G1 X31.32 Y12.33 E37.90402
G1 X31.04 Y12.22 E37.92217
G1 X27.815 Y8.995 E38.19752
G1 X24.59 Y12.22 E38.47288
G1 X24.31 Y12.33 E38.49102
G1 X23.792 Y12.33 E38.52232
G1 X23.512 Y12.22 E38.54046
G1 X20.287 Y8.995 E38.81582
G1 X17.061 Y12.22 E39.09117
G1 X16.782 Y12.33 E39.10931
G1 X16.263 Y12.33 E39.14061
G1 X15.983 Y12.22 E39.15876
G1 X12.758 Y8.995 E39.43411
G1 X10.461 Y11.293 E39.63026
G1 X13.686 Y14.518 E39.90561
G1 X13.795 Y14.798 E39.92376
G1 X13.788 Y15.367 E39.95811
G1 X13.675 Y15.607 E39.97416
G1 X10.461 Y18.821 E40.24857
G1 X13.675 Y22.035 E40.52298
G1 X13.795 Y22.31 E40.54113
G1 X13.788 Y22.895 E40.57643
G1 X13.675 Y23.135 E40.59247
G1 X5.769 Y31.041 E41.26748
G1 X5.489 Y31.151 E41.28562
G1 X4.971 Y31.151 E41.31692
G1 X4.691 Y31.041 E41.33506
G1 X-3.246 Y23.095 E42.01313
G1 X-3.336 Y22.844 E42.02917
G1 X-3.336 Y22.326 E42.06047
G1 X-3.226 Y22.046 E42.07861
G1 X-.001 Y18.821 E42.35397
G1 X-7.01 Y11.802 E42.95282
G1 X-7.1 Y11.552 E42.96886
G1 X-7.1 Y11.033 E43.00016
G1 X-6.991 Y10.753 E43.01831
G1 X-3.765 Y7.528 E43.29366
G1 X-5.562 Y5.732 E43.44705
G1 X-5.269 Y5.438 F4800
G1 F2400
G1 X-6.063 Y4.644 E43.51485
G1 X-9.538 Y8.119 E43.81153
G1 X-9.614 Y8.151 E43.81651
G1 X-10.04 Y8.151 E43.84224
G1 X-10.116 Y8.119 E43.84723
G1 X-13.591 Y4.644 E44.1439
G1 X-17.066 Y8.119 E44.44058
G1 X-17.142 Y8.151 E44.44556
G1 X-17.569 Y8.151 E44.4713
G1 X-17.645 Y8.119 E44.47628
G1 X-21.12 Y4.644 E44.77296
G1 X-28.645 Y12.17 E45.41548
G1 X-28.722 Y12.202 E45.42047
G1 X-29.148 Y12.202 E45.4462
G1 X-29.224 Y12.17 E45.45118
G1 X-41.105 Y.289 E46.46553
G1 X-41.136 Y.213 E46.47051
G1 X-41.136 Y-.213 E46.49624
G1 X-41.105 Y-.289 E46.50122
G1 X-29.224 Y-12.17 E47.51557
G1 X-29.148 Y-12.202 E47.52055
G1 X-28.722 Y-12.202 E47.54629
G1 X-28.645 Y-12.17 E47.55127
G1 X-21.12 Y-4.644 E48.19379
G1 X-17.645 Y-8.119 E48.49047
G1 X-17.569 Y-8.151 E48.49545
G1 X-17.142 Y-8.151 E48.52119
G1 X-17.066 Y-8.119 E48.52617
G1 X-13.591 Y-4.644 E48.82285
G1 X-10.116 Y-8.119 E49.11952
G1 X-10.04 Y-8.151 E49.12451
G1 X-9.614 Y-8.151 E49.15024
G1 X-9.538 Y-8.119 E49.15522
G1 X-6.063 Y-4.644 E49.4519
G1 X-3.179 Y-7.528 E49.69814
G1 X-6.654 Y-11.003 E49.99481
G1 X-6.685 Y-11.079 E49.9998
G1 X-6.685 Y-11.506 E50.02553
G1 X-6.654 Y-11.582 E50.03051
G1 X.585 Y-18.821 E50.64857
G1 X-2.889 Y-22.296 E50.94525
G1 X-2.921 Y-22.372 E50.95023
G1 X-2.921 Y-22.798 E50.97596
G1 X-2.889 Y-22.875 E50.98094
G1 X4.94 Y-30.704 E51.64944
G1 X5.017 Y-30.736 E51.65442
G1 X5.443 Y-30.736 E51.68016
G1 X5.519 Y-30.704 E51.68514
G1 X13.349 Y-22.875 E52.35364
G1 X13.381 Y-22.798 E52.35862
G1 X13.381 Y-22.372 E52.38435
G1 X13.349 Y-22.296 E52.38933
G1 X9.874 Y-18.821 E52.68601
G1 X13.349 Y-15.346 E52.98269
G1 X13.381 Y-15.27 E52.98767
G1 X13.381 Y-14.844 E53.0134
G1 X13.349 Y-14.767 E53.01839
G1 X9.874 Y-11.293 E53.31506
G1 X12.758 Y-8.409 E53.56131
G1 X16.233 Y-11.883 E53.85798
G1 X16.309 Y-11.915 E53.86297
G1 X16.735 Y-11.915 E53.8887
G1 X16.812 Y-11.883 E53.89368
G1 X20.287 Y-8.409 E54.19036
G1 X23.761 Y-11.883 E54.48703
G1 X23.838 Y-11.915 E54.49202
G1 X24.264 Y-11.915 E54.51775
G1 X24.34 Y-11.883 E54.52273
G1 X27.815 Y-8.409 E54.81941
G1 X31.29 Y-11.883 E55.11609
G1 X31.366 Y-11.915 E55.12107
G1 X31.792 Y-11.915 E55.1468
G1 X31.869 Y-11.883 E55.15178
G1 X35.343 Y-8.409 E55.44846
G1 X36.465 Y-9.531 E55.54426
G1 X36.589 Y-9.555 E55.55186
G1 X37.217 Y-9.295 E55.59293
G1 X37.287 Y-9.19 E55.60053
G1 X37.287 Y9.19 E56.71018
G1 X37.217 Y9.295 E56.71778
G1 X36.589 Y9.555 E56.75885
G1 X36.465 Y9.531 E56.76645
G1 X35.343 Y8.409 E56.86225
G1 X31.869 Y11.883 E57.15893
G1 X31.792 Y11.915 E57.16391
G1 X31.366 Y11.915 E57.18964
G1 X31.29 Y11.883 E57.19463
G1 X27.815 Y8.409 E57.4913
G1 X24.34 Y11.883 E57.78798
G1 X24.264 Y11.915 E57.79296
G1 X23.838 Y11.915 E57.81869
G1 X23.761 Y11.883 E57.82368
G1 X20.287 Y8.409 E58.12035
G1 X16.812 Y11.883 E58.41703
G1 X16.735 Y11.915 E58.42201
G1 X16.309 Y11.915 E58.44775
G1 X16.233 Y11.883 E58.45273
G1 X12.758 Y8.409 E58.7494
G1 X9.874 Y11.293 E58.99564
G1 X13.349 Y14.767 E59.29232
G1 X13.381 Y14.844 E59.29731
G1 X13.381 Y15.27 E59.32304
G1 X13.349 Y15.346 E59.32802
G1 X9.874 Y18.821 E59.6247
G1 X13.349 Y22.296 E59.92137
G1 X13.381 Y22.372 E59.92636
G1 X13.381 Y22.798 E59.95209
G1 X13.349 Y22.875 E59.95707
G1 X5.519 Y30.704 E60.62557
G1 X5.443 Y30.736 E60.63055
G1 X5.017 Y30.736 E60.65629
G1 X4.94 Y30.704 E60.66127
G1 X-2.889 Y22.875 E61.32977
G1 X-2.921 Y22.798 E61.33475
G1 X-2.921 Y22.372 E61.36048
G1 X-2.889 Y22.296 E61.36546
G1 X.585 Y18.821 E61.66214
G1 X-6.654 Y11.582 E62.2802
G1 X-6.685 Y11.506 E62.28518
G1 X-6.685 Y11.079 E62.31091
G1 X-6.654 Y11.003 E62.3159
G1 X-3.179 Y7.528 E62.61257
G1 X-5.226 Y5.481 E62.78739
G1 X-4.933 Y5.187 F4800
G1 F2400
G1 X-6.063 Y4.058 E62.88386
G1 X-9.741 Y7.736 E63.19791
G1 X-9.913 Y7.736 E63.20828
G1 X-13.591 Y4.058 E63.52233
G1 X-17.27 Y7.736 E63.83637
G1 X-17.441 Y7.736 E63.84675
G1 X-21.12 Y4.058 E64.16079
G1 X-28.849 Y11.787 E64.82069
G1 X-29.021 Y11.787 E64.83107
G1 X-40.721 Y.086 E65.83006
G1 X-40.721 Y-.086 E65.84043
G1 X-29.021 Y-11.787 E66.83942
G1 X-28.849 Y-11.787 E66.8498
G1 X-21.12 Y-4.058 E67.50969
G1 X-17.441 Y-7.736 E67.82374
G1 X-17.27 Y-7.736 E67.83411
G1 X-13.591 Y-4.058 E68.14816
G1 X-9.913 Y-7.736 E68.46221
G1 X-9.741 Y-7.736 E68.47258
G1 X-6.063 Y-4.058 E68.78663
G1 X-2.592 Y-7.528 E69.08296
G1 X-6.27 Y-11.207 E69.39701
G1 X-6.27 Y-11.379 E69.40738
G1 X1.172 Y-18.821 E70.04281
G1 X-2.506 Y-22.499 E70.35686
G1 X-2.506 Y-22.671 E70.36723
G1 X5.144 Y-30.321 E71.02037
G1 X5.316 Y-30.321 E71.03075
G1 X12.966 Y-22.671 E71.68389
G1 X12.966 Y-22.499 E71.69426
G1 X9.287 Y-18.821 E72.00831
G1 X12.966 Y-15.143 E72.32236
G1 X12.966 Y-14.971 E72.33273
G1 X9.287 Y-11.293 E72.64678
G1 X12.758 Y-7.822 E72.94311
G1 X16.436 Y-11.5 E73.25716
G1 X16.608 Y-11.5 E73.26754
G1 X20.287 Y-7.822 E73.58158
G1 X23.965 Y-11.5 E73.89563
G1 X24.137 Y-11.5 E73.906
G1 X27.815 Y-7.822 E74.22005
G1 X31.493 Y-11.5 E74.5341
G1 X31.665 Y-11.5 E74.54447
G1 X35.343 Y-7.822 E74.85852
G1 X36.616 Y-9.095 E74.9672
G1 X36.872 Y-8.989 E74.98394
G1 X36.872 Y8.989 E76.06926
G1 X36.616 Y9.095 E76.08599
G1 X35.343 Y7.822 E76.19467
G1 X31.665 Y11.5 E76.50872
G1 X31.493 Y11.5 E76.51909
G1 X27.815 Y7.822 E76.83314
G1 X24.137 Y11.5 E77.14719
G1 X23.965 Y11.5 E77.15756
G1 X20.287 Y7.822 E77.47161
G1 X16.608 Y11.5 E77.78565
G1 X16.436 Y11.5 E77.79603
G1 X12.758 Y7.822 E78.11007
G1 X9.287 Y11.293 E78.40641
G1 X12.966 Y14.971 E78.72046
G1 X12.966 Y15.143 E78.73083
G1 X9.287 Y18.821 E79.04488
G1 X12.966 Y22.499 E79.35893
G1 X12.966 Y22.671 E79.3693
G1 X5.316 Y30.321 E80.02244
G1 X5.144 Y30.321 E80.03282
G1 X-2.506 Y22.671 E80.68596
G1 X-2.506 Y22.499 E80.69633
G1 X1.172 Y18.821 E81.01038
G1 X-6.27 Y11.379 E81.64581
G1 X-6.27 Y11.207 E81.65618
G1 X-2.592 Y7.528 E81.97023
G1 X-4.891 Y5.23 E82.16647
G1 E77.16647
G92 E0
G1 Z1.35 F4800
G1 X-6.023 Y2.681
G1 Z.35
G1 E5 F2400
;TYPE:Perimeter
;WIDTH:0.49
G1 X-6.063 Y2.674 E5.00243
G1 X-6.448 Y2.748 E5.02612
G1 X-6.796 Y2.978 E5.0513
G1 X-9.827 Y6.008 E5.31006
G1 X-12.858 Y2.978 E5.56882
G1 X-13.206 Y2.748 E5.594
G1 X-13.591 Y2.674 E5.61769
G1 X-13.976 Y2.748 E5.64137
