;FLAVOR:Marlin
;TIME:441
;Filament used: 2.35202m
;Layer height: 0.8
;MINX:-23.302
;MINY:-25.684
;MINZ:0.7
;MAXX:23.302
;MAXY:25.685
;MAXZ:7.1
;Generated with Cura_SteamEngine 5.2.2
M104 S200
M105
M109 S200
M82 ;absolute extrusion mode
;G28 ;Home
G1 Z15.0 F6000 ;Move the platform down 15mm
;Prime the extruder
G92 E0
G1 F200 E3
G92 E0
G92 E0
G92 E0
G1 F1500 E-5
;LAYER_COUNT:9
;LAYER:0
;M107
M106 S255
G0 F1200 X-17.683 Y14.701 Z0.7
;TYPE:SKIRT
G1 F1500 E0
G1 F600 X-18.089 Y14.594 E0.12219
G1 X-18.813 Y14.32 E0.34748
G1 X-19.506 Y13.973 E0.57303
G1 X-20.158 Y13.556 E0.79827
G1 X-20.764 Y13.074 E1.02361
G1 X-21.318 Y12.533 E1.24897
G1 X-21.812 Y11.937 E1.47425
G1 X-22.243 Y11.293 E1.69977
G1 X-22.605 Y10.609 E1.925
G1 X-22.894 Y9.891 E2.15024
G1 X-23.108 Y9.146 E2.37583
G1 X-23.244 Y8.384 E2.60109
G1 X-23.302 Y7.451 E2.87314
G1 X-23.302 Y-18.184 E10.3336
G1 X-23.262 Y-18.957 E10.55886
G1 X-23.143 Y-19.722 E10.78418
G1 X-22.945 Y-20.471 E11.00964
G1 X-22.671 Y-21.195 E11.23493
G1 X-22.324 Y-21.888 E11.46048
G1 X-21.907 Y-22.54 E11.68572
G1 X-21.425 Y-23.146 E11.91107
G1 X-20.884 Y-23.7 E12.13642
G1 X-20.288 Y-24.194 E12.36171
G1 X-19.644 Y-24.625 E12.58723
G1 X-18.96 Y-24.987 E12.81245
G1 X-18.242 Y-25.276 E13.0377
G1 X-17.497 Y-25.49 E13.26328
G1 X-16.735 Y-25.626 E13.48855
G1 X-15.802 Y-25.684 E13.7606
G1 X-5.068 Y-25.684 E16.88447
G1 X-4.295 Y-25.644 E17.10974
G1 X-3.53 Y-25.525 E17.33505
G1 X-2.781 Y-25.327 E17.56051
G1 X-2.057 Y-25.053 E17.7858
G1 X-1.364 Y-24.706 E18.01135
G1 X-.712 Y-24.289 E18.23659
G1 X0.007 Y-23.717 E18.50398
G1 X0.582 Y-24.194 E18.7214
G1 X1.226 Y-24.625 E18.94693
G1 X1.91 Y-24.987 E19.17215
G1 X2.628 Y-25.276 E19.3974
G1 X3.373 Y-25.49 E19.62298
G1 X4.135 Y-25.626 E19.84824
G1 X5.068 Y-25.684 E20.1203
G1 X15.802 Y-25.684 E23.24417
G1 X16.575 Y-25.644 E23.46943
G1 X17.34 Y-25.525 E23.69475
G1 X18.089 Y-25.327 E23.92021
G1 X18.813 Y-25.053 E24.1455
G1 X19.506 Y-24.706 E24.37105
G1 X20.158 Y-24.289 E24.59629
G1 X20.764 Y-23.807 E24.82164
G1 X21.318 Y-23.266 E25.04699
G1 X21.812 Y-22.67 E25.27228
G1 X22.243 Y-22.026 E25.4978
G1 X22.605 Y-21.342 E25.72302
G1 X22.894 Y-20.624 E25.94827
G1 X23.108 Y-19.879 E26.17385
G1 X23.244 Y-19.117 E26.39911
G1 X23.302 Y-18.184 E26.67117
G1 X23.302 Y7.451 E34.13162
G1 X23.262 Y8.224 E34.35689
G1 X23.143 Y8.989 E34.5822
G1 X22.945 Y9.738 E34.80767
G1 X22.671 Y10.462 E35.03295
G1 X22.324 Y11.155 E35.2585
G1 X21.907 Y11.807 E35.48374
G1 X21.425 Y12.413 E35.70909
G1 X20.884 Y12.967 E35.93444
G1 X20.288 Y13.461 E36.15973
G1 X19.644 Y13.892 E36.38525
G1 X18.96 Y14.254 E36.61047
G1 X18.242 Y14.543 E36.83572
G1 X17.691 Y14.701 E37.00254
G1 X17.583 Y15.11 E37.12565
G1 X17.309 Y15.834 E37.35093
G1 X16.962 Y16.527 E37.57649
G1 X16.545 Y17.179 E37.80172
G1 X16.063 Y17.785 E38.02707
G1 X15.522 Y18.339 E38.25242
G1 X14.926 Y18.833 E38.47771
G1 X14.282 Y19.264 E38.70323
G1 X13.598 Y19.626 E38.92845
G1 X12.88 Y19.915 E39.1537
G1 X12.149 Y20.125 E39.37504
G1 X11.835 Y20.856 E39.60658
G1 X11.457 Y21.532 E39.83198
G1 X11.011 Y22.165 E40.05734
G1 X10.502 Y22.748 E40.28257
G1 X9.935 Y23.276 E40.50805
G1 X9.166 Y23.843 E40.78611
G1 X8.461 Y24.296 E41.02998
G1 X7.789 Y24.68 E41.25523
G1 X7.081 Y24.993 E41.48051
G1 X6.344 Y25.232 E41.706
G1 X5.587 Y25.393 E41.93123
G1 X4.743 Y25.478 E42.1781
G1 X0.148 Y25.684 E43.51671
G1 X-5.067 Y25.685 E45.03441
G1 X-5.84 Y25.645 E45.25967
G1 X-6.605 Y25.526 E45.48499
G1 X-7.354 Y25.328 E45.71045
G1 X-8.078 Y25.055 E45.93564
G1 X-8.77 Y24.708 E46.16093
G1 X-9.423 Y24.291 E46.38641
G1 X-10.029 Y23.809 E46.61176
G1 X-10.583 Y23.268 E46.83711
G1 X-11.078 Y22.672 E47.06258
G1 X-11.508 Y22.029 E47.2877
G1 X-11.87 Y21.344 E47.51318
G1 X-12.16 Y20.626 E47.73854
G1 X-12.32 Y20.071 E47.90663
G1 X-12.717 Y19.966 E48.02614
G1 X-13.441 Y19.692 E48.25143
G1 X-14.134 Y19.345 E48.47698
G1 X-14.786 Y18.928 E48.70222
G1 X-15.392 Y18.446 E48.92757
G1 X-15.946 Y17.905 E49.15292
G1 X-16.44 Y17.309 E49.37821
G1 X-16.871 Y16.665 E49.60373
G1 X-17.233 Y15.981 E49.82895
G1 X-17.522 Y15.263 E50.0542
G1 X-17.683 Y14.701 E50.22433
G0 F1200 X-16.745 Y14.364
G1 F600 X-16.838 Y13.858 E50.37406
G1 X-17.233 Y13.792 E50.49061
G1 X-17.926 Y13.594 E50.70036
G1 X-18.593 Y13.321 E50.9101
G1 X-19.226 Y12.976 E51.11991
G1 X-19.817 Y12.563 E51.32974
G1 X-20.358 Y12.087 E51.53945
G1 X-20.843 Y11.554 E51.74918
G1 X-21.267 Y10.971 E51.95897
G1 X-21.623 Y10.344 E52.1688
G1 X-21.907 Y9.682 E52.37844
G1 X-22.117 Y8.992 E52.58835
G1 X-22.248 Y8.283 E52.79818
G1 X-22.302 Y7.451 E53.04082
G1 X-22.302 Y-18.184 E60.50128
G1 X-22.262 Y-18.904 E60.71114
G1 X-22.143 Y-19.615 E60.92094
G1 X-21.945 Y-20.308 E61.13069
G1 X-21.672 Y-20.975 E61.34043
G1 X-21.327 Y-21.608 E61.55024
G1 X-20.914 Y-22.199 E61.76007
G1 X-20.438 Y-22.74 E61.96978
G1 X-19.905 Y-23.225 E62.1795
G1 X-19.322 Y-23.649 E62.3893
G1 X-18.695 Y-24.005 E62.59913
G1 X-18.033 Y-24.289 E62.80877
G1 X-17.343 Y-24.499 E63.01867
G1 X-16.634 Y-24.63 E63.22851
G1 X-15.802 Y-24.684 E63.47115
G1 X-5.068 Y-24.684 E66.59502
G1 X-4.348 Y-24.644 E66.80489
G1 X-3.637 Y-24.525 E67.01468
G1 X-2.944 Y-24.327 E67.22443
G1 X-2.277 Y-24.054 E67.43418
G1 X-1.644 Y-23.709 E67.64398
G1 X-1.053 Y-23.296 E67.85382
G1 X-.512 Y-22.82 E68.06353
G1 X0.004 Y-22.253 E68.28664
G1 X0.432 Y-22.74 E68.47533
G1 X0.965 Y-23.225 E68.68505
G1 X1.548 Y-23.649 E68.89484
G1 X2.175 Y-24.005 E69.10468
G1 X2.837 Y-24.289 E69.31432
G1 X3.527 Y-24.499 E69.52422
G1 X4.236 Y-24.63 E69.73405
G1 X5.068 Y-24.684 E69.97669
G1 X15.802 Y-24.684 E73.10057
G1 X16.522 Y-24.644 E73.31043
G1 X17.233 Y-24.525 E73.52023
G1 X17.926 Y-24.327 E73.72998
G1 X18.593 Y-24.054 E73.93973
G1 X19.226 Y-23.709 E74.14953
G1 X19.817 Y-23.296 E74.35936
G1 X20.358 Y-22.82 E74.56907
G1 X20.843 Y-22.287 E74.7788
G1 X21.267 Y-21.704 E74.98859
G1 X21.623 Y-21.077 E75.19843
G1 X21.907 Y-20.415 E75.40807
G1 X22.117 Y-19.725 E75.61797
G1 X22.248 Y-19.016 E75.8278
G1 X22.302 Y-18.184 E76.07044
G1 X22.302 Y7.451 E83.5309
G1 X22.262 Y8.171 E83.74076
G1 X22.143 Y8.882 E83.95056
G1 X21.945 Y9.575 E84.16031
G1 X21.672 Y10.242 E84.37005
G1 X21.327 Y10.875 E84.57986
G1 X20.914 Y11.466 E84.78969
G1 X20.438 Y12.007 E84.9994
G1 X19.905 Y12.492 E85.20912
G1 X19.322 Y12.916 E85.41892
G1 X18.695 Y13.272 E85.62875
G1 X18.033 Y13.556 E85.83839
G1 X17.343 Y13.766 E86.0483
G1 X16.847 Y13.858 E86.19511
G1 X16.781 Y14.254 E86.31194
G1 X16.583 Y14.947 E86.52169
G1 X16.31 Y15.614 E86.73144
G1 X15.965 Y16.247 E86.94124
G1 X15.552 Y16.838 E87.15108
G1 X15.076 Y17.379 E87.36079
G1 X14.543 Y17.864 E87.57051
G1 X13.96 Y18.288 E87.78031
G1 X13.333 Y18.644 E87.99014
G1 X12.671 Y18.928 E88.19978
G1 X11.981 Y19.138 E88.40968
G1 X11.411 Y19.243 E88.57836
G1 X11.205 Y19.797 E88.75037
G1 X10.917 Y20.458 E88.96021
G1 X10.557 Y21.083 E89.17011
G1 X10.131 Y21.664 E89.37978
G1 X9.642 Y22.194 E89.58965
G1 X9.098 Y22.667 E89.79944
G1 X8.626 Y23.001 E89.96772
G1 X7.921 Y23.454 E90.2116
G1 X7.294 Y23.81 E90.42143
G1 X6.631 Y24.094 E90.63134
G1 X5.941 Y24.302 E90.84107
G1 X5.232 Y24.433 E91.0509
G1 X4.698 Y24.479 E91.20689
G1 X0.125 Y24.684 E92.53909
G1 X-5.067 Y24.685 E94.05009
G1 X-5.786 Y24.645 E94.25967
G1 X-6.497 Y24.526 E94.46946
G1 X-7.191 Y24.329 E94.67942
G1 X-7.858 Y24.056 E94.88916
G1 X-8.491 Y23.711 E95.09896
G1 X-9.082 Y23.298 E95.3088
G1 X-9.623 Y22.822 E95.51851
G1 X-10.108 Y22.289 E95.72823
G1 X-10.532 Y21.706 E95.93803
G1 X-10.888 Y21.079 E96.14786
G1 X-11.173 Y20.417 E96.35762
G1 X-11.382 Y19.727 E96.56743
G1 X-11.475 Y19.229 E96.71487
G1 X-11.861 Y19.164 E96.82879
G1 X-12.554 Y18.966 E97.03854
G1 X-13.221 Y18.693 E97.24828
G1 X-13.854 Y18.348 E97.45809
G1 X-14.445 Y17.935 E97.66792
G1 X-14.986 Y17.459 E97.87763
G1 X-15.471 Y16.926 E98.08735
G1 X-15.895 Y16.343 E98.29715
G1 X-16.251 Y15.716 E98.50698
G1 X-16.535 Y15.054 E98.71662
G1 X-16.745 Y14.364 E98.92653
G0 F1200 X-15.767 Y14.151
G1 F600 X-15.888 Y13.5 E99.11923
G1 X-15.923 Y12.944 E99.28136
G1 X-16.464 Y12.911 E99.4391
G1 X-17.116 Y12.792 E99.63198
G1 X-17.749 Y12.595 E99.82492
G1 X-18.354 Y12.323 E100.01796
G1 X-18.922 Y11.981 E100.21092
G1 X-19.444 Y11.572 E100.40391
G1 X-19.914 Y11.104 E100.59694
G1 X-20.323 Y10.583 E100.7897
G1 X-20.667 Y10.016 E100.98271
G1 X-20.941 Y9.412 E101.17573
G1 X-21.139 Y8.779 E101.36875
G1 X-21.26 Y8.128 E101.56146
G1 X-21.302 Y7.451 E101.75886
G1 X-21.302 Y-18.184 E109.21932
G1 X-21.262 Y-18.846 E109.41233
G1 X-21.143 Y-19.498 E109.60521
G1 X-20.946 Y-20.131 E109.79814
G1 X-20.674 Y-20.736 E109.99119
G1 X-20.332 Y-21.304 E110.18415
G1 X-19.923 Y-21.826 E110.37714
G1 X-19.455 Y-22.296 E110.57017
G1 X-18.934 Y-22.705 E110.76293
G1 X-18.367 Y-23.049 E110.95594
G1 X-17.763 Y-23.323 E111.14896
G1 X-17.13 Y-23.521 E111.34198
G1 X-16.479 Y-23.642 E111.53468
G1 X-15.802 Y-23.684 E111.73209
G1 X-5.068 Y-23.684 E114.85596
G1 X-4.406 Y-23.644 E115.04897
G1 X-3.754 Y-23.525 E115.24186
G1 X-3.121 Y-23.328 E115.43479
G1 X-2.516 Y-23.056 E115.62784
G1 X-1.948 Y-22.714 E115.82079
G1 X-1.426 Y-22.305 E116.01379
G1 X-.956 Y-21.837 E116.20681
G1 X-.547 Y-21.316 E116.39958
G1 X-.203 Y-20.749 E116.59259
G1 X0.00 Y-20.301 E116.73573
G1 X0.196 Y-20.736 E116.87458
G1 X0.538 Y-21.304 E117.06753
G1 X0.947 Y-21.826 E117.26053
G1 X1.415 Y-22.296 E117.45356
G1 X1.936 Y-22.705 E117.64632
G1 X2.503 Y-23.049 E117.83933
G1 X3.107 Y-23.323 E118.03235
G1 X3.74 Y-23.521 E118.22537
G1 X4.391 Y-23.642 E118.41807
G1 X5.068 Y-23.684 E118.61548
G1 X15.802 Y-23.684 E121.73935
G1 X16.464 Y-23.644 E121.93236
G1 X17.116 Y-23.525 E122.12524
G1 X17.749 Y-23.328 E122.31818
G1 X18.354 Y-23.056 E122.51123
G1 X18.922 Y-22.714 E122.70418
G1 X19.444 Y-22.305 E122.89717
G1 X19.914 Y-21.837 E123.0902
G1 X20.323 Y-21.316 E123.28297
G1 X20.667 Y-20.749 E123.47597
G1 X20.941 Y-20.145 E123.66899
G1 X21.139 Y-19.512 E123.86202
G1 X21.26 Y-18.861 E124.05472
G1 X21.302 Y-18.184 E124.25212
G1 X21.302 Y7.451 E131.71258
G1 X21.262 Y8.113 E131.90559
G1 X21.143 Y8.765 E132.09847
G1 X20.946 Y9.398 E132.29141
G1 X20.674 Y10.003 E132.48445
G1 X20.332 Y10.571 E132.67741
G1 X19.923 Y11.093 E132.8704
G1 X19.455 Y11.563 E133.06343
G1 X18.934 Y11.972 E133.2562
G1 X18.367 Y12.316 E133.4492
G1 X17.763 Y12.59 E133.64222
G1 X17.13 Y12.788 E133.83524
G1 X16.479 Y12.909 E134.02795
G1 X15.933 Y12.943 E134.18716
G1 X15.9 Y13.485 E134.34518
G1 X15.781 Y14.137 E134.53807
G1 X15.584 Y14.77 E134.731
G1 X15.312 Y15.375 E134.92405
G1 X14.97 Y15.943 E135.117
G1 X14.561 Y16.465 E135.31
G1 X14.093 Y16.935 E135.50303
G1 X13.572 Y17.344 E135.69579
G1 X13.005 Y17.688 E135.8888
G1 X12.401 Y17.962 E136.08182
G1 X11.768 Y18.16 E136.27484
G1 X11.117 Y18.281 E136.46754
G1 X10.692 Y18.307 E136.59146
G1 X10.268 Y19.449 E136.94598
G1 X10 Y20.055 E137.13882
G1 X9.661 Y20.625 E137.33182
G1 X9.255 Y21.15 E137.52497
G1 X8.79 Y21.622 E137.7178
G1 X8.085 Y22.16 E137.97589
G1 X7.38 Y22.613 E138.21977
G1 X6.802 Y22.937 E138.4126
G1 X6.189 Y23.189 E138.60549
G1 X5.55 Y23.366 E138.79846
G1 X4.653 Y23.48 E139.06161
G1 X-0.009 Y23.684 E140.41967
G1 X-5.067 Y23.685 E141.89168
G1 X-5.729 Y23.645 E142.08469
G1 X-6.381 Y23.526 E142.27757
G1 X-7.014 Y23.329 E142.47051
G1 X-7.619 Y23.058 E142.66344
G1 X-8.187 Y22.715 E142.85654
G1 X-8.709 Y22.307 E143.04936
G1 X-9.179 Y21.839 E143.24238
G1 X-9.589 Y21.318 E143.43533
G1 X-9.933 Y20.751 E143.62834
G1 X-10.206 Y20.147 E143.82124
G1 X-10.405 Y19.514 E144.01434
G1 X-10.526 Y18.863 E144.20705
G1 X-10.56 Y18.315 E144.36684
G1 X-11.092 Y18.283 E144.52194
G1 X-11.744 Y18.164 E144.71483
G1 X-12.377 Y17.967 E144.90776
G1 X-12.982 Y17.695 E145.10081
G1 X-13.55 Y17.353 E145.29376
G1 X-14.072 Y16.944 E145.48676
G1 X-14.542 Y16.476 E145.67978
G1 X-14.951 Y15.955 E145.87255
G1 X-15.295 Y15.388 E146.06555
G1 X-15.569 Y14.784 E146.25858
G1 X-15.767 Y14.151 E146.4516
G0 F1200 X-14.804 Y13.88
G1 F600 X-14.93 Y13.151 E146.6669
G1 X-14.93 Y11.951 E147.01613
G1 X-15.802 Y11.951 E147.26991
G1 X-16.4 Y11.911 E147.44433
G1 X-16.988 Y11.792 E147.61892
G1 X-17.555 Y11.596 E147.79352
G1 X-18.09 Y11.326 E147.96792
G1 X-18.585 Y10.987 E148.14252
G1 X-19.031 Y10.586 E148.31707
G1 X-19.419 Y10.129 E148.49154
G1 X-19.743 Y9.624 E148.66615
G1 X-19.997 Y9.081 E148.84061
G1 X-20.176 Y8.508 E149.01532
G1 X-20.302 Y7.779 E149.23062
G1 X-20.302 Y-18.184 E156.78654
G1 X-20.262 Y-18.782 E156.96096
G1 X-20.143 Y-19.37 E157.13555
G1 X-19.947 Y-19.937 E157.31014
G1 X-19.677 Y-20.472 E157.48455
G1 X-19.338 Y-20.967 E157.65915
G1 X-18.937 Y-21.413 E157.8337
G1 X-18.48 Y-21.801 E158.00817
G1 X-17.975 Y-22.125 E158.18278
G1 X-17.432 Y-22.379 E158.35724
G1 X-16.859 Y-22.558 E158.53195
G1 X-16.13 Y-22.684 E158.74725
G1 X-5.068 Y-22.684 E161.96658
G1 X-4.47 Y-22.644 E162.14101
G1 X-3.882 Y-22.525 E162.3156
G1 X-3.315 Y-22.329 E162.49019
G1 X-2.78 Y-22.059 E162.6646
G1 X-2.285 Y-21.72 E162.8392
G1 X-1.839 Y-21.319 E163.01375
G1 X-1.451 Y-20.862 E163.18821
G1 X-1.127 Y-20.357 E163.36283
G1 X-.873 Y-19.814 E163.53729
G1 X-.694 Y-19.241 E163.712
G1 X-.568 Y-18.512 E163.9273
G1 X-.568 Y-12.547 E165.66327
G1 X0.568 Y-12.547 E165.99388
G1 X0.568 Y-18.184 E167.63439
G1 X0.608 Y-18.782 E167.80881
G1 X0.727 Y-19.37 E167.98341
G1 X0.923 Y-19.937 E168.158
G1 X1.193 Y-20.472 E168.3324
G1 X1.532 Y-20.967 E168.50701
G1 X1.933 Y-21.413 E168.68155
G1 X2.39 Y-21.801 E168.85602
G1 X2.895 Y-22.125 E169.03064
G1 X3.438 Y-22.379 E169.2051
G1 X4.011 Y-22.558 E169.3798
G1 X4.74 Y-22.684 E169.59511
G1 X15.802 Y-22.684 E172.81444
G1 X16.4 Y-22.644 E172.98886
G1 X16.988 Y-22.525 E173.16345
G1 X17.555 Y-22.329 E173.33805
G1 X18.09 Y-22.059 E173.51245
G1 X18.585 Y-21.72 E173.68705
G1 X19.031 Y-21.319 E173.8616
G1 X19.419 Y-20.862 E174.03607
G1 X19.743 Y-20.357 E174.21068
G1 X19.997 Y-19.814 E174.38515
G1 X20.176 Y-19.241 E174.55985
G1 X20.302 Y-18.512 E174.77516
G1 X20.302 Y7.451 E182.33107
G1 X20.262 Y8.049 E182.50549
G1 X20.143 Y8.637 E182.68008
G1 X19.947 Y9.204 E182.85468
G1 X19.677 Y9.739 E183.02908
G1 X19.338 Y10.234 E183.20368
G1 X18.937 Y10.68 E183.37823
G1 X18.48 Y11.068 E183.5527
G1 X17.975 Y11.392 E183.72731
G1 X17.432 Y11.646 E183.90178
G1 X16.859 Y11.825 E184.07648
G1 X16.13 Y11.951 E184.29178
G1 X14.94 Y11.951 E184.63811
G1 X14.94 Y12.823 E184.89188
G1 X14.9 Y13.421 E185.0663
G1 X14.781 Y14.009 E185.2409
G1 X14.585 Y14.576 E185.41549
G1 X14.315 Y15.111 E185.58989
G1 X13.976 Y15.606 E185.76449
G1 X13.575 Y16.052 E185.93904
G1 X13.118 Y16.44 E186.11351
G1 X12.613 Y16.764 E186.28813
G1 X12.07 Y17.018 E186.46259
G1 X11.497 Y17.197 E186.63729
G1 X10.768 Y17.323 E186.8526
G1 X9.89 Y17.323 E187.10812
G1 X9.644 Y18.255 E187.38864
G1 X9.33 Y19.1 E187.65099
G1 X9.084 Y19.647 E187.82554
G1 X8.768 Y20.157 E188.00014
G1 X8.387 Y20.62 E188.17465
G1 X7.832 Y21.134 E188.39479
G1 X6.84 Y21.772 E188.73805
G1 X6.315 Y22.062 E188.91259
G1 X5.756 Y22.279 E189.08711
G1 X5.173 Y22.42 E189.26167
G1 X4.609 Y22.481 E189.42676
G1 X-0.009 Y22.684 E190.77202
G1 X-5.067 Y22.685 E192.24403
G1 X-5.665 Y22.645 E192.41845
G1 X-6.253 Y22.526 E192.59304
G1 X-6.82 Y22.33 E192.76764
G1 X-7.355 Y22.06 E192.94204
G1 X-7.85 Y21.722 E193.11648
G1 X-8.296 Y21.32 E193.29122
G1 X-8.684 Y20.863 E193.46569
G1 X-9.008 Y20.359 E193.64006
G1 X-9.262 Y19.816 E193.81452
G1 X-9.442 Y19.243 E193.98931
G1 X-9.568 Y18.513 E194.2049
G1 X-9.568 Y17.323 E194.55123
G1 X-10.43 Y17.323 E194.80209
G1 X-11.028 Y17.283 E194.97651
G1 X-11.616 Y17.164 E195.15111
G1 X-12.183 Y16.968 E195.3257
G1 X-12.718 Y16.698 E195.5001
G1 X-13.213 Y16.359 E195.6747
G1 X-13.659 Y15.958 E195.84925
G1 X-14.047 Y15.501 E196.02372
G1 X-14.371 Y14.996 E196.19834
G1 X-14.625 Y14.453 E196.3728
G1 X-14.804 Y13.88 E196.5475
G0 F1200 X-13.853 Y13.552
G1 F600 X-13.93 Y12.823 E196.76084
G1 X-13.93 Y10.951 E197.30564
G1 X-15.802 Y10.951 E197.85044
G1 X-16.329 Y10.911 E198.00425
G1 X-16.844 Y10.792 E198.15808
G1 X-17.336 Y10.597 E198.3121
G1 X-17.792 Y10.33 E198.46589
G1 X-18.203 Y9.997 E198.61983
G1 X-18.56 Y9.606 E198.77392
G1 X-18.853 Y9.166 E198.92776
G1 X-19.076 Y8.687 E199.08153
G1 X-19.225 Y8.18 E199.23532
G1 X-19.302 Y7.451 E199.44866
G1 X-19.302 Y-18.184 E206.90912
G1 X-19.262 Y-18.711 E207.06293
G1 X-19.143 Y-19.226 E207.21676
