;FLAVOR:Marlin
;TIME:606
;Filament used: 2.44m
;Layer height: 0.8
;MINX:-23.302
;MINY:-25.684
;MINZ:0.8
;MAXX:23.302
;MAXY:25.685
;MAXZ:7.2
;Generated with Cura_SteamEngine 5.2.2
M104 S200
M105
M109 S200
M82 ;absolute extrusion mode
;G28 ;Home
G1 Z15.0 F6000 ;Move the platform down 15mm
;Prime the extruder
G92 E0
G1 F200 E3
G92 E0
G92 E0
G92 E0
G1 F1500 E-5
;LAYER_COUNT:9
;LAYER:0
;M107
M106 S255
G0 F2400 X-17.683 Y14.701 Z0.8
;TYPE:SKIRT
G1 F1500 E0
G1 F600 X-18.089 Y14.594 E0.13965
G1 X-18.813 Y14.32 E0.39712
G1 X-19.506 Y13.973 E0.65489
G1 X-20.158 Y13.556 E0.91231
G1 X-20.764 Y13.074 E1.16984
G1 X-21.318 Y12.533 E1.42739
G1 X-21.812 Y11.937 E1.68486
G1 X-22.243 Y11.293 E1.9426
G1 X-22.605 Y10.609 E2.2
G1 X-22.894 Y9.891 E2.45742
G1 X-23.108 Y9.146 E2.71523
G1 X-23.244 Y8.384 E2.97268
G1 X-23.302 Y7.451 E3.28359
G1 X-23.302 Y-18.184 E11.80983
G1 X-23.262 Y-18.957 E12.06727
G1 X-23.143 Y-19.722 E12.32477
G1 X-22.945 Y-20.471 E12.58245
G1 X-22.671 Y-21.195 E12.83992
G1 X-22.324 Y-21.888 E13.09769
G1 X-21.907 Y-22.54 E13.35511
G1 X-21.425 Y-23.146 E13.61265
G1 X-20.884 Y-23.7 E13.87019
G1 X-20.288 Y-24.194 E14.12766
G1 X-19.644 Y-24.625 E14.3854
G1 X-18.96 Y-24.987 E14.6428
G1 X-18.242 Y-25.276 E14.90022
G1 X-17.497 Y-25.49 E15.15803
G1 X-16.735 Y-25.626 E15.41548
G1 X-15.802 Y-25.684 E15.7264
G1 X-5.068 Y-25.684 E19.29654
G1 X-4.295 Y-25.644 E19.55398
G1 X-3.53 Y-25.525 E19.81148
G1 X-2.781 Y-25.327 E20.06916
G1 X-2.057 Y-25.053 E20.32663
G1 X-1.364 Y-24.706 E20.5844
G1 X-.712 Y-24.289 E20.84182
G1 X0.007 Y-23.717 E21.14741
G1 X0.582 Y-24.194 E21.39589
G1 X1.226 Y-24.625 E21.65363
G1 X1.91 Y-24.987 E21.91102
G1 X2.628 Y-25.276 E22.16845
G1 X3.373 Y-25.49 E22.42626
G1 X4.135 Y-25.626 E22.68371
G1 X5.068 Y-25.684 E22.99462
G1 X15.802 Y-25.684 E26.56477
G1 X16.575 Y-25.644 E26.82221
G1 X17.34 Y-25.525 E27.07971
G1 X18.089 Y-25.327 E27.33739
G1 X18.813 Y-25.053 E27.59486
G1 X19.506 Y-24.706 E27.85263
G1 X20.158 Y-24.289 E28.11005
G1 X20.764 Y-23.807 E28.36758
G1 X21.318 Y-23.266 E28.62513
G1 X21.812 Y-22.67 E28.8826
G1 X22.243 Y-22.026 E29.14034
G1 X22.605 Y-21.342 E29.39774
G1 X22.894 Y-20.624 E29.65516
G1 X23.108 Y-19.879 E29.91297
G1 X23.244 Y-19.117 E30.17042
G1 X23.302 Y-18.184 E30.48133
G1 X23.302 Y7.451 E39.00757
G1 X23.262 Y8.224 E39.26501
G1 X23.143 Y8.989 E39.52251
G1 X22.945 Y9.738 E39.78019
G1 X22.671 Y10.462 E40.03766
G1 X22.324 Y11.155 E40.29543
G1 X21.907 Y11.807 E40.55285
G1 X21.425 Y12.413 E40.81039
G1 X20.884 Y12.967 E41.06793
G1 X20.288 Y13.461 E41.3254
G1 X19.644 Y13.892 E41.58314
G1 X18.96 Y14.254 E41.84054
G1 X18.242 Y14.543 E42.09796
G1 X17.691 Y14.701 E42.28861
G1 X17.583 Y15.11 E42.42931
G1 X17.309 Y15.834 E42.68678
G1 X16.962 Y16.527 E42.94455
G1 X16.545 Y17.179 E43.20197
G1 X16.063 Y17.785 E43.45951
G1 X15.522 Y18.339 E43.71705
G1 X14.926 Y18.833 E43.97452
G1 X14.282 Y19.264 E44.23226
G1 X13.598 Y19.626 E44.48966
G1 X12.88 Y19.915 E44.74709
G1 X12.149 Y20.125 E45.00005
G1 X11.835 Y20.856 E45.26466
G1 X11.457 Y21.532 E45.52227
G1 X11.011 Y22.165 E45.77981
G1 X10.502 Y22.748 E46.03722
G1 X9.935 Y23.276 E46.29491
G1 X9.166 Y23.843 E46.61269
G1 X8.461 Y24.296 E46.89141
G1 X7.789 Y24.68 E47.14884
G1 X7.081 Y24.993 E47.4063
G1 X6.344 Y25.232 E47.664
G1 X5.587 Y25.393 E47.92141
G1 X4.743 Y25.478 E48.20354
G1 X0.148 Y25.684 E49.73338
G1 X-5.067 Y25.685 E51.4679
G1 X-5.84 Y25.645 E51.72534
G1 X-6.605 Y25.526 E51.98284
G1 X-7.354 Y25.328 E52.24052
G1 X-8.078 Y25.055 E52.49787
G1 X-8.77 Y24.708 E52.75535
G1 X-9.423 Y24.291 E53.01304
G1 X-10.029 Y23.809 E53.27058
G1 X-10.583 Y23.268 E53.52813
G1 X-11.078 Y22.672 E53.78581
G1 X-11.508 Y22.029 E54.04309
G1 X-11.87 Y21.344 E54.30078
G1 X-12.16 Y20.626 E54.55833
G1 X-12.32 Y20.071 E54.75044
G1 X-12.717 Y19.966 E54.88702
G1 X-13.441 Y19.692 E55.14449
G1 X-14.134 Y19.345 E55.40227
G1 X-14.786 Y18.928 E55.65968
G1 X-15.392 Y18.446 E55.91722
G1 X-15.946 Y17.905 E56.17477
G1 X-16.44 Y17.309 E56.43224
G1 X-16.871 Y16.665 E56.68997
G1 X-17.233 Y15.981 E56.94737
G1 X-17.522 Y15.263 E57.2048
G1 X-17.683 Y14.701 E57.39924
G0 F2400 X-16.745 Y14.364
G1 F600 X-16.838 Y13.858 E57.57035
G1 X-17.233 Y13.792 E57.70355
G1 X-17.926 Y13.594 E57.94327
G1 X-18.593 Y13.321 E58.18298
G1 X-19.226 Y12.976 E58.42275
G1 X-19.817 Y12.563 E58.66256
G1 X-20.358 Y12.087 E58.90223
G1 X-20.843 Y11.554 E59.14192
G1 X-21.267 Y10.971 E59.38168
G1 X-21.623 Y10.344 E59.62149
G1 X-21.907 Y9.682 E59.86108
G1 X-22.117 Y8.992 E60.10097
G1 X-22.248 Y8.283 E60.34077
G1 X-22.302 Y7.451 E60.61808
G1 X-22.302 Y-18.184 E69.14432
G1 X-22.262 Y-18.904 E69.38416
G1 X-22.143 Y-19.615 E69.62393
G1 X-21.945 Y-20.308 E69.86364
G1 X-21.672 Y-20.975 E70.10335
G1 X-21.327 Y-21.608 E70.34313
G1 X-20.914 Y-22.199 E70.58294
G1 X-20.438 Y-22.74 E70.82261
G1 X-19.905 Y-23.225 E71.06229
G1 X-19.322 Y-23.649 E71.30205
G1 X-18.695 Y-24.005 E71.54187
G1 X-18.033 Y-24.289 E71.78145
G1 X-17.343 Y-24.499 E72.02134
G1 X-16.634 Y-24.63 E72.26115
G1 X-15.802 Y-24.684 E72.53846
G1 X-5.068 Y-24.684 E76.1086
G1 X-4.348 Y-24.644 E76.34844
G1 X-3.637 Y-24.525 E76.58821
G1 X-2.944 Y-24.327 E76.82793
G1 X-2.277 Y-24.054 E77.06763
G1 X-1.644 Y-23.709 E77.30741
G1 X-1.053 Y-23.296 E77.54722
G1 X-.512 Y-22.82 E77.78689
G1 X0.004 Y-22.253 E78.04188
G1 X0.432 Y-22.74 E78.25752
G1 X0.965 Y-23.225 E78.4972
G1 X1.548 Y-23.649 E78.73697
G1 X2.175 Y-24.005 E78.97678
G1 X2.837 Y-24.289 E79.21636
G1 X3.527 Y-24.499 E79.45625
G1 X4.236 Y-24.63 E79.69606
G1 X5.068 Y-24.684 E79.97337
G1 X15.802 Y-24.684 E83.54351
G1 X16.522 Y-24.644 E83.78335
G1 X17.233 Y-24.525 E84.02312
G1 X17.926 Y-24.327 E84.26284
G1 X18.593 Y-24.054 E84.50254
G1 X19.226 Y-23.709 E84.74232
G1 X19.817 Y-23.296 E84.98213
G1 X20.358 Y-22.82 E85.2218
G1 X20.843 Y-22.287 E85.46148
G1 X21.267 Y-21.704 E85.70125
G1 X21.623 Y-21.077 E85.94106
G1 X21.907 Y-20.415 E86.18065
G1 X22.117 Y-19.725 E86.42054
G1 X22.248 Y-19.016 E86.66034
G1 X22.302 Y-18.184 E86.93765
G1 X22.302 Y7.451 E95.46388
G1 X22.262 Y8.171 E95.70373
G1 X22.143 Y8.882 E95.94349
G1 X21.945 Y9.575 E96.18321
G1 X21.672 Y10.242 E96.42292
G1 X21.327 Y10.875 E96.66269
G1 X20.914 Y11.466 E96.9025
G1 X20.438 Y12.007 E97.14217
G1 X19.905 Y12.492 E97.38186
G1 X19.322 Y12.916 E97.62162
G1 X18.695 Y13.272 E97.86143
G1 X18.033 Y13.556 E98.10102
G1 X17.343 Y13.766 E98.34091
G1 X16.847 Y13.858 E98.50869
G1 X16.781 Y14.254 E98.64222
G1 X16.583 Y14.947 E98.88194
G1 X16.31 Y15.614 E99.12165
G1 X15.965 Y16.247 E99.36142
G1 X15.552 Y16.838 E99.60123
G1 X15.076 Y17.379 E99.8409
G1 X14.543 Y17.864 E100.08058
G1 X13.96 Y18.288 E100.32035
G1 X13.333 Y18.644 E100.56016
G1 X12.671 Y18.928 E100.79975
G1 X11.981 Y19.138 E101.03964
G1 X11.411 Y19.243 E101.23241
G1 X11.205 Y19.797 E101.429
G1 X10.917 Y20.458 E101.66881
G1 X10.557 Y21.083 E101.9087
G1 X10.131 Y21.664 E102.14832
G1 X9.642 Y22.194 E102.38817
G1 X9.098 Y22.667 E102.62793
G1 X8.626 Y23.001 E102.82025
G1 X7.921 Y23.454 E103.09897
G1 X7.294 Y23.81 E103.33878
G1 X6.631 Y24.094 E103.57867
G1 X5.941 Y24.302 E103.81837
G1 X5.232 Y24.433 E104.05818
G1 X4.698 Y24.479 E104.23644
G1 X0.125 Y24.684 E105.75896
G1 X-5.067 Y24.685 E107.48582
G1 X-5.786 Y24.645 E107.72533
G1 X-6.497 Y24.526 E107.9651
G1 X-7.191 Y24.329 E108.20505
G1 X-7.858 Y24.056 E108.44475
G1 X-8.491 Y23.711 E108.68453
G1 X-9.082 Y23.298 E108.92434
G1 X-9.623 Y22.822 E109.16401
G1 X-10.108 Y22.289 E109.40369
G1 X-10.532 Y21.706 E109.64346
G1 X-10.888 Y21.079 E109.88327
G1 X-11.173 Y20.417 E110.12299
G1 X-11.382 Y19.727 E110.36278
G1 X-11.475 Y19.229 E110.53128
G1 X-11.861 Y19.164 E110.66147
G1 X-12.554 Y18.966 E110.90119
G1 X-13.221 Y18.693 E111.1409
G1 X-13.854 Y18.348 E111.38067
G1 X-14.445 Y17.935 E111.62048
G1 X-14.986 Y17.459 E111.86015
G1 X-15.471 Y16.926 E112.09983
G1 X-15.895 Y16.343 E112.3396
G1 X-16.251 Y15.716 E112.57941
G1 X-16.535 Y15.054 E112.819
G1 X-16.745 Y14.364 E113.05889
G0 F2400 X-15.767 Y14.151
G1 F600 X-15.888 Y13.5 E113.27912
G1 X-15.923 Y12.944 E113.46441
G1 X-16.464 Y12.911 E113.64468
G1 X-17.116 Y12.792 E113.86512
G1 X-17.749 Y12.595 E114.08562
G1 X-18.354 Y12.323 E114.30624
G1 X-18.922 Y11.981 E114.52676
G1 X-19.444 Y11.572 E114.74733
G1 X-19.914 Y11.104 E114.96793
G1 X-20.323 Y10.583 E115.18823
G1 X-20.667 Y10.016 E115.40881
G1 X-20.941 Y9.412 E115.62941
G1 X-21.139 Y8.779 E115.85
G1 X-21.26 Y8.128 E116.07023
G1 X-21.302 Y7.451 E116.29584
G1 X-21.302 Y-18.184 E124.82207
G1 X-21.262 Y-18.846 E125.04266
G1 X-21.143 Y-19.498 E125.2631
G1 X-20.946 Y-20.131 E125.48359
G1 X-20.674 Y-20.736 E125.70422
G1 X-20.332 Y-21.304 E125.92474
G1 X-19.923 Y-21.826 E126.1453
G1 X-19.455 Y-22.296 E126.36591
G1 X-18.934 Y-22.705 E126.58621
G1 X-18.367 Y-23.049 E126.80679
G1 X-17.763 Y-23.323 E127.02738
G1 X-17.13 Y-23.521 E127.24798
G1 X-16.479 Y-23.642 E127.46821
G1 X-15.802 Y-23.684 E127.69381
G1 X-5.068 Y-23.684 E131.26396
G1 X-4.406 Y-23.644 E131.48454
G1 X-3.754 Y-23.525 E131.70498
G1 X-3.121 Y-23.328 E131.92548
G1 X-2.516 Y-23.056 E132.1461
G1 X-1.948 Y-22.714 E132.36662
G1 X-1.426 Y-22.305 E132.58718
G1 X-.956 Y-21.837 E132.80779
G1 X-.547 Y-21.316 E133.02809
G1 X-.203 Y-20.749 E133.24867
G1 X0.00 Y-20.301 E133.41226
G1 X0.196 Y-20.736 E133.57095
G1 X0.538 Y-21.304 E133.79147
G1 X0.947 Y-21.826 E134.01203
G1 X1.415 Y-22.296 E134.23263
G1 X1.936 Y-22.705 E134.45294
G1 X2.503 Y-23.049 E134.67352
G1 X3.107 Y-23.323 E134.89411
G1 X3.74 Y-23.521 E135.11471
G1 X4.391 Y-23.642 E135.33494
G1 X5.068 Y-23.684 E135.56054
G1 X15.802 Y-23.684 E139.13069
G1 X16.464 Y-23.644 E139.35127
G1 X17.116 Y-23.525 E139.57171
G1 X17.749 Y-23.328 E139.79221
G1 X18.354 Y-23.056 E140.01283
G1 X18.922 Y-22.714 E140.23335
G1 X19.444 Y-22.305 E140.45391
G1 X19.914 Y-21.837 E140.67452
G1 X20.323 Y-21.316 E140.89482
G1 X20.667 Y-20.749 E141.1154
G1 X20.941 Y-20.145 E141.33599
G1 X21.139 Y-19.512 E141.55659
G1 X21.26 Y-18.861 E141.77682
G1 X21.302 Y-18.184 E142.00243
G1 X21.302 Y7.451 E150.52866
G1 X21.262 Y8.113 E150.74924
G1 X21.143 Y8.765 E150.96968
G1 X20.946 Y9.398 E151.19018
G1 X20.674 Y10.003 E151.41081
G1 X20.332 Y10.571 E151.63132
G1 X19.923 Y11.093 E151.85189
G1 X19.455 Y11.563 E152.07249
G1 X18.934 Y11.972 E152.29279
G1 X18.367 Y12.316 E152.51337
G1 X17.763 Y12.59 E152.73397
G1 X17.13 Y12.788 E152.95456
G1 X16.479 Y12.909 E153.1748
G1 X15.933 Y12.943 E153.35675
G1 X15.9 Y13.485 E153.53735
G1 X15.781 Y14.137 E153.75779
G1 X15.584 Y14.77 E153.97829
G1 X15.312 Y15.375 E154.19891
G1 X14.97 Y15.943 E154.41943
G1 X14.561 Y16.465 E154.64
G1 X14.093 Y16.935 E154.8606
G1 X13.572 Y17.344 E155.0809
G1 X13.005 Y17.688 E155.30148
G1 X12.401 Y17.962 E155.52208
G1 X11.768 Y18.16 E155.74267
G1 X11.117 Y18.281 E155.9629
G1 X10.692 Y18.307 E156.10452
G1 X10.268 Y19.449 E156.50969
G1 X10 Y20.055 E156.73008
G1 X9.661 Y20.625 E156.95065
G1 X9.255 Y21.15 E157.17139
G1 X8.79 Y21.622 E157.39177
G1 X8.085 Y22.16 E157.68673
G1 X7.38 Y22.613 E157.96545
G1 X6.802 Y22.937 E158.18583
G1 X6.189 Y23.189 E158.40627
G1 X5.55 Y23.366 E158.62681
G1 X4.653 Y23.48 E158.92755
G1 X-0.009 Y23.684 E160.47962
G1 X-5.067 Y23.685 E162.16192
G1 X-5.729 Y23.645 E162.3825
G1 X-6.381 Y23.526 E162.60294
G1 X-7.014 Y23.329 E162.82344
G1 X-7.619 Y23.058 E163.04393
G1 X-8.187 Y22.715 E163.26462
G1 X-8.709 Y22.307 E163.48498
G1 X-9.179 Y21.839 E163.70558
G1 X-9.589 Y21.318 E163.92609
G1 X-9.933 Y20.751 E164.14667
G1 X-10.206 Y20.147 E164.36713
G1 X-10.405 Y19.514 E164.58782
G1 X-10.526 Y18.863 E164.80805
G1 X-10.56 Y18.315 E164.99067
G1 X-11.092 Y18.283 E165.16793
G1 X-11.744 Y18.164 E165.38837
G1 X-12.377 Y17.967 E165.60887
G1 X-12.982 Y17.695 E165.82949
G1 X-13.55 Y17.353 E166.05001
G1 X-14.072 Y16.944 E166.27058
G1 X-14.542 Y16.476 E166.49118
G1 X-14.951 Y15.955 E166.71148
G1 X-15.295 Y15.388 E166.93206
G1 X-15.569 Y14.784 E167.15266
G1 X-15.767 Y14.151 E167.37325
G0 F2400 X-14.804 Y13.88
G1 F600 X-14.93 Y13.151 E167.61932
G1 X-14.93 Y11.951 E168.01844
G1 X-15.802 Y11.951 E168.30847
G1 X-16.4 Y11.911 E168.50781
G1 X-16.988 Y11.792 E168.70734
G1 X-17.555 Y11.596 E168.90687
G1 X-18.09 Y11.326 E169.10619
G1 X-18.585 Y10.987 E169.30574
G1 X-19.031 Y10.586 E169.50522
G1 X-19.419 Y10.129 E169.70461
G1 X-19.743 Y9.624 E169.90417
G1 X-19.997 Y9.081 E170.10356
G1 X-20.176 Y8.508 E170.30322
G1 X-20.302 Y7.779 E170.54928
G1 X-20.302 Y-18.184 E179.18461
G1 X-20.262 Y-18.782 E179.38395
G1 X-20.143 Y-19.37 E179.58349
G1 X-19.947 Y-19.937 E179.78302
G1 X-19.677 Y-20.472 E179.98234
G1 X-19.338 Y-20.967 E180.18189
G1 X-18.937 Y-21.413 E180.38137
G1 X-18.48 Y-21.801 E180.58076
G1 X-17.975 Y-22.125 E180.78032
G1 X-17.432 Y-22.379 E180.97971
G1 X-16.859 Y-22.558 E181.17937
G1 X-16.13 Y-22.684 E181.42543
G1 X-5.068 Y-22.684 E185.10467
G1 X-4.47 Y-22.644 E185.30401
G1 X-3.882 Y-22.525 E185.50354
G1 X-3.315 Y-22.329 E185.70308
G1 X-2.78 Y-22.059 E185.90239
G1 X-2.285 Y-21.72 E186.10194
G1 X-1.839 Y-21.319 E186.30142
G1 X-1.451 Y-20.862 E186.50082
G1 X-1.127 Y-20.357 E186.70038
G1 X-.873 Y-19.814 E186.89976
G1 X-.694 Y-19.241 E187.09942
G1 X-.568 Y-18.512 E187.34549
G1 X-.568 Y-12.547 E189.32945
G1 X0.568 Y-12.547 E189.70729
G1 X0.568 Y-18.184 E191.58216
G1 X0.608 Y-18.782 E191.7815
G1 X0.727 Y-19.37 E191.98104
G1 X0.923 Y-19.937 E192.18057
G1 X1.193 Y-20.472 E192.37989
G1 X1.532 Y-20.967 E192.57944
G1 X1.933 Y-21.413 E192.77892
G1 X2.39 Y-21.801 E192.97831
G1 X2.895 Y-22.125 E193.17787
G1 X3.438 Y-22.379 E193.37726
G1 X4.011 Y-22.558 E193.57692
G1 X4.74 Y-22.684 E193.82298
G1 X15.802 Y-22.684 E197.50222
G1 X16.4 Y-22.644 E197.70156
G1 X16.988 Y-22.525 E197.90109
G1 X17.555 Y-22.329 E198.10063
G1 X18.09 Y-22.059 E198.29994
G1 X18.585 Y-21.72 E198.49949
G1 X19.031 Y-21.319 E198.69897
G1 X19.419 Y-20.862 E198.89836
G1 X19.743 Y-20.357 E199.09793
G1 X19.997 Y-19.814 E199.29731
G1 X20.176 Y-19.241 E199.49697
G1 X20.302 Y-18.512 E199.74304
G1 X20.302 Y7.451 E208.37836
G1 X20.262 Y8.049 E208.5777
G1 X20.143 Y8.637 E208.77724
G1 X19.947 Y9.204 E208.97677
G1 X19.677 Y9.739 E209.17609
G1 X19.338 Y10.234 E209.37564
G1 X18.937 Y10.68 E209.57512
G1 X18.48 Y11.068 E209.77451
G1 X17.975 Y11.392 E209.97407
G1 X17.432 Y11.646 E210.17346
G1 X16.859 Y11.825 E210.37312
G1 X16.13 Y11.951 E210.61918
G1 X14.94 Y11.951 E211.01498
G1 X14.94 Y12.823 E211.30501
G1 X14.9 Y13.421 E211.50435
G1 X14.781 Y14.009 E211.70388
G1 X14.585 Y14.576 E211.90342
G1 X14.315 Y15.111 E212.10273
G1 X13.976 Y15.606 E212.30228
G1 X13.575 Y16.052 E212.50176
G1 X13.118 Y16.44 E212.70115
G1 X12.613 Y16.764 E212.90072
G1 X12.07 Y17.018 E213.1001
G1 X11.497 Y17.197 E213.29976
G1 X10.768 Y17.323 E213.54582
G1 X9.89 Y17.323 E213.83785
G1 X9.644 Y18.255 E214.15845
G1 X9.33 Y19.1 E214.45827
G1 X9.084 Y19.647 E214.65776
G1 X8.768 Y20.157 E214.85731
G1 X8.387 Y20.62 E215.05674
G1 X7.832 Y21.134 E215.30834
G1 X6.84 Y21.772 E215.70062
G1 X6.315 Y22.062 E215.90011
G1 X5.756 Y22.279 E216.09955
G1 X5.173 Y22.42 E216.29905
G1 X4.609 Y22.481 E216.48773
G1 X-0.009 Y22.684 E218.02516
G1 X-5.067 Y22.685 E219.70746
G1 X-5.665 Y22.645 E219.9068
G1 X-6.253 Y22.526 E220.10634
G1 X-6.82 Y22.33 E220.30587
G1 X-7.355 Y22.06 E220.50519
G1 X-7.85 Y21.722 E220.70455
G1 X-8.296 Y21.32 E220.90425
G1 X-8.684 Y20.863 E221.10364
G1 X-9.008 Y20.359 E221.30293
G1 X-9.262 Y19.816 E221.50231
G1 X-9.442 Y19.243 E221.70207
G1 X-9.568 Y18.513 E221.94846
G1 X-9.568 Y17.323 E222.34426
G1 X-10.43 Y17.323 E222.63096
G1 X-11.028 Y17.283 E222.8303
G1 X-11.616 Y17.164 E223.02983
G1 X-12.183 Y16.968 E223.22937
G1 X-12.718 Y16.698 E223.42869
G1 X-13.213 Y16.359 E223.62823
G1 X-13.659 Y15.958 E223.82772
G1 X-14.047 Y15.501 E224.02711
G1 X-14.371 Y14.996 E224.22667
G1 X-14.625 Y14.453 E224.42605
G1 X-14.804 Y13.88 E224.62572
G0 F2400 X-13.853 Y13.552
G1 F600 X-13.93 Y12.823 E224.86953
G1 X-13.93 Y10.951 E225.49216
G1 X-15.802 Y10.951 E226.11479
G1 X-16.329 Y10.911 E226.29058
G1 X-16.844 Y10.792 E226.46638
G1 X-17.336 Y10.597 E226.6424
G1 X-17.792 Y10.33 E226.81816
G1 X-18.203 Y9.997 E226.99409
G1 X-18.56 Y9.606 E227.17019
G1 X-18.853 Y9.166 E227.34601
G1 X-19.076 Y8.687 E227.52175
G1 X-19.225 Y8.18 E227.69751
G1 X-19.302 Y7.451 E227.94133
G1 X-19.302 Y-18.184 E236.46756
