;FLAVOR:Marlin
;TIME:770
;Filament used: 2.80841m
;Layer height: 0.8
;MINX:-23.602
;MINY:-25.984
;MINZ:0.8
;MAXX:23.602
;MAXY:25.985
;MAXZ:7.2
;Generated with Cura_SteamEngine 5.2.2
M104 S200
M105
M109 S200
M82 ;absolute extrusion mode
;G28 ;Home
G1 Z15.0 F6000 ;Move the platform down 15mm
;Prime the extruder
G92 E0
G1 F200 E3
G92 E0
G92 E0
G92 E0
G1 F1500 E-6
;LAYER_COUNT:9
;LAYER:0
;M107
M106 S255
G1 F600 Z1.8
G0 F2400 X-17.928 Y14.948 Z1.8
;TYPE:SKIRT
G1 F600 Z0.8
G1 F1500 E0
G1 F600 X-18.136 Y14.894 E0.08577
G1 X-18.876 Y14.62 E0.40072
G1 X-19.585 Y14.272 E0.71594
G1 X-20.256 Y13.854 E1.03147
G1 X-20.88 Y13.371 E1.34641
G1 X-21.453 Y12.828 E1.66148
G1 X-21.968 Y12.229 E1.97677
G1 X-22.419 Y11.581 E2.29188
G1 X-22.803 Y10.89 E2.60739
G1 X-23.115 Y10.165 E2.92241
G1 X-23.352 Y9.412 E3.23749
G1 X-23.511 Y8.638 E3.55286
G1 X-23.602 Y7.756 E3.90675
G1 X-23.602 Y-18.184 E14.25997
G1 X-23.562 Y-18.973 E14.57528
G1 X-23.443 Y-19.753 E14.89019
G1 X-23.245 Y-20.518 E15.20558
G1 X-22.971 Y-21.258 E15.52053
G1 X-22.623 Y-21.967 E15.83576
G1 X-22.205 Y-22.638 E16.15128
G1 X-21.722 Y-23.262 E16.46622
G1 X-21.179 Y-23.835 E16.7813
G1 X-20.58 Y-24.35 E17.09658
G1 X-19.932 Y-24.801 E17.41169
G1 X-19.241 Y-25.185 E17.72721
G1 X-18.516 Y-25.497 E18.04223
G1 X-17.763 Y-25.734 E18.3573
G1 X-16.989 Y-25.893 E18.67267
G1 X-16.107 Y-25.984 E19.02657
G1 X-5.068 Y-25.984 E23.43247
G1 X-4.279 Y-25.944 E23.74778
G1 X-3.499 Y-25.825 E24.0627
G1 X-2.734 Y-25.627 E24.37809
G1 X-1.994 Y-25.353 E24.69303
G1 X-1.285 Y-25.005 E25.00826
G1 X-.614 Y-24.587 E25.32378
G1 X0.007 Y-24.106 E25.63729
G1 X0.29 Y-24.35 E25.78643
G1 X0.938 Y-24.801 E26.10153
G1 X1.629 Y-25.185 E26.41705
G1 X2.354 Y-25.497 E26.73207
G1 X3.107 Y-25.734 E27.04715
G1 X3.881 Y-25.893 E27.36252
G1 X4.763 Y-25.984 E27.71641
G1 X15.802 Y-25.984 E32.12231
G1 X16.591 Y-25.944 E32.43763
G1 X17.371 Y-25.825 E32.75254
G1 X18.136 Y-25.627 E33.06793
G1 X18.876 Y-25.353 E33.38288
G1 X19.585 Y-25.005 E33.6981
G1 X20.256 Y-24.587 E34.01363
G1 X20.88 Y-24.104 E34.32857
G1 X21.453 Y-23.561 E34.64365
G1 X21.968 Y-22.962 E34.95893
G1 X22.419 Y-22.314 E35.27404
G1 X22.803 Y-21.623 E35.58956
G1 X23.115 Y-20.898 E35.90458
G1 X23.352 Y-20.145 E36.21965
G1 X23.511 Y-19.371 E36.53502
G1 X23.602 Y-18.489 E36.88891
G1 X23.602 Y7.451 E47.24213
G1 X23.562 Y8.24 E47.55744
G1 X23.443 Y9.02 E47.87236
G1 X23.245 Y9.785 E48.18775
G1 X22.971 Y10.525 E48.50269
G1 X22.623 Y11.234 E48.81792
G1 X22.205 Y11.905 E49.13344
G1 X21.722 Y12.529 E49.44839
G1 X21.179 Y13.102 E49.76346
G1 X20.58 Y13.617 E50.07875
G1 X19.932 Y14.068 E50.39385
G1 X19.241 Y14.452 E50.70937
G1 X18.516 Y14.764 E51.02439
G1 X17.938 Y14.946 E51.26625
G1 X17.883 Y15.157 E51.35328
G1 X17.609 Y15.897 E51.66822
G1 X17.261 Y16.606 E51.98345
G1 X16.843 Y17.277 E52.29897
G1 X16.36 Y17.901 E52.61392
G1 X15.817 Y18.474 E52.92899
G1 X15.218 Y18.989 E53.24428
G1 X14.57 Y19.44 E53.55938
G1 X13.879 Y19.824 E53.8749
G1 X13.154 Y20.136 E54.18992
G1 X12.368 Y20.38 E54.5184
G1 X12.111 Y20.975 E54.77708
G1 X11.727 Y21.665 E55.09225
G1 X11.276 Y22.313 E55.40736
G1 X10.761 Y22.912 E55.72264
G1 X10.188 Y23.455 E56.03772
G1 X9.328 Y24.095 E56.46558
G1 X8.623 Y24.548 E56.80004
G1 X7.938 Y24.941 E57.11524
G1 X7.217 Y25.262 E57.43024
G1 X6.467 Y25.509 E57.74539
G1 X5.696 Y25.679 E58.06051
G1 X4.756 Y25.778 E58.43776
G1 X0.161 Y25.984 E60.27356
G1 X-5.066 Y25.985 E62.35977
G1 X-5.855 Y25.945 E62.67508
G1 X-6.636 Y25.826 E62.99039
G1 X-7.4 Y25.628 E63.3054
G1 X-8.141 Y25.354 E63.62072
G1 X-8.85 Y25.007 E63.93577
G1 X-9.52 Y24.589 E64.25095
G1 X-10.145 Y24.106 E64.56621
G1 X-10.718 Y23.563 E64.88129
G1 X-11.233 Y22.964 E65.19657
G1 X-11.684 Y22.316 E65.51168
G1 X-12.068 Y21.626 E65.82685
G1 X-12.38 Y20.9 E66.14223
G1 X-12.563 Y20.318 E66.38574
G1 X-12.764 Y20.266 E66.4686
G1 X-13.504 Y19.992 E66.78355
G1 X-14.213 Y19.644 E67.09877
G1 X-14.884 Y19.226 E67.4143
G1 X-15.508 Y18.743 E67.72924
G1 X-16.081 Y18.2 E68.04431
G1 X-16.596 Y17.601 E68.3596
G1 X-17.047 Y16.953 E68.67471
G1 X-17.431 Y16.262 E68.99022
G1 X-17.743 Y15.537 E69.30524
G1 X-17.928 Y14.948 E69.55165
G0 F2400 X-16.826 Y14.452
G1 F600 X-16.926 Y13.945 E69.7579
G1 X-17.244 Y13.892 E69.88657
G1 X-17.943 Y13.694 E70.17654
G1 X-18.616 Y13.421 E70.4664
G1 X-19.255 Y13.076 E70.75624
G1 X-19.852 Y12.662 E71.0462
G1 X-20.4 Y12.186 E71.33591
G1 X-20.893 Y11.652 E71.62598
G1 X-21.323 Y11.067 E71.91576
G1 X-21.687 Y10.438 E72.20581
G1 X-21.98 Y9.773 E72.49585
G1 X-22.198 Y9.08 E72.7858
G1 X-22.338 Y8.368 E73.07542
G1 X-22.402 Y7.451 E73.4423
G1 X-22.402 Y-18.184 E83.67379
G1 X-22.362 Y-18.909 E83.96359
G1 X-22.243 Y-19.626 E84.25368
G1 X-22.045 Y-20.325 E84.54364
G1 X-21.772 Y-20.998 E84.83351
G1 X-21.427 Y-21.637 E85.12334
G1 X-21.013 Y-22.234 E85.4133
G1 X-20.537 Y-22.782 E85.70301
G1 X-20.003 Y-23.275 E85.99309
G1 X-19.418 Y-23.705 E86.28286
G1 X-18.789 Y-24.069 E86.57292
G1 X-18.124 Y-24.362 E86.86295
G1 X-17.431 Y-24.58 E87.15291
G1 X-16.719 Y-24.72 E87.44252
G1 X-15.802 Y-24.784 E87.80941
G1 X-5.068 Y-24.784 E92.09358
G1 X-4.343 Y-24.744 E92.38338
G1 X-3.626 Y-24.625 E92.67347
G1 X-2.927 Y-24.427 E92.96343
G1 X-2.254 Y-24.154 E93.2533
G1 X-1.615 Y-23.809 E93.54313
G1 X-1.018 Y-23.395 E93.83309
G1 X-.47 Y-22.919 E94.1228
G1 X0.005 Y-22.404 E94.40243
G1 X0.333 Y-22.782 E94.60218
G1 X0.867 Y-23.275 E94.89225
G1 X1.452 Y-23.705 E95.18203
G1 X2.081 Y-24.069 E95.47208
G1 X2.746 Y-24.362 E95.76212
G1 X3.439 Y-24.58 E96.05207
G1 X4.151 Y-24.72 E96.34169
G1 X5.068 Y-24.784 E96.70857
G1 X15.802 Y-24.784 E100.99274
G1 X16.527 Y-24.744 E101.28255
G1 X17.244 Y-24.625 E101.57263
G1 X17.943 Y-24.427 E101.86259
G1 X18.616 Y-24.154 E102.15246
G1 X19.255 Y-23.809 E102.4423
G1 X19.852 Y-23.395 E102.73226
G1 X20.4 Y-22.919 E103.02197
G1 X20.893 Y-22.385 E103.31204
G1 X21.323 Y-21.8 E103.60182
G1 X21.687 Y-21.171 E103.89187
G1 X21.98 Y-20.506 E104.18191
G1 X22.198 Y-19.813 E104.47186
G1 X22.338 Y-19.101 E104.76148
G1 X22.402 Y-18.184 E105.12836
G1 X22.402 Y7.451 E115.35984
G1 X22.362 Y8.176 E115.64965
G1 X22.243 Y8.893 E115.93973
G1 X22.045 Y9.592 E116.2297
G1 X21.772 Y10.265 E116.51956
G1 X21.427 Y10.904 E116.8094
G1 X21.013 Y11.501 E117.09936
G1 X20.537 Y12.049 E117.38907
G1 X20.003 Y12.542 E117.67914
G1 X19.418 Y12.972 E117.96892
G1 X18.789 Y13.336 E118.25897
G1 X18.124 Y13.629 E118.54901
G1 X17.431 Y13.847 E118.83896
G1 X16.934 Y13.945 E119.04115
G1 X16.881 Y14.265 E119.1706
G1 X16.683 Y14.964 E119.46057
G1 X16.41 Y15.637 E119.75043
G1 X16.065 Y16.276 E120.04027
G1 X15.651 Y16.873 E120.33023
G1 X15.175 Y17.421 E120.61994
G1 X14.641 Y17.914 E120.91001
G1 X14.056 Y18.344 E121.19979
G1 X13.427 Y18.708 E121.48984
G1 X12.762 Y19.001 E121.77988
G1 X12.069 Y19.219 E122.06983
G1 X11.484 Y19.334 E122.30779
G1 X11.299 Y19.832 E122.51982
G1 X11.009 Y20.498 E122.80974
G1 X10.647 Y21.128 E123.09975
G1 X10.219 Y21.714 E123.38937
G1 X9.728 Y22.25 E123.67949
G1 X9.182 Y22.729 E123.96939
G1 X8.68 Y23.086 E124.21524
G1 X7.975 Y23.539 E124.5497
G1 X7.343 Y23.897 E124.83961
G1 X6.676 Y24.184 E125.12942
G1 X5.981 Y24.396 E125.41943
G1 X5.267 Y24.53 E125.70938
G1 X4.703 Y24.579 E125.93533
G1 X0.13 Y24.784 E127.76234
G1 X-5.067 Y24.785 E129.83658
G1 X-5.792 Y24.745 E130.12638
G1 X-6.508 Y24.626 E130.41607
G1 X-7.208 Y24.429 E130.70631
G1 X-7.881 Y24.156 E130.99618
G1 X-8.52 Y23.81 E131.28621
G1 X-9.117 Y23.397 E131.57594
G1 X-9.665 Y22.921 E131.86565
G1 X-10.158 Y22.387 E132.15572
G1 X-10.589 Y21.802 E132.44573
G1 X-10.953 Y21.173 E132.73579
G1 X-11.245 Y20.509 E133.0253
G1 X-11.463 Y19.816 E133.31525
G1 X-11.562 Y19.315 E133.51908
G1 X-11.872 Y19.264 E133.64447
G1 X-12.571 Y19.066 E133.93443
G1 X-13.244 Y18.793 E134.2243
G1 X-13.883 Y18.448 E134.51414
G1 X-14.48 Y18.034 E134.8041
G1 X-15.028 Y17.558 E135.09381
G1 X-15.521 Y17.024 E135.38388
G1 X-15.951 Y16.439 E135.67366
G1 X-16.315 Y15.81 E135.96371
G1 X-16.608 Y15.145 E136.25375
G1 X-16.826 Y14.452 E136.5437
G0 F2400 X-15.686 Y14.063
G1 F600 X-15.797 Y13.416 E136.8057
G1 X-15.829 Y12.849 E137.03237
G1 X-16.458 Y12.811 E137.28387
G1 X-17.104 Y12.692 E137.54604
G1 X-17.731 Y12.495 E137.80835
G1 X-18.329 Y12.223 E138.07056
G1 X-18.89 Y11.881 E138.33279
G1 X-19.405 Y11.473 E138.59503
G1 X-19.867 Y11.006 E138.85721
G1 X-20.268 Y10.486 E139.1193
G1 X-20.604 Y9.922 E139.38132
G1 X-20.868 Y9.32 E139.64368
G1 X-21.058 Y8.691 E139.90593
G1 X-21.169 Y8.044 E140.16794
G1 X-21.202 Y7.451 E140.40498
G1 X-21.202 Y-18.184 E150.63647
G1 X-21.162 Y-18.84 E150.89878
G1 X-21.043 Y-19.486 E151.16095
G1 X-20.846 Y-20.113 E151.42326
G1 X-20.574 Y-20.711 E151.68546
G1 X-20.232 Y-21.272 E151.9477
G1 X-19.824 Y-21.787 E152.20993
G1 X-19.357 Y-22.249 E152.47212
G1 X-18.837 Y-22.65 E152.73421
G1 X-18.273 Y-22.986 E152.99623
G1 X-17.671 Y-23.25 E153.25859
G1 X-17.042 Y-23.44 E153.52084
G1 X-16.395 Y-23.551 E153.78284
G1 X-15.802 Y-23.584 E154.01989
G1 X-5.068 Y-23.584 E158.30406
G1 X-4.412 Y-23.544 E158.56637
G1 X-3.766 Y-23.425 E158.82854
G1 X-3.139 Y-23.228 E159.09085
G1 X-2.541 Y-22.956 E159.35306
G1 X-1.98 Y-22.614 E159.61529
G1 X-1.465 Y-22.206 E159.87753
G1 X-1.003 Y-21.739 E160.13971
G1 X-.602 Y-21.219 E160.4018
G1 X-.266 Y-20.655 E160.66382
G1 X-0.003 Y-20.053 E160.92602
G1 X0.296 Y-20.711 E161.21449
G1 X0.638 Y-21.272 E161.47672
G1 X1.046 Y-21.787 E161.73896
G1 X1.513 Y-22.249 E162.00114
G1 X2.033 Y-22.65 E162.26323
G1 X2.597 Y-22.986 E162.52525
G1 X3.199 Y-23.25 E162.78761
G1 X3.828 Y-23.44 E163.04987
G1 X4.475 Y-23.551 E163.31187
G1 X5.068 Y-23.584 E163.54892
G1 X15.802 Y-23.584 E167.83309
G1 X16.458 Y-23.544 E168.0954
G1 X17.104 Y-23.425 E168.35757
G1 X17.731 Y-23.228 E168.61988
G1 X18.329 Y-22.956 E168.88208
G1 X18.89 Y-22.614 E169.14432
G1 X19.405 Y-22.206 E169.40655
G1 X19.867 Y-21.739 E169.66874
G1 X20.268 Y-21.219 E169.93083
G1 X20.604 Y-20.655 E170.19285
G1 X20.868 Y-20.053 E170.45521
G1 X21.058 Y-19.424 E170.71746
G1 X21.169 Y-18.777 E170.97946
G1 X21.202 Y-18.184 E171.21651
G1 X21.202 Y7.451 E181.44799
G1 X21.162 Y8.107 E181.7103
G1 X21.043 Y8.753 E181.97247
G1 X20.846 Y9.38 E182.23478
G1 X20.574 Y9.978 E182.49699
G1 X20.232 Y10.539 E182.75922
G1 X19.824 Y11.054 E183.02146
G1 X19.357 Y11.516 E183.28364
G1 X18.837 Y11.917 E183.54573
G1 X18.273 Y12.253 E183.80775
G1 X17.671 Y12.517 E184.07011
G1 X17.042 Y12.707 E184.33237
G1 X16.395 Y12.818 E184.59437
G1 X15.838 Y12.849 E184.81702
G1 X15.8 Y13.479 E185.06893
G1 X15.681 Y14.125 E185.3311
G1 X15.484 Y14.752 E185.59341
G1 X15.212 Y15.35 E185.85561
G1 X14.87 Y15.911 E186.11785
G1 X14.462 Y16.426 E186.38008
G1 X13.995 Y16.888 E186.64227
G1 X13.475 Y17.289 E186.90436
G1 X12.911 Y17.625 E187.16638
G1 X12.309 Y17.889 E187.42874
G1 X11.68 Y18.079 E187.69099
G1 X11.033 Y18.19 E187.953
G1 X10.62 Y18.213 E188.11809
G1 X10.174 Y19.414 E188.62942
G1 X9.908 Y20.015 E188.89173
G1 X9.571 Y20.579 E189.15396
G1 X9.168 Y21.098 E189.41622
G1 X8.705 Y21.564 E189.67841
G1 X8.031 Y22.076 E190.01623
G1 X7.326 Y22.529 E190.35069
G1 X6.753 Y22.85 E190.61283
G1 X6.145 Y23.099 E190.87506
G1 X5.511 Y23.272 E191.13735
G1 X4.649 Y23.381 E191.48413
G1 X0.232 Y23.579 E193.24883
G1 X-5.067 Y23.585 E195.36377
G1 X-5.723 Y23.545 E195.62608
G1 X-6.369 Y23.426 E195.88825
G1 X-6.996 Y23.229 E196.15056
G1 X-7.594 Y22.958 E196.4126
G1 X-8.155 Y22.616 E196.67484
G1 X-8.67 Y22.208 E196.93707
G1 X-9.132 Y21.741 E197.19926
G1 X-9.534 Y21.221 E197.46159
G1 X-9.869 Y20.656 E197.72375
G1 X-10.134 Y20.055 E197.98591
G1 X-10.323 Y19.426 E198.24804
G1 X-10.435 Y18.779 E198.51012
G1 X-10.466 Y18.221 E198.73317
G1 X-11.086 Y18.183 E198.98109
G1 X-11.732 Y18.064 E199.24326
G1 X-12.359 Y17.867 E199.50557
G1 X-12.957 Y17.595 E199.76777
G1 X-13.518 Y17.253 E200.03001
G1 X-14.033 Y16.845 E200.29224
G1 X-14.495 Y16.378 E200.55443
G1 X-14.896 Y15.858 E200.81652
G1 X-15.232 Y15.294 E201.07854
G1 X-15.496 Y14.692 E201.3409
G1 X-15.686 Y14.063 E201.60315
G0 F2400 X-14.554 Y13.618
G1 F600 X-14.63 Y12.823 E201.9219
G1 X-14.63 Y11.651 E202.38967
G1 X-15.802 Y11.651 E202.85744
G1 X-16.38 Y11.611 E203.08869
G1 X-16.947 Y11.492 E203.31992
G1 X-17.492 Y11.296 E203.55108
G1 X-18.005 Y11.027 E203.78227
G1 X-18.476 Y10.69 E204.01342
G1 X-18.896 Y10.291 E204.24463
G1 X-19.258 Y9.838 E204.47607
G1 X-19.553 Y9.34 E204.70709
G1 X-19.778 Y8.806 E204.93837
G1 X-19.926 Y8.246 E205.16955
G1 X-20.002 Y7.451 E205.4883
G1 X-20.002 Y-18.184 E215.71978
G1 X-19.962 Y-18.762 E215.95103
G1 X-19.843 Y-19.329 E216.18226
G1 X-19.647 Y-19.874 E216.41342
G1 X-19.378 Y-20.387 E216.64461
G1 X-19.041 Y-20.858 E216.87576
G1 X-18.642 Y-21.278 E217.10698
G1 X-18.189 Y-21.64 E217.33842
G1 X-17.691 Y-21.935 E217.56943
G1 X-17.157 Y-22.16 E217.80071
G1 X-16.597 Y-22.308 E218.03189
G1 X-15.802 Y-22.384 E218.35064
G1 X-5.068 Y-22.384 E222.63481
G1 X-4.49 Y-22.344 E222.86606
G1 X-3.923 Y-22.225 E223.09729
G1 X-3.378 Y-22.029 E223.32845
G1 X-2.865 Y-21.76 E223.55964
G1 X-2.394 Y-21.423 E223.79079
G1 X-1.974 Y-21.024 E224.02201
G1 X-1.612 Y-20.571 E224.25345
G1 X-1.317 Y-20.073 E224.48446
G1 X-1.092 Y-19.539 E224.71574
G1 X-.944 Y-18.979 E224.94692
G1 X-.868 Y-18.184 E225.26567
G1 X-.868 Y-12.247 E227.63526
G1 X0.868 Y-12.247 E228.32813
G1 X0.868 Y-18.184 E230.69772
G1 X0.908 Y-18.762 E230.92896
G1 X1.027 Y-19.329 E231.16019
G1 X1.223 Y-19.874 E231.39135
G1 X1.492 Y-20.387 E231.62255
G1 X1.829 Y-20.858 E231.85369
G1 X2.228 Y-21.278 E232.08491
G1 X2.681 Y-21.64 E232.31635
G1 X3.179 Y-21.935 E232.54737
G1 X3.713 Y-22.16 E232.77865
G1 X4.273 Y-22.308 E233.00983
G1 X5.068 Y-22.384 E233.32858
G1 X15.802 Y-22.384 E237.61275
G1 X16.38 Y-22.344 E237.84399
G1 X16.947 Y-22.225 E238.07522
G1 X17.492 Y-22.029 E238.30638
G1 X18.005 Y-21.76 E238.53758
G1 X18.476 Y-21.423 E238.76873
G1 X18.896 Y-21.024 E238.99994
G1 X19.258 Y-20.571 E239.23138
G1 X19.553 Y-20.073 E239.4624
G1 X19.778 Y-19.539 E239.69368
G1 X19.926 Y-18.979 E239.92486
G1 X20.002 Y-18.184 E240.24361
G1 X20.002 Y7.451 E250.47509
G1 X19.962 Y8.029 E250.70633
G1 X19.843 Y8.596 E250.93757
G1 X19.647 Y9.141 E251.16873
G1 X19.378 Y9.654 E251.39992
G1 X19.041 Y10.125 E251.63107
G1 X18.642 Y10.545 E251.86228
G1 X18.189 Y10.907 E252.09372
G1 X17.691 Y11.202 E252.32474
G1 X17.157 Y11.427 E252.55602
G1 X16.597 Y11.575 E252.7872
G1 X15.802 Y11.651 E253.10595
G1 X14.64 Y11.651 E253.56973
G1 X14.64 Y12.823 E254.0375
G1 X14.6 Y13.401 E254.26874
G1 X14.481 Y13.968 E254.49997
G1 X14.285 Y14.513 E254.73114
G1 X14.016 Y15.026 E254.96233
G1 X13.679 Y15.497 E255.19348
G1 X13.28 Y15.917 E255.42469
G1 X12.827 Y16.279 E255.65613
G1 X12.329 Y16.574 E255.88715
G1 X11.795 Y16.799 E256.11843
G1 X11.235 Y16.947 E256.34961
G1 X10.44 Y17.023 E256.66836
G1 X9.604 Y17.023 E257.00202
G1 X9.57 Y17.374 E257.14277
G1 X9.363 Y18.151 E257.4637
G1 X9.049 Y18.996 E257.82349
G1 X8.81 Y19.524 E258.05481
G1 X8.501 Y20.014 E258.28602
G1 X8.127 Y20.456 E258.51711
G1 X7.622 Y20.912 E258.78868
G1 X6.677 Y21.519 E259.23696
G1 X6.17 Y21.798 E259.46793
G1 X5.628 Y22.005 E259.69949
G1 X4.917 Y22.168 E259.99063
G1 X0.178 Y22.38 E261.88396
G1 X-5.067 Y22.385 E263.97735
G1 X-5.645 Y22.345 E264.2086
G1 X-6.212 Y22.226 E264.43983
G1 X-6.757 Y22.03 E264.67099
G1 X-7.27 Y21.761 E264.90218
G1 X-7.741 Y21.424 E265.13333
G1 X-8.162 Y21.026 E265.36456
G1 X-8.523 Y20.573 E265.59575
G1 X-8.819 Y20.075 E265.82697
G1 X-9.043 Y19.541 E266.05809
G1 X-9.192 Y18.981 E266.28938
G1 X-9.268 Y18.185 E266.60852
G1 X-9.268 Y17.023 E267.0723
G1 X-10.43 Y17.023 E267.53608
G1 X-11.008 Y16.983 E267.76733
G1 X-11.575 Y16.864 E267.99856
G1 X-12.12 Y16.668 E268.22972
G1 X-12.633 Y16.399 E268.46091
G1 X-13.104 Y16.062 E268.69206
G1 X-13.524 Y15.663 E268.92328
G1 X-13.886 Y15.21 E269.15472
G1 X-14.181 Y14.712 E269.38573
G1 X-14.406 Y14.178 E269.61701
G1 X-14.554 Y13.618 E269.84819
G0 F2400 X-13.326 Y13.606
G1 F600 X-13.43 Y13.044 E270.07631
G1 X-13.43 Y10.451 E271.11123
G1 X-15.802 Y10.451 E272.05795
G1 X-16.29 Y10.411 E272.25337
G1 X-16.765 Y10.292 E272.44881
G1 X-17.214 Y10.098 E272.64403
G1 X-17.626 Y9.833 E272.83955
G1 X-17.989 Y9.505 E273.03481
G1 X-18.294 Y9.122 E273.23023
G1 X-18.532 Y8.694 E273.42568
G1 X-18.698 Y8.234 E273.62087
G1 X-18.802 Y7.672 E273.84898
