; generated by PrusaSlicer 2.5.2+win64 on 2023-05-30 at 06:15:26 UTC

; 

; external perimeters extrusion width = 0.45mm
; perimeters extrusion width = 0.45mm
; infill extrusion width = 0.45mm
; solid infill extrusion width = 0.45mm
; top infill extrusion width = 0.40mm
; first layer extrusion width = 0.49mm

; external perimeters extrusion width = 0.45mm
; perimeters extrusion width = 0.45mm
; infill extrusion width = 0.45mm
; solid infill extrusion width = 0.45mm
; top infill extrusion width = 0.40mm
; first layer extrusion width = 0.49mm

; external perimeters extrusion width = 0.45mm
; perimeters extrusion width = 0.45mm
; infill extrusion width = 0.45mm
; solid infill extrusion width = 0.45mm
; top infill extrusion width = 0.40mm
; first layer extrusion width = 0.49mm

M107
M104 S200 ; set temperature
;TYPE:Custom
;G28 ; home all axes
G1 Z5 F5000 ; lift nozzle
M109 S200 ; set temperature and wait for it to be reached
G21 ; set units to millimeters
G90 ; use absolute coordinates
M82 ; use absolute distances for extrusion
G92 E0
; Filament gcode
M106 S255
;LAYER_CHANGE
;Z:0.35
;HEIGHT:0.35
G1 Z.35 F4800
G1 E-5 F2400
G92 E0
G1 Z1.35 F4800
G1 X16.794 Y22.051
G1 Z.35
G1 E5 F2400
;TYPE:Skirt/Brim
;WIDTH:0.49
G1 X17.153 Y21.813 E5.02597
G1 X17.574 Y21.611 E5.05418
G1 X18.108 Y21.452 E5.08781
G1 X19.887 Y21.202 E5.19627
G1 X20.414 Y21.179 E5.22808
G1 X21.007 Y21.253 E5.26418
G1 X21.565 Y21.431 E5.29953
G1 X22.081 Y21.705 E5.33486
G1 X22.529 Y22.058 E5.36923
G1 X28.038 Y28.143 E5.86478
G1 X28.285 Y28.627 E5.89759
G1 X28.421 Y29.268 E5.93719
G1 X28.506 Y29.841 E5.97214
G1 X28.557 Y30.418 E6.00711
G1 X28.572 Y31.015 E6.04317
G1 X28.526 Y31.884 E6.09573
G1 X28.397 Y32.763 E6.14935
G1 X28.188 Y33.623 E6.20277
G1 X27.958 Y34.307 E6.24634
G1 X27.625 Y35.084 E6.29736
G1 X27.202 Y35.864 E6.35094
G1 X26.719 Y36.585 E6.40333
G1 X26.172 Y37.259 E6.45574
G1 X25.566 Y37.881 E6.50819
G1 X24.905 Y38.445 E6.56066
G1 X24.182 Y38.954 E6.614
G1 X23.609 Y39.292 E6.65417
G1 X22.817 Y39.676 E6.70728
G1 X22.004 Y39.98 E6.75971
G1 X21.158 Y40.212 E6.81268
G1 X20.326 Y40.371 E6.86382
G1 X20.208 Y40.374 E6.87092
G1 X19.789 Y40.266 E6.89704
G1 X19.306 Y39.954 E6.93175
G1 X19.06 Y39.656 E6.95509
G1 X18.991 Y39.507 E6.96504
G1 X15.6 Y25.375 E7.84239
G1 X15.534 Y24.987 E7.86614
G1 X15.515 Y24.601 E7.88948
G1 X15.546 Y24.186 E7.91461
G1 X15.63 Y23.777 E7.93983
G1 X15.767 Y23.382 E7.96508
G1 X15.939 Y23.03 E7.98873
G1 X16.202 Y22.637 E8.01725
G1 X16.479 Y22.325 E8.04245
G1 X16.749 Y22.09 E8.06407
G1 X17.022 Y22.401 F4800
G1 F2400
G1 X17.346 Y22.181 E8.08773
G1 X17.738 Y21.993 E8.11398
G1 X18.21 Y21.854 E8.14367
G1 X19.935 Y21.614 E8.24884
G1 X20.382 Y21.593 E8.27587
G1 X20.902 Y21.655 E8.30748
G1 X21.39 Y21.807 E8.33831
G1 X21.84 Y22.044 E8.36902
G1 X22.258 Y22.373 E8.40115
G1 X27.712 Y28.401 E8.89189
G1 X27.885 Y28.739 E8.91485
G1 X28.014 Y29.348 E8.9524
G1 X28.095 Y29.895 E8.98582
G1 X28.143 Y30.447 E9.01926
G1 X28.157 Y31.017 E9.05366
G1 X28.112 Y31.852 E9.10418
G1 X27.988 Y32.693 E9.15547
G1 X27.787 Y33.516 E9.20662
G1 X27.573 Y34.152 E9.24711
G1 X27.256 Y34.895 E9.2959
G1 X26.851 Y35.642 E9.34717
G1 X26.39 Y36.332 E9.39727
G1 X25.869 Y36.977 E9.44735
G1 X25.275 Y37.585 E9.49864
G1 X24.643 Y38.123 E9.54878
G1 X23.951 Y38.61 E9.59988
G1 X23.42 Y38.923 E9.63705
G1 X22.662 Y39.291 E9.68793
G1 X21.885 Y39.583 E9.73804
G1 X21.072 Y39.806 E9.78897
G1 X20.27 Y39.96 E9.83827
G1 X19.984 Y39.898 E9.85589
G1 X19.563 Y39.626 E9.88617
G1 X19.39 Y39.392 E9.90377
G1 X16.005 Y25.285 E10.7796
G1 X15.948 Y24.953 E10.79994
G1 X15.93 Y24.617 E10.82023
G1 X15.956 Y24.254 E10.84218
G1 X16.028 Y23.897 E10.86419
G1 X16.145 Y23.552 E10.8862
G1 X16.306 Y23.225 E10.90818
G1 X16.522 Y22.901 E10.93174
G1 X16.763 Y22.627 E10.95372
G1 X16.976 Y22.44 E10.97086
G1 X17.251 Y22.75 F4800
G1 F2400
G1 X17.539 Y22.548 E10.99214
G1 X17.901 Y22.375 E11.01635
G1 X18.31 Y22.257 E11.04202
G1 X19.983 Y22.026 E11.14402
G1 X20.354 Y22.007 E11.16642
G1 X20.798 Y22.057 E11.19341
G1 X21.247 Y22.197 E11.22179
G1 X21.627 Y22.4 E11.24781
G1 X21.986 Y22.686 E11.27551
G1 X27.386 Y28.659 E11.7616
G1 X27.485 Y28.852 E11.77473
G1 X27.604 Y29.415 E11.80949
G1 X27.682 Y29.938 E11.84136
G1 X27.729 Y30.476 E11.87401
G1 X27.742 Y31.019 E11.90675
G1 X27.698 Y31.82 E11.95522
G1 X27.579 Y32.622 E12.00417
G1 X27.386 Y33.408 E12.05304
G1 X27.189 Y33.996 E12.0905
G1 X26.886 Y34.706 E12.13708
G1 X26.501 Y35.42 E12.18604
G1 X26.061 Y36.079 E12.23383
G1 X25.564 Y36.694 E12.28161
G1 X24.999 Y37.275 E12.33055
G1 X24.382 Y37.801 E12.3795
G1 X23.719 Y38.266 E12.42836
G1 X23.231 Y38.553 E12.46255
G1 X22.506 Y38.906 E12.51121
G1 X21.766 Y39.185 E12.55901
G1 X20.985 Y39.4 E12.60787
G1 X20.25 Y39.541 E12.65305
G1 X20.172 Y39.526 E12.65788
G1 X19.826 Y39.302 E12.68276
G1 X19.779 Y39.237 E12.68759
G1 X16.41 Y25.195 E13.55939
G1 X16.359 Y24.896 E13.57771
G1 X16.345 Y24.611 E13.59494
G1 X16.368 Y24.3 E13.61376
G1 X16.431 Y23.995 E13.63255
G1 X16.533 Y23.701 E13.65134
G1 X16.671 Y23.422 E13.67013
G1 X16.844 Y23.163 E13.68892
G1 X17.049 Y22.929 E13.70771
G1 X17.206 Y22.79 E13.72037
G1 X17.479 Y23.101 F4800
G1 F2400
G1 X17.758 Y22.901 E13.74112
G1 X18.035 Y22.768 E13.75967
G1 X18.382 Y22.666 E13.78153
G1 X20.032 Y22.438 E13.88209
G1 X20.329 Y22.421 E13.90002
G1 X20.698 Y22.46 E13.92243
G1 X21.07 Y22.573 E13.94592
G1 X21.414 Y22.757 E13.96943
G1 X21.712 Y22.998 E13.99257
G1 X27.06 Y28.916 E14.47416
G1 X27.085 Y28.965 E14.47746
G1 X27.195 Y29.483 E14.50942
G1 X27.271 Y29.992 E14.5405
G1 X27.315 Y30.505 E14.57158
G1 X27.327 Y31.02 E14.60267
G1 X27.284 Y31.788 E14.64908
G1 X27.17 Y32.551 E14.69569
G1 X26.985 Y33.301 E14.7423
G1 X26.804 Y33.842 E14.77676
G1 X26.516 Y34.518 E14.82113
G1 X26.15 Y35.198 E14.86774
G1 X25.722 Y35.84 E14.91436
G1 X25.248 Y36.426 E14.95982
G1 X24.709 Y36.978 E15.00643
G1 X24.121 Y37.478 E15.05304
G1 X23.488 Y37.921 E15.09965
G1 X23.042 Y38.184 E15.13092
G1 X22.351 Y38.521 E15.17734
G1 X21.629 Y38.794 E15.22395
G1 X20.884 Y38.998 E15.27056
G1 X20.294 Y39.11 E15.30684
G1 X20.154 Y39.02 E15.31686
G1 X16.815 Y25.104 E16.18086
G1 X16.773 Y24.862 E16.19567
G1 X16.76 Y24.604 E16.21127
G1 X16.781 Y24.347 E16.22684
G1 X16.834 Y24.095 E16.24241
G1 X16.919 Y23.851 E16.25798
G1 X17.035 Y23.621 E16.27355
G1 X17.18 Y23.407 E16.28912
G1 X17.433 Y23.141 E16.31133
G1 E11.31133
G92 E0
G1 Z1.35 F4800
G1 X28.873 Y18.094
G1 Z.35
G1 E5 F2400
G1 X28.785 Y17.893 E5.01327
G1 X23.866 Y4.18 E5.89281
G1 X23.851 Y4.053 E5.90055
G1 X23.878 Y3.732 E5.92001
G1 X24.128 Y3.14 E5.95877
G1 X24.383 Y2.852 E5.98201
G1 X24.52 Y2.76 E5.99197
G1 X25.277 Y2.447 E6.04142
G1 X25.861 Y2.248 E6.07867
G1 X26.698 Y2.032 E6.13086
G1 X27.294 Y1.927 E6.16738
G1 X27.897 Y1.861 E6.20404
G1 X28.849 Y1.834 E6.26151
G1 X29.616 Y1.882 E6.30789
G1 X30.271 Y1.972 E6.34785
G1 X30.869 Y2.097 E6.38472
G1 X31.716 Y2.344 E6.43797
G1 X32.466 Y2.637 E6.48661
G1 X33.02 Y2.902 E6.52365
G1 X33.769 Y3.337 E6.57596
G1 X34.276 Y3.685 E6.61307
G1 X34.948 Y4.231 E6.66538
G1 X35.391 Y4.651 E6.7022
G1 X35.812 Y5.106 E6.73965
G1 X36.203 Y5.588 E6.77708
G1 X36.555 Y6.086 E6.81394
G1 X37.008 Y6.844 E6.86722
G1 X37.378 Y7.62 E6.91913
G1 X37.654 Y8.399 E6.96904
G1 X37.671 Y8.763 E6.99101
G1 X36.447 Y16.64 E7.47224
G1 X36.266 Y17.295 E7.51332
G1 X36.054 Y17.733 E7.54267
G1 X35.784 Y18.132 E7.57175
G1 X35.457 Y18.485 E7.60082
G1 X35.084 Y18.785 E7.62972
G1 X34.659 Y19.034 E7.65943
G1 X33.212 Y19.725 E7.75621
G1 X32.591 Y19.941 E7.79594
G1 X32.115 Y20.015 E7.825
G1 X31.529 Y20.013 E7.86041
G1 X30.984 Y19.914 E7.89385
G1 X30.516 Y19.746 E7.92388
G1 X30.032 Y19.48 E7.95721
G1 X29.622 Y19.154 E7.9888
G1 X29.249 Y18.742 E8.02238
G1 X28.952 Y18.272 E8.05597
G1 X28.898 Y18.149 E8.06404
G1 X29.276 Y17.984 F4800
G1 F2400
G1 X29.173 Y17.747 E8.07965
G1 X24.267 Y4.059 E8.9575
G1 X24.288 Y3.802 E8.97305
G1 X24.491 Y3.344 E9.00333
G1 X24.696 Y3.136 E9.02093
G1 X25.429 Y2.833 E9.06886
G1 X25.987 Y2.643 E9.10444
G1 X26.778 Y2.439 E9.15373
G1 X27.359 Y2.337 E9.18935
G1 X27.934 Y2.274 E9.22429
G1 X28.833 Y2.249 E9.27854
G1 X29.582 Y2.295 E9.32388
G1 X30.194 Y2.38 E9.36118
G1 X30.762 Y2.498 E9.39617
G1 X31.574 Y2.733 E9.44723
G1 X32.308 Y3.02 E9.49482
G1 X32.833 Y3.272 E9.52996
G1 X33.554 Y3.691 E9.5803
G1 X34.033 Y4.022 E9.61547
G1 X34.68 Y4.548 E9.66581
G1 X35.1 Y4.947 E9.70079
G1 X35.494 Y5.373 E9.73582
G1 X35.868 Y5.834 E9.77164
G1 X36.204 Y6.306 E9.80662
G1 X36.638 Y7.032 E9.85769
G1 X36.992 Y7.773 E9.90725
G1 X37.242 Y8.456 E9.95117
G1 X37.257 Y8.722 E9.96726
G1 X36.038 Y16.565 E10.44641
G1 X35.883 Y17.134 E10.48205
G1 X35.701 Y17.515 E10.50754
G1 X35.467 Y17.864 E10.5329
G1 X35.184 Y18.172 E10.55815
G1 X34.836 Y18.452 E10.5851
G1 X34.473 Y18.663 E10.61047
G1 X33.044 Y19.346 E10.7061
G1 X32.506 Y19.534 E10.74052
G1 X32.097 Y19.601 E10.76551
G1 X31.582 Y19.602 E10.79657
G1 X31.105 Y19.517 E10.82586
G1 X30.698 Y19.373 E10.85187
G1 X30.274 Y19.142 E10.88106
G1 X29.918 Y18.862 E10.90841
G1 X29.569 Y18.478 E10.93975
G1 X29.3 Y18.039 E10.97079
G1 X29.673 Y17.86 F4800
G1 F2400
G1 X29.562 Y17.601 E10.98779
G1 X24.683 Y4.01 E11.85962
G1 X24.685 Y3.93 E11.86445
G1 X24.852 Y3.553 E11.88933
G1 X24.91 Y3.497 E11.89415
G1 X25.582 Y3.219 E11.93806
G1 X26.113 Y3.038 E11.97197
G1 X26.858 Y2.847 E12.0184
G1 X27.411 Y2.749 E12.05231
G1 X27.971 Y2.687 E12.08632
G1 X28.816 Y2.663 E12.13735
G1 X29.548 Y2.709 E12.18164
G1 X30.117 Y2.788 E12.2163
G1 X30.654 Y2.899 E12.24942
G1 X31.432 Y3.123 E12.29827
G1 X32.149 Y3.404 E12.3448
G1 X32.645 Y3.643 E12.37802
G1 X33.338 Y4.046 E12.42639
G1 X33.79 Y4.359 E12.45962
G1 X34.412 Y4.865 E12.50799
G1 X34.809 Y5.243 E12.54112
G1 X35.185 Y5.65 E12.57455
G1 X35.534 Y6.08 E12.60798
G1 X35.852 Y6.527 E12.64111
G1 X36.268 Y7.221 E12.68995
G1 X36.608 Y7.929 E12.73737
G1 X36.831 Y8.52 E12.77551
G1 X36.843 Y8.684 E12.78544
G1 X35.63 Y16.49 E13.26238
G1 X35.5 Y16.973 E13.29255
G1 X35.334 Y17.322 E13.31589
G1 X35.133 Y17.617 E13.33743
G1 X34.891 Y17.878 E13.35894
G1 X34.591 Y18.117 E13.38211
G1 X34.287 Y18.292 E13.40325
G1 X32.874 Y18.967 E13.49779
G1 X32.418 Y19.128 E13.52702
G1 X32.076 Y19.186 E13.54795
G1 X31.634 Y19.19 E13.57466
G1 X31.223 Y19.119 E13.59979
G1 X30.879 Y19 E13.62178
G1 X30.514 Y18.803 E13.64684
G1 X30.211 Y18.568 E13.66999
G1 X29.911 Y18.241 E13.69678
G1 X29.705 Y17.911 E13.72028
G1 X30.054 Y17.691 F4800
G1 F2400
G1 X29.95 Y17.455 E13.73581
G1 X25.115 Y3.985 E14.59982
G1 X25.182 Y3.833 E14.60984
G1 X25.722 Y3.61 E14.64515
G1 X26.225 Y3.438 E14.67721
G1 X26.954 Y3.25 E14.72265
G1 X27.477 Y3.159 E14.7547
G1 X27.992 Y3.102 E14.786
G1 X28.8 Y3.078 E14.83481
G1 X29.515 Y3.122 E14.87805
G1 X30.04 Y3.196 E14.91008
G1 X30.548 Y3.3 E14.94134
G1 X31.29 Y3.513 E14.98796
G1 X31.991 Y3.787 E15.03341
G1 X32.457 Y4.013 E15.06469
G1 X33.122 Y4.4 E15.11111
G1 X33.547 Y4.695 E15.14238
G1 X34.143 Y5.181 E15.1888
G1 X34.518 Y5.539 E15.22007
G1 X34.876 Y5.926 E15.25192
G1 X35.2 Y6.326 E15.28299
G1 X35.501 Y6.748 E15.31426
G1 X35.898 Y7.41 E15.36088
G1 X36.225 Y8.088 E15.40633
G1 X36.423 Y8.596 E15.43926
G1 X36.429 Y8.65 E15.44256
G1 X35.222 Y16.416 E15.91703
G1 X35.117 Y16.812 E15.94174
G1 X34.966 Y17.128 E15.9629
G1 X34.816 Y17.348 E15.97897
G1 X34.619 Y17.564 E15.99661
G1 X34.345 Y17.782 E16.01774
G1 X34.102 Y17.921 E16.03464
G1 X32.705 Y18.588 E16.12814
G1 X32.328 Y18.723 E16.15231
G1 X32.052 Y18.772 E16.16923
G1 X31.682 Y18.777 E16.19155
G1 X31.339 Y18.72 E16.21253
G1 X31.057 Y18.625 E16.23051
G1 X30.751 Y18.462 E16.25144
G1 X30.501 Y18.271 E16.27041
G1 X30.25 Y18.002 E16.29264
G1 X30.086 Y17.741 E16.31126
G1 E11.31126
G92 E0
G1 Z1.35 F4800
G1 X26.711 Y4.637
G1 Z.35
G1 E5 F2400
;TYPE:Perimeter
;WIDTH:0.49
G1 X27.241 Y4.503 E5.03302
G1 X28.153 Y4.38 E5.08855
G1 X28.839 Y4.365 E5.13001
G1 X29.473 Y4.415 E5.1684
G1 X30.365 Y4.581 E5.22319
G1 X30.974 Y4.767 E5.26161
G1 X31.603 Y5.034 E5.30284
G1 X32.598 Y5.606 E5.37216
G1 X33.255 Y6.116 E5.42234
G1 X33.712 Y6.566 E5.46112
G1 X34.298 Y7.275 E5.5166
G1 X34.632 Y7.804 E5.55439
G1 X35.113 Y8.766 E5.6193
G1 X34.032 Y15.725 E6.04452
G1 X33.898 Y16.344 E6.0827
G1 X33.735 Y16.618 E6.10199
G1 X33.473 Y16.8 E6.1212
G1 X32.291 Y17.364 E6.2003
G1 X31.895 Y17.492 E6.22544
G1 X31.572 Y17.435 E6.24526
G1 X31.361 Y17.305 E6.26019
G1 X31.128 Y16.942 E6.28624
G1 X26.731 Y4.693 E7.07191
G1 X26.178 Y4.381 F4800
G1 F2400
G1 X26.475 Y4.269 E7.09105
G1 X27.135 Y4.099 E7.13222
G1 X28.055 Y3.967 E7.1883
G1 X28.777 Y3.946 E7.2319
G1 X29.426 Y3.986 E7.27118
G1 X30.343 Y4.143 E7.32735
G1 X31.003 Y4.332 E7.36877
G1 X31.637 Y4.58 E7.40991
G1 X32.459 Y5.027 E7.46639
G1 X32.845 Y5.273 E7.49402
G1 X33.537 Y5.812 E7.54694
G1 X34.027 Y6.296 E7.58852
G1 X34.64 Y7.039 E7.6467
G1 X35 Y7.613 E7.68758
G1 X35.453 Y8.495 E7.74749
G1 X35.54 Y8.719 E7.76199
G1 X34.392 Y16.109 E8.21345
G1 X34.236 Y16.641 E8.24693
G1 X34.027 Y16.921 E8.26805
G1 X33.683 Y17.16 E8.29333
G1 X32.377 Y17.783 E8.38067
G1 X31.87 Y17.908 E8.41218
G1 X31.411 Y17.824 E8.4404
G1 X31.016 Y17.554 E8.46925
G1 X30.749 Y17.114 E8.50036
G1 X26.198 Y4.437 E9.31346
G1 X25.65 Y4.136 F4800
;TYPE:External perimeter
G1 F2400
G1 X26.35 Y3.873 E9.35863
G1 X27.054 Y3.692 E9.40252
G1 X28.019 Y3.553 E9.46138
G1 X28.783 Y3.53 E9.50754
G1 X29.474 Y3.573 E9.54933
G1 X30.436 Y3.738 E9.60822
G1 X31.136 Y3.939 E9.65219
G1 X31.812 Y4.203 E9.69606
G1 X32.885 Y4.786 E9.76973
G1 X33.665 Y5.365 E9.82841
G1 X34.198 Y5.859 E9.87228
G1 X34.717 Y6.461 E9.92025
G1 X35.108 Y6.988 E9.95985
G1 X35.368 Y7.421 E9.99037
G1 X35.84 Y8.345 E10.05301
G1 X35.967 Y8.673 E10.07424
G1 X34.777 Y16.329 E10.54197
G1 X34.609 Y16.836 E10.57425
G1 X34.318 Y17.223 E10.60348
G1 X33.892 Y17.52 E10.63484
G1 X32.649 Y18.113 E10.71801
G1 X32.163 Y18.278 E10.74899
G1 X31.739 Y18.327 E10.77474
G1 X31.25 Y18.212 E10.80507
G1 X30.923 Y18.01 E10.82827
G1 X30.622 Y17.742 E10.85258
G1 X30.37 Y17.285 E10.8841
G1 X25.67 Y4.193 E11.72388
G1 X26.044 Y4.203 F4800
G1 E6.72388 F2400
G92 E0
G1 Z1.35 F4800
G1 X34.464 Y7.753
G1 Z.35
G1 E5 F2400
;TYPE:Solid infill
;WIDTH:0.507016
G1 X32.935 Y6.244 E5.13498
G1 X32.269 Y5.75 E5.1871
G1 X31.353 Y5.252 E5.25263
G1 X34.672 Y8.572 E5.54765
G1 X34.792 Y8.806 E5.56419
G1 X34.725 Y9.235 E5.59149
G1 X30.407 Y4.917 E5.97533
G1 X30.181 Y4.852 E5.99008
G1 X29.638 Y4.759 E6.0247
G1 X34.643 Y9.764 E6.46955
G1 X34.561 Y10.293 E6.50317
G1 X28.952 Y4.684 E7.00167
G1 X28.344 Y4.687 E7.03988
G1 X34.479 Y10.821 E7.58511
G1 X34.397 Y11.35 E7.61873
G1 X27.786 Y4.739 E8.20627
G1 X27.254 Y4.818 E8.24006
G1 X34.315 Y11.879 E8.86757
G1 X34.232 Y12.407 E8.90119
G1 X27.366 Y5.541 E9.51149
G1 X27.708 Y6.494 E9.57511
G1 X34.15 Y12.936 E10.1477
G1 X34.068 Y13.464 E10.18132
G1 X28.05 Y7.446 E10.71621
G1 X28.392 Y8.399 E10.77983
G1 X33.986 Y13.993 E11.27701
G1 X33.904 Y14.522 E11.31063
G1 X28.734 Y9.352 E11.77011
G1 X29.076 Y10.305 E11.83374
G1 X33.822 Y15.05 E12.25551
G1 X33.739 Y15.579 E12.28913
G1 X29.418 Y11.258 E12.6732
G1 X29.76 Y12.211 E12.73683
G1 X33.651 Y16.101 E13.08262
G1 X33.585 Y16.3 E13.09577
G1 X33.516 Y16.391 E13.10297
G1 X33.406 Y16.468 E13.11136
G1 X30.102 Y13.164 E13.40503
G1 X30.444 Y14.116 E13.46865
G1 X33.006 Y16.678 E13.69635
G1 X32.593 Y16.876 E13.72514
G1 X30.786 Y15.069 E13.8857
G1 X31.128 Y16.022 E13.94932
G1 X32.179 Y17.073 E14.04273
G1 X31.858 Y17.179 E14.06398
G1 X31.691 Y17.143 E14.0747
G1 X31.553 Y17.058 E14.08493
G1 X31.161 Y16.665 E14.11978
;LAYER_CHANGE
;Z:0.65
;HEIGHT:0.3
G1 Z.65 F4800
G1 E9.11978 F2400
G92 E0
G1 Z1.65 F4800
G1 X26.612 Y4.592
G1 Z.65
G1 E5 F2400
;TYPE:Perimeter
;WIDTH:0.45
G1 F1800
G1 X27.242 Y4.424 E5.03138
G1 X28.151 Y4.302 E5.07547
G1 X28.909 Y4.289 E5.11195
G1 X29.481 Y4.337 E5.13958
G1 X30.387 Y4.506 E5.18389
G1 X31.003 Y4.693 E5.21485
G1 X31.64 Y4.965 E5.24816
G1 X32.645 Y5.543 E5.30393
G1 X33.308 Y6.058 E5.34432
G1 X33.774 Y6.52 E5.37586
G1 X34.399 Y7.281 E5.42323
G1 X34.702 Y7.768 E5.45082
G1 X35.14 Y8.617 E5.49677
G1 X35.194 Y8.757 E5.50398
G1 X34.042 Y16.169 E5.86478
G1 X33.921 Y16.504 E5.88191
G1 X33.632 Y16.805 E5.90193
G1 X32.119 Y17.515 E5.98233
G1 X31.734 Y17.561 E6.00097
G1 X31.492 Y17.487 E6.01315
G1 X31.259 Y17.323 E6.02685
G1 X31.098 Y17.08 E6.04088
G1 X26.632 Y4.649 E6.67621
