;MOVIMIENTO COMPLETO
; generated by PrusaSlicer 2.5.2+win64 on 2023-04-29 at 15:51:58 UTC

; 

; external perimeters extrusion width = 1.20mm
; perimeters extrusion width = 1.20mm
; infill extrusion width = 1.20mm
; solid infill extrusion width = 1.20mm
; top infill extrusion width = 1.00mm
; support material extrusion width = 0.87mm
; first layer extrusion width = 1.20mm

; external perimeters extrusion width = 1.20mm
; perimeters extrusion width = 1.20mm
; infill extrusion width = 1.20mm
; solid infill extrusion width = 1.20mm
; top infill extrusion width = 1.00mm
; support material extrusion width = 0.87mm
; first layer extrusion width = 1.20mm

; external perimeters extrusion width = 1.20mm
; perimeters extrusion width = 1.20mm
; infill extrusion width = 1.20mm
; solid infill extrusion width = 1.20mm
; top infill extrusion width = 1.00mm
; support material extrusion width = 0.87mm
; first layer extrusion width = 1.20mm

; external perimeters extrusion width = 1.20mm
; perimeters extrusion width = 1.20mm
; infill extrusion width = 1.20mm
; solid infill extrusion width = 1.20mm
; top infill extrusion width = 1.00mm
; support material extrusion width = 0.87mm
; first layer extrusion width = 1.20mm

M106 S255
M104 S200 ; set temperature
;TYPE:Custom
;G28 ; home all axes
G1 Z5 F5000 ; lift nozzle
M109 S200 ; set temperature and wait for it to be reached
G21 ; set units to millimeters
G90 ; use absolute coordinates
M82 ; use absolute distances for extrusion
G92 E0
; Filament gcode
M106 S255
;LAYER_CHANGE
;Z:0.8
;HEIGHT:0.8
G1 Z.8 F4800
G1 E-2 F2400
G92 E0
G1 Z1.8 F4800
G1 X253.684 Y0
G1 Z.8
G1 E2 F2400
;TYPE:Skirt/Brim
;WIDTH:1.2
G1 F600
G1 X253.684 Y-18.397 E8.29223
G1 X253.985 Y-18.698 E8.43791
G1 X265.145 Y-18.698 E12.25455
G1 X265.446 Y-18.397 E12.40023
G1 X265.446 Y-8.562 E15.76424
G1 X274.554 Y-8.562 E18.87953
G1 X274.554 Y-18.397 E22.24354
G1 X274.855 Y-18.698 E22.38922
G1 X286.015 Y-18.698 E26.20588
G1 X286.316 Y-18.397 E26.35156
G1 X286.316 Y7.664 E35.26506
G1 X286.015 Y7.965 E35.41074
G1 X280.954 Y7.965 E37.14151
G1 X280.954 Y13.036 E38.87568
G1 X280.653 Y13.337 E39.02136
G1 X277.835 Y13.337 E39.98526
G1 X276.021 Y13.502 E40.608
G1 X275.939 Y16.744 E41.71744
G1 X275.923 Y16.828 E41.74639
G1 X275.566 Y17.791 E42.09765
G1 X275.461 Y17.921 E42.15495
G1 X274.628 Y18.455 E42.49343
G1 X274.499 Y18.496 E42.53984
G1 X269.99 Y18.698 E44.08338
G1 X264.719 Y18.698 E45.88633
G1 X264.417 Y18.397 E46.03201
G1 X264.417 Y13.337 E47.76278
G1 X259.357 Y13.337 E49.49356
G1 X259.056 Y13.036 E49.63924
G1 X259.056 Y7.965 E51.37341
G1 X253.985 Y7.965 E53.10756
G1 X253.684 Y7.664 E53.25324
G1 X253.684 Y.15 E55.82321
G1 E53.82321 F2400
G92 E0
G1 Z1.8 F4800
G1 X198.698 Y.15
G1 Z.8
G1 E2 F2400
G1 F600
G1 X198.698 Y18.422 E8.24943
G1 X198.397 Y18.723 E8.39511
G1 X187.238 Y18.723 E12.21174
G1 X186.937 Y18.422 E12.35742
G1 X186.937 Y15.871 E13.22987
G1 X186.9 Y14.606 E13.66283
G1 X186.733 Y14.178 E13.82
G1 X186.251 Y13.977 E13.99878
G1 X183.365 Y13.683 E14.99075
G1 X182.394 Y13.282 E15.35023
G1 X182.254 Y13.143 E15.41761
G1 X181.84 Y12.163 E15.78154
G1 X181.555 Y9.277 E16.77339
G1 X181.355 Y8.794 E16.95211
G1 X180.932 Y8.628 E17.10779
G1 X179.704 Y8.592 E17.52773
G1 X178.473 Y8.628 E17.94914
G1 X178.054 Y8.794 E18.10324
G1 X177.853 Y9.277 E18.28236
G1 X177.563 Y12.163 E19.27422
G1 X177.156 Y13.142 E19.6369
G1 X177.015 Y13.282 E19.70499
G1 X176.038 Y13.683 E20.0661
G1 X173.153 Y13.977 E21.05796
G1 X172.67 Y14.178 E21.23673
G1 X172.504 Y14.606 E21.39391
G1 X172.467 Y15.871 E21.82685
G1 X172.467 Y18.422 E22.69931
G1 X172.166 Y18.723 E22.84499
G1 X161.603 Y18.723 E26.45769
G1 X161.302 Y18.422 E26.60338
G1 X161.302 Y-18.372 E39.18784
G1 X161.603 Y-18.674 E39.33352
G1 X172.133 Y-18.674 E42.93523
G1 X172.434 Y-18.378 E43.0793
G1 X172.752 Y1.929 E50.0255
G1 X176.8 Y2.222 E51.41351
G1 X176.8 Y-2.874 E53.15655
G1 X177.101 Y-3.175 E53.30223
G1 X179.665 Y-3.175 E54.17895
G1 X181.086 Y-3.134 E54.66527
G1 X181.174 Y-3.116 E54.69591
G1 X182.027 Y-2.778 E55.00978
G1 X182.175 Y-2.634 E55.08043
G1 X182.568 Y-1.677 E55.4342
G1 X182.852 Y1.207 E56.42544
G1 X183.076 Y1.718 E56.61623
G1 X183.583 Y1.939 E56.80542
G1 X184.952 Y2.079 E57.27613
G1 X186.921 Y2.223 E57.9513
G1 X187.243 Y-18.075 E64.89444
G1 X187.532 Y-18.368 E65.03508
G1 X198.385 Y-18.73 E68.74923
G1 X198.698 Y-18.427 E68.89836
G1 X198.698 Y0 E75.20081
G1 E73.20081 F2400
G92 E0
G1 Z1.8 F4800
G1 X100.649 Y12.61
G1 Z.8
G1 E2 F2400
G1 F600
G1 X100.649 Y18.397 E3.97947
G1 X100.347 Y18.698 E4.12515
G1 X79.653 Y18.698 E11.20317
G1 X79.351 Y18.397 E11.34885
G1 X79.351 Y12.61 E13.32832
G1 X79.653 Y12.308 E13.474
G1 X84.122 Y12.308 E15.00252
G1 X84.122 Y-12.905 E23.62597
G1 X79.653 Y-12.905 E25.1545
G1 X79.351 Y-13.206 E25.30018
G1 X79.351 Y-18.397 E27.0757
G1 X79.653 Y-18.698 E27.22138
G1 X100.347 Y-18.698 E34.2994
G1 X100.649 Y-18.397 E34.44508
G1 X100.649 Y-15.839 E35.32011
G1 X100.607 Y-14.452 E35.79479
G1 X100.287 Y-13.515 E36.13347
G1 X100.153 Y-13.365 E36.2021
G1 X99.358 Y-12.973 E36.5053
G1 X99.274 Y-12.948 E36.53536
G1 X97.958 Y-12.794 E36.98848
G1 X96.176 Y-12.643 E37.60034
G1 X95.865 Y12.308 E46.13484
G1 X100.347 Y12.308 E47.66796
G1 X100.542 Y12.504 E47.76234
G1 E45.76234 F2400
G92 E0
G1 Z1.8 F4800
G1 X16.388 Y13.001
G1 Z.8
G1 E2 F2400
G1 F600
G1 X16.083 Y13.329 E2.1532
G1 X10.937 Y13.329 E3.91322
G1 X10.937 Y18.4 E5.64739
G1 X10.636 Y18.701 E5.79307
G1 X-10.66 Y18.701 E13.07673
G1 X-10.962 Y18.4 E13.22241
G1 X-10.962 Y13.329 E14.95658
G1 X-16.077 Y13.329 E16.70604
G1 X-16.38 Y13.016 E16.85512
G1 X-16.023 Y2.171 E20.56625
G1 X-15.751 Y1.887 E20.70099
G1 X-13.031 Y1.684 E21.63373
G1 X-11.651 Y1.548 E22.10811
G1 X-11.171 Y1.352 E22.28538
G1 X-11.003 Y.915 E22.44542
G1 X-10.962 Y-.341 E22.87546
G1 X-10.962 Y-2.896 E23.74927
G1 X-10.66 Y-3.197 E23.89495
G1 X4.537 Y-3.197 E29.09273
G1 X4.537 Y-12.311 E32.20974
G1 X-4.572 Y-12.311 E35.32504
G1 X-4.572 Y-7.842 E36.85356
G1 X-4.873 Y-7.541 E36.99925
G1 X-16.032 Y-7.541 E40.81588
G1 X-16.333 Y-7.842 E40.96156
G1 X-16.333 Y-13.038 E42.73878
G1 X-16.032 Y-13.339 E42.88446
G1 X-10.962 Y-13.339 E44.61862
G1 X-10.962 Y-18.4 E46.34939
G1 X-10.66 Y-18.701 E46.49507
G1 X10.636 Y-18.701 E53.77873
G1 X10.937 Y-18.4 E53.92441
G1 X10.937 Y-13.339 E55.65518
G1 X15.997 Y-13.339 E57.38595
G1 X16.298 Y-13.038 E57.53164
G1 X16.298 Y-2.47 E61.14604
G1 X15.997 Y-2.169 E61.29172
G1 X10.937 Y-2.169 E63.02249
G1 X10.937 Y2.295 E64.54932
G1 X10.636 Y2.596 E64.695
G1 X-4.572 Y2.596 E69.89618
G1 X-4.572 Y12.301 E73.21543
G1 X4.537 Y12.301 E76.33073
G1 X4.537 Y7.186 E78.08019
G1 X4.85 Y6.883 E78.22927
G1 X15.705 Y7.239 E81.94392
G1 X15.99 Y7.513 E82.07887
G1 X16.377 Y12.852 E83.90971
G1 E81.90971 F2400
G92 E0
G1 Z1.8 F4800
G1 X5.137 Y-13.425
G1 Z.8
G1 E2 F2400
;TYPE:External perimeter
;WIDTH:1.2
G1 F600
G1 X-5.172 Y-13.425 E5.52572
G1 X-5.436 Y-13.352 E5.61934
G1 X-5.613 Y-13.175 E5.70517
G1 X-5.686 Y-12.911 E5.79879
G1 X-5.686 Y-8.655 E7.25447
G1 X-15.219 Y-8.655 E10.515
G1 X-15.219 Y-12.225 E11.73612
G1 X-10.362 Y-12.225 E13.39743
G1 X-10.273 Y-12.233 E13.42793
G1 X-10.052 Y-12.329 E13.51029
G1 X-9.875 Y-12.574 E13.61358
G1 X-9.847 Y-12.739 E13.67104
G1 X-9.847 Y-17.587 E15.32897
G1 X9.823 Y-17.587 E22.05652
G1 X9.83 Y-12.65 E23.74484
G1 X9.918 Y-12.441 E23.82244
G1 X10.121 Y-12.273 E23.91265
G1 X10.337 Y-12.225 E23.98827
G1 X15.184 Y-12.225 E25.6462
G1 X15.184 Y-3.283 E28.7045
G1 X10.337 Y-3.283 E30.36243
G1 X10.121 Y-3.236 E30.43805
G1 X9.918 Y-3.067 E30.52826
G1 X9.823 Y-2.769 E30.63532
G1 X9.823 Y1.482 E32.0893
G1 X-5.172 Y1.482 E37.21764
G1 X-5.26 Y1.49 E37.24814
G1 X-5.483 Y1.587 E37.33122
G1 X-5.658 Y1.83 E37.43355
G1 X-5.686 Y1.996 E37.49128
G1 X-5.686 Y12.901 E41.22095
G1 X-5.613 Y13.166 E41.31485
G1 X-5.435 Y13.343 E41.40069
G1 X-5.172 Y13.415 E41.49402
G1 X5.137 Y13.415 E45.01974
G1 X5.401 Y13.342 E45.11336
G1 X5.578 Y13.165 E45.19919
G1 X5.651 Y12.901 E45.29281
G1 X5.651 Y8.024 E46.96088
G1 X14.932 Y8.329 E50.13678
G1 X15.214 Y12.215 E51.46953
G1 X10.337 Y12.215 E53.13753
G1 X10.068 Y12.291 E53.2332
G1 X9.893 Y12.47 E53.31882
G1 X9.823 Y12.729 E53.41059
G1 X9.823 Y17.587 E55.07192
G1 X-9.847 Y17.587 E61.79947
G1 X-9.847 Y13.353 E63.24757
G1 X-9.875 Y12.563 E63.518
G1 X-9.95 Y12.421 E63.57285
G1 X-10.164 Y12.255 E63.66539
G1 X-10.362 Y12.215 E63.73437
G1 X-15.239 Y12.215 E65.40243
G1 X-14.934 Y2.943 E68.5753
G1 X-12.941 Y2.795 E69.25884
G1 X-11.454 Y2.648 E69.76971
G1 X-11.311 Y2.613 E69.82034
G1 X-10.402 Y2.226 E70.15827
G1 X-10.224 Y1.994 E70.25827
G1 X-9.927 Y1.22 E70.54168
G1 X-9.893 Y1.053 E70.59999
G1 X-9.847 Y-.331 E71.07375
G1 X-9.847 Y-2.083 E71.6729
G1 X5.137 Y-2.083 E76.79784
G1 X5.226 Y-2.091 E76.82834
G1 X5.448 Y-2.188 E76.91115
G1 X5.624 Y-2.433 E77.01432
G1 X5.651 Y-2.597 E77.07145
G1 X5.651 Y-12.911 E80.59888
G1 X5.579 Y-13.174 E80.69222
G1 X5.401 Y-13.352 E80.77805
G1 X5.281 Y-13.385 E80.82065
G1 E78.82065 F2400
G92 E0
G1 Z1.8 F4800
G1 X9.514 Y-15.199
G1 Z.8
G1 E2 F2400
;TYPE:Solid infill
;WIDTH:1.20036
G1 F600
G1 X7.897 Y-16.816 E2.78222
G1 X6.443 Y-16.816 E3.27995
G1 X9.514 Y-13.744 E4.76607
G1 E2.76607 F2400
G92 E0
G1 Z1.8 F4800
G1 X8.88 Y-13.744
G1 X8.88 Y-11.283
G1 X12.796 Y-11.283
G1 X12.796 Y-11.917
G1 Z.8
G1 E2 F2400
G1 F600
G1 X14.413 Y-10.3 E2.78223
G1 X14.413 Y-8.845 E3.27996
G1 X11.342 Y-11.917 E4.76609
G1 E2.76609 F2400
G92 E0
G1 Z1.8 F4800
G1 X14.876 Y-6.928
G1 Z.8
G1 E2 F2400
G1 F600
G1 X4.988 Y-16.816 E6.78429
G1 X3.533 Y-16.816 E7.28202
G1 X14.413 Y-5.936 E12.54631
G1 X14.413 Y-4.481 E13.04404
G1 X6.422 Y-12.472 E16.91043
G1 X6.422 Y-12.929 E17.06675
G1 X6.377 Y-13.258 E17.18059
G1 X6.244 Y-13.569 E17.29623
G1 X6.049 Y-13.819 E17.40469
G1 X5.798 Y-14.016 E17.51366
G1 X5.486 Y-14.15 E17.62999
G1 X5.155 Y-14.196 E17.74457
G1 X4.698 Y-14.196 E17.90093
G1 X2.078 Y-16.816 E19.16823
G1 X.624 Y-16.816 E19.66596
G1 X3.243 Y-14.196 E20.93326
G1 X1.788 Y-14.196 E21.43099
G1 X-.831 Y-16.816 E22.69829
G1 X-2.286 Y-16.816 E23.19603
G1 X.333 Y-14.196 E24.46333
G1 X-1.121 Y-14.196 E24.96106
G1 X-3.741 Y-16.816 E26.22836
G1 X-5.195 Y-16.816 E26.72609
G1 X-2.576 Y-14.196 E27.99339
G1 X-4.031 Y-14.196 E28.49113
G1 X-6.65 Y-16.816 E29.75843
G1 X-8.105 Y-16.816 E30.25616
G1 X-5.45 Y-14.16 E31.54086
G1 X-5.52 Y-14.151 E31.56509
G1 X-5.831 Y-14.017 E31.68108
G1 X-6.082 Y-13.821 E31.7898
G1 X-6.289 Y-13.544 E31.908
G1 X-9.076 Y-16.332 E33.2568
G1 X-9.076 Y-14.877 E33.75454
G1 X-6.457 Y-12.258 E35.02184
G1 X-6.457 Y-10.803 E35.51958
G1 X-9.076 Y-13.423 E36.78688
G1 X-9.076 Y-12.728 E37.02445
G1 X-9.094 Y-12.518 E37.09653
G1 X-9.147 Y-12.315 E37.16838
G1 X-9.242 Y-12.133 E37.23848
G1 X-6.535 Y-9.426 E38.54848
G1 X-7.989 Y-9.426 E39.04621
G1 X-10.057 Y-11.494 E40.04666
G1 X-10.35 Y-11.454 E40.14798
G1 X-11.472 Y-11.454 E40.53169
G1 X-9.444 Y-9.426 E41.51287
G1 X-10.899 Y-9.426 E42.01061
G1 X-12.927 Y-11.454 E42.99179
G1 X-14.381 Y-11.454 E43.48953
G1 X-12.354 Y-9.426 E44.47071
G1 X-13.808 Y-9.426 E44.96844
G1 X-14.91 Y-10.528 E45.50169
G1 E43.50169 F2400
G92 E0
G1 Z1.8 F4800
G1 X-14.276 Y-10.557
G1 X-6.628 Y-9.597
G1 X-6.628 Y-14.368
G1 X6.594 Y-14.368
G1 X6.594 Y-11.48
G1 X5.96 Y-11.48
G1 Z.8
G1 E2 F2400
G1 F600
G1 X13.385 Y-4.054 E5.59285
G1 X11.93 Y-4.054 E6.09048
G1 X6.422 Y-9.562 E8.75567
G1 X6.422 Y-8.107 E9.2534
G1 X10.476 Y-4.054 E11.21484
G1 X10.276 Y-4.054 E11.28315
G1 X10.051 Y-4.024 E11.36102
G1 X9.794 Y-3.936 E11.45369
G1 X9.529 Y-3.772 E11.56062
G1 X9.419 Y-3.656 E11.61518
G1 X6.422 Y-6.653 E13.06532
G1 X6.422 Y-5.198 E13.56305
G1 X9.051 Y-2.569 E14.83517
G1 X9.051 Y-1.114 E15.33291
G1 X6.422 Y-3.743 E16.60503
G1 X6.422 Y-2.586 E17.00082
G1 X6.39 Y-2.321 E17.09232
G1 X9.051 Y.341 E18.38016
G1 X9.051 Y.711 E18.50676
G1 X7.967 Y.711 E18.8779
G1 X5.765 Y-1.49 E19.94298
G1 X5.567 Y-1.385 E20.01977
G1 X5.358 Y-1.33 E20.09373
G1 X5.148 Y-1.312 E20.16592
G1 X4.489 Y-1.312 E20.3914
G1 X6.512 Y.711 E21.37019
G1 X5.057 Y.711 E21.86792
G1 X3.034 Y-1.312 E22.8467
G1 X1.579 Y-1.312 E23.34443
G1 X3.602 Y.711 E24.32322
G1 X2.148 Y.711 E24.82095
G1 X.125 Y-1.312 E25.79973
G1 X-1.33 Y-1.312 E26.29746
G1 X.693 Y.711 E27.27625
G1 X-.762 Y.711 E27.77398
G1 X-2.785 Y-1.312 E28.75276
G1 X-4.24 Y-1.312 E29.2505
G1 X-2.217 Y.711 E30.22928
G1 X-3.672 Y.711 E30.72701
G1 X-5.694 Y-1.312 E31.70579
G1 X-7.149 Y-1.312 E32.20353
G1 X-5.126 Y.711 E33.18231
G1 X-5.393 Y.729 E33.2738
G1 X-5.603 Y.784 E33.34811
G1 X-5.95 Y.97 E33.48288
G1 X-6.135 Y1.157 E33.57278
G1 X-8.604 Y-1.312 E34.76756
G1 X-9.076 Y-1.312 E34.92918
G1 X-9.077 Y-.33 E35.26514
G1 X-6.457 Y2.29 E36.53271
G1 X-6.457 Y3.744 E37.03045
G1 X-9.124 Y1.077 E38.32086
G1 X-9.127 Y1.166 E38.35134
G1 X-9.199 Y1.476 E38.46021
G1 X-9.471 Y2.185 E38.71995
G1 X-6.457 Y5.199 E40.17826
G1 X-6.457 Y6.654 E40.676
G1 X-10.148 Y2.963 E42.46191
G1 X-11.187 Y3.379 E42.84474
G1 X-6.457 Y8.109 E45.13323
G1 X-6.457 Y9.563 E45.63096
G1 X-12.496 Y3.524 E48.55309
G1 X-13.84 Y3.635 E49.01448
G1 X-5.994 Y11.481 E52.8108
G1 E50.8108 F2400
G92 E0
G1 Z1.8 F4800
G1 X-6.628 Y11.481
G1 X-6.628 Y14.358
G1 X6.594 Y14.358
G1 X10.223 Y9.12
G1 X14.133 Y10.348
G1 X14.141 Y10.463
G1 X14.775 Y10.428
G1 Z.8
G1 E2 F2400
G1 F600
G1 X13.396 Y9.05 E2.66702
G1 X11.892 Y9.001 E3.18193
G1 X14.335 Y11.444 E4.36421
G1 X12.881 Y11.444 E4.86194
G1 X10.388 Y8.951 E6.06812
G1 X8.884 Y8.902 E6.58303
G1 X11.426 Y11.444 E7.81311
G1 X10.319 Y11.444 E8.19196
G1 X10.014 Y11.487 E8.29713
G1 X7.38 Y8.852 E9.57198
G1 X6.422 Y8.821 E9.89968
G1 X6.422 Y9.35 E10.08064
G1 X9.203 Y12.131 E11.42631
G1 X9.095 Y12.388 E11.52178
G1 X9.051 Y12.712 E11.63362
G1 X9.051 Y13.434 E11.88052
G1 X6.422 Y10.805 E13.15264
G1 X6.422 Y12.259 E13.65037
G1 X9.051 Y14.888 E14.92249
G1 X9.051 Y16.343 E15.42023
G1 X6.25 Y13.542 E16.77548
G1 X6.047 Y13.811 E16.89084
G1 X5.797 Y14.007 E16.99956
G1 X5.485 Y14.141 E17.11555
G1 X5.405 Y14.152 E17.14318
G1 X8.069 Y16.816 E18.43203
G1 X6.614 Y16.816 E18.92977
G1 X3.985 Y14.186 E20.20188
G1 X2.53 Y14.186 E20.69961
G1 X5.159 Y16.816 E21.97172
G1 X3.705 Y16.816 E22.46945
G1 X1.076 Y14.186 E23.74156
G1 X-.379 Y14.186 E24.23929
G1 X2.25 Y16.816 E25.5114
G1 X.795 Y16.816 E26.00913
G1 X-1.834 Y14.186 E27.28124
G1 X-3.289 Y14.186 E27.77898
G1 X-.66 Y16.816 E29.05109
G1 X-2.114 Y16.816 E29.54882
G1 X-4.744 Y14.186 E30.82093
G1 X-5.189 Y14.186 E30.97342
G1 X-5.519 Y14.141 E31.08726
G1 X-5.829 Y14.008 E31.2029
G1 X-6.08 Y13.813 E31.31136
G1 X-6.276 Y13.563 E31.42033
G1 X-6.407 Y13.261 E31.5328
G1 X-6.457 Y12.912 E31.65332
G1 X-6.457 Y12.473 E31.80361
G1 X-14.22 Y4.71 E35.55993
G1 X-14.267 Y6.118 E36.04208
G1 X-3.569 Y16.816 E41.21809
G1 X-5.024 Y16.816 E41.71582
G1 X-14.313 Y7.527 E46.21034
G1 X-14.359 Y8.935 E46.69249
G1 X-11.85 Y11.444 E47.90645
G1 X-13.305 Y11.444 E48.40418
G1 X-14.854 Y9.895 E49.15353
G1 E47.15353 F2400
G92 E0
G1 Z1.8 F4800
G1 X-14.233 Y10.316
G1 X-8.905 Y11.273
G1 X-8.905 Y13.755
G1 X-9.539 Y13.755
G1 Z.8
G1 E2 F2400
G1 F600
G1 X-6.479 Y16.816 E3.4807
G1 X-7.934 Y16.816 E3.97843
G1 X-9.539 Y15.21 E4.75523
;LAYER_CHANGE
;Z:1.6
;HEIGHT:0.8
G1 Z1.6 F4800
G1 E2.75523 F2400
G92 E0
G1 Z2.6 F4800
G1 X-5.483 Y1.587
G1 Z1.6
G1 E2 F2400
;TYPE:External perimeter
;WIDTH:1.2
G1 F600
G1 X-5.658 Y1.83 E2.10233
G1 X-5.686 Y1.996 E2.16005
G1 X-5.686 Y12.901 E5.88973
G1 X-5.613 Y13.166 E5.98363
G1 X-5.435 Y13.343 E6.06946
G1 X-5.172 Y13.415 E6.1628
G1 X5.137 Y13.415 E9.68852
G1 X5.401 Y13.342 E9.78214
G1 X5.578 Y13.165 E9.86797
G1 X5.651 Y12.901 E9.96159
G1 X5.651 Y8.024 E11.62966
G1 X14.932 Y8.329 E14.80556
G1 X15.214 Y12.215 E16.13831
G1 X10.337 Y12.215 E17.8063
G1 X10.068 Y12.291 E17.90197
G1 X9.893 Y12.47 E17.98759
G1 X9.823 Y12.729 E18.07937
G1 X9.823 Y17.587 E19.74069
G1 X-9.847 Y17.587 E26.46825
G1 X-9.847 Y13.353 E27.91634
G1 X-9.875 Y12.563 E28.18677
G1 X-9.95 Y12.421 E28.24163
G1 X-10.164 Y12.255 E28.33417
G1 X-10.362 Y12.215 E28.40314
G1 X-15.239 Y12.215 E30.07121
G1 X-14.934 Y2.943 E33.24408
G1 X-12.941 Y2.795 E33.92762
G1 X-11.454 Y2.648 E34.43848
G1 X-11.311 Y2.613 E34.48912
G1 X-10.402 Y2.226 E34.82704
G1 X-10.224 Y1.994 E34.92705
G1 X-9.927 Y1.22 E35.21045
G1 X-9.893 Y1.053 E35.26877
G1 X-9.847 Y-.331 E35.74253
