; generated by PrusaSlicer 2.5.2+win64 on 2023-05-06 at 00:45:06 UTC

; 

; external perimeters extrusion width = 1.20mm
; perimeters extrusion width = 1.20mm
; infill extrusion width = 1.20mm
; solid infill extrusion width = 1.20mm
; top infill extrusion width = 1.00mm
; support material extrusion width = 0.87mm
; first layer extrusion width = 1.20mm

; external perimeters extrusion width = 1.20mm
; perimeters extrusion width = 1.20mm
; infill extrusion width = 1.20mm
; solid infill extrusion width = 1.20mm
; top infill extrusion width = 1.00mm
; support material extrusion width = 0.87mm
; first layer extrusion width = 1.20mm

M106 S255
M104 S200 ; set temperature
;TYPE:Custom
;G28 ; home all axes
G1 Z5 F5000 ; lift nozzle
M109 S200 ; set temperature and wait for it to be reached
G21 ; set units to millimeters
G90 ; use absolute coordinates
M82 ; use absolute distances for extrusion
G92 E0
; Filament gcode
M106 S255
;LAYER_CHANGE
;Z:0.8
;HEIGHT:0.8
G1 Z.8 F4800
G1 E-2 F2400
G92 E0
G1 Z1.8 F4800
G1 X0 Y18.571
G1 Z.8
G1 E2 F2400
;TYPE:Skirt/Brim
;WIDTH:1.2
G1 F600
G1 X-24.681 Y18.571 E10.44144
G1 X-24.78 Y18.551 E10.47608
G1 X-25.252 Y18.356 E10.65064
G1 X-25.336 Y18.299 E10.68528
G1 X-26.299 Y17.336 E11.1512
G1 X-26.356 Y17.252 E11.18584
G1 X-26.551 Y16.78 E11.3604
G1 X-26.571 Y16.681 E11.39504
G1 X-26.571 Y-16.681 E22.8056
G1 X-26.551 Y-16.78 E22.84024
G1 X-26.356 Y-17.252 E23.0148
G1 X-26.299 Y-17.336 E23.04944
G1 X-25.336 Y-18.299 E23.51536
G1 X-25.252 Y-18.356 E23.55
G1 X-24.78 Y-18.551 E23.72456
G1 X-24.681 Y-18.571 E23.75919
G1 X24.681 Y-18.571 E40.64208
G1 X24.78 Y-18.551 E40.67672
G1 X25.252 Y-18.356 E40.85128
G1 X25.336 Y-18.299 E40.88592
G1 X26.299 Y-17.336 E41.35184
G1 X26.356 Y-17.252 E41.38648
G1 X26.551 Y-16.78 E41.56103
G1 X26.571 Y-16.681 E41.59567
G1 X26.571 Y16.681 E53.00624
G1 X26.551 Y16.78 E53.04088
G1 X26.356 Y17.252 E53.21543
G1 X26.299 Y17.336 E53.25008
G1 X25.336 Y18.299 E53.71599
G1 X25.252 Y18.356 E53.75063
G1 X24.78 Y18.551 E53.92519
G1 X24.681 Y18.571 E53.95983
G1 X.15 Y18.571 E62.34997
G1 X.15 Y17.542 F4800
G1 F600
G1 X-24.528 Y17.542 E70.79042
G1 X-24.717 Y17.464 E70.86038
G1 X-25.464 Y16.717 E71.2217
G1 X-25.542 Y16.528 E71.29166
G1 X-25.542 Y-16.528 E82.59762
G1 X-25.464 Y-16.717 E82.66758
G1 X-24.717 Y-17.464 E83.0289
G1 X-24.528 Y-17.542 E83.09886
G1 X24.528 Y-17.542 E99.87715
G1 X24.717 Y-17.464 E99.94711
G1 X25.464 Y-16.717 E100.30843
G1 X25.542 Y-16.528 E100.37839
G1 X25.542 Y16.528 E111.68435
G1 X25.464 Y16.717 E111.75431
G1 X24.717 Y17.464 E112.11563
G1 X24.528 Y17.542 E112.18559
G1 X.3 Y17.542 E120.47213
G1 X.3 Y16.514 F4800
G1 F600
G1 X-24.213 Y16.514 E128.85606
G1 X-24.514 Y16.213 E129.00174
G1 X-24.514 Y-16.213 E140.09206
G1 X-24.213 Y-16.514 E140.23774
G1 X24.213 Y-16.514 E156.80039
G1 X24.514 Y-16.213 E156.94607
G1 X24.514 Y16.213 E168.0364
G1 X24.213 Y16.514 E168.18208
G1 X.45 Y16.514 E176.3095
G1 E174.3095 F2400
G92 E0
G1 Z1.8 F4800
G1 X23.4 Y15.4
G1 Z.8
G1 E2 F2400
;TYPE:External perimeter
;WIDTH:1.2
G1 F600
G1 X-23.4 Y15.4 E18.00654
G1 X-23.4 Y-15.4 E28.54075
G1 X23.4 Y-15.4 E44.54729
G1 X23.4 Y15.25 E55.0302
G1 E53.0302 F2400
G92 E0
G1 Z1.8 F4800
G1 X20.985 Y-15.092
G1 Z.8
G1 E2 F2400
;TYPE:Solid infill
;WIDTH:1.21292
G1 F600
G1 X22.629 Y-13.448 E2.80483
G1 X22.629 Y-11.976 E3.31479
G1 X19.976 Y-14.629 E4.61419
G1 X18.503 Y-14.629 E5.12415
G1 X22.629 Y-10.503 E7.14474
G1 X22.629 Y-9.031 E7.6547
G1 X17.031 Y-14.629 E10.39649
G1 X15.558 Y-14.629 E10.90645
G1 X22.629 Y-7.558 E14.36944
G1 X22.629 Y-6.086 E14.8794
G1 X14.086 Y-14.629 E19.06358
G1 X12.613 Y-14.629 E19.57354
G1 X22.629 Y-4.613 E24.47892
G1 X22.629 Y-3.14 E24.98888
G1 X11.14 Y-14.629 E30.61546
G1 X9.668 Y-14.629 E31.12542
G1 X22.629 Y-1.668 E37.47319
G1 X22.629 Y-.195 E37.98316
G1 X8.195 Y-14.629 E45.05213
G1 X6.723 Y-14.629 E45.56209
G1 X22.629 Y1.277 E53.35226
G1 X22.629 Y2.75 E53.86222
G1 X5.25 Y-14.629 E62.37358
G1 X3.778 Y-14.629 E62.88355
G1 X22.629 Y4.222 E72.11611
G1 X22.629 Y5.695 E72.62607
G1 X2.305 Y-14.629 E82.57983
G1 X.833 Y-14.629 E83.08979
G1 X22.629 Y7.167 E93.76474
G1 X22.629 Y8.64 E94.27471
G1 X-.64 Y-14.629 E105.67086
G1 X-2.112 Y-14.629 E106.18082
G1 X22.629 Y10.112 E118.29817
G1 X22.629 Y11.585 E118.80813
G1 X-3.585 Y-14.629 E131.64668
G1 X-5.057 Y-14.629 E132.15664
G1 X22.629 Y13.057 E145.71638
G1 X22.629 Y14.53 E146.22635
G1 X-6.53 Y-14.629 E160.50729
G1 X-8.002 Y-14.629 E161.01725
G1 X21.255 Y14.629 E175.34661
G1 X19.783 Y14.629 E175.85657
G1 X-9.475 Y-14.629 E190.18594
G1 X-10.948 Y-14.629 E190.6959
G1 X18.31 Y14.629 E205.02526
G1 X16.838 Y14.629 E205.53522
G1 X-12.42 Y-14.629 E219.86458
G1 X-13.893 Y-14.629 E220.37455
G1 X15.365 Y14.629 E234.70391
G1 X13.892 Y14.629 E235.21387
G1 X-15.365 Y-14.629 E249.54323
G1 X-16.838 Y-14.629 E250.05319
G1 X12.42 Y14.629 E264.38256
G1 X10.947 Y14.629 E264.89252
G1 X-18.31 Y-14.629 E279.22188
G1 X-19.783 Y-14.629 E279.73184
G1 X9.475 Y14.629 E294.0612
G1 X8.002 Y14.629 E294.57117
G1 X-21.255 Y-14.629 E308.90053
G1 X-22.629 Y-14.629 E309.37621
G1 X-22.629 Y-14.53 E309.41049
G1 X6.53 Y14.629 E323.69137
G1 X5.057 Y14.629 E324.20133
G1 X-22.629 Y-13.057 E337.76101
G1 X-22.629 Y-11.585 E338.27097
G1 X3.585 Y14.629 E351.10945
G1 X2.112 Y14.629 E351.61941
G1 X-22.629 Y-10.112 E363.7367
G1 X-22.629 Y-8.64 E364.24666
G1 X.64 Y14.629 E375.64275
G1 X-.833 Y14.629 E376.15271
G1 X-22.629 Y-7.167 E386.8276
G1 X-22.629 Y-5.695 E387.33756
G1 X-2.305 Y14.629 E397.29125
G1 X-3.778 Y14.629 E397.80122
G1 X-22.629 Y-4.222 E407.03371
G1 X-22.629 Y-2.75 E407.54368
G1 X-5.25 Y14.629 E416.05497
G1 X-6.723 Y14.629 E416.56494
G1 X-22.629 Y-1.277 E424.35504
G1 X-22.629 Y.196 E424.865
G1 X-8.196 Y14.629 E431.93391
G1 X-9.668 Y14.629 E432.44387
G1 X-22.629 Y1.668 E438.79158
G1 X-22.629 Y3.141 E439.30154
G1 X-11.141 Y14.629 E444.92805
G1 X-12.613 Y14.629 E445.43801
G1 X-22.629 Y4.613 E450.34332
G1 X-22.629 Y6.086 E450.85329
G1 X-14.086 Y14.629 E455.0374
G1 X-15.558 Y14.629 E455.54737
G1 X-22.629 Y7.558 E459.01028
G1 X-22.629 Y9.031 E459.52025
G1 X-17.031 Y14.629 E462.26197
G1 X-18.503 Y14.629 E462.77193
G1 X-22.629 Y10.503 E464.79246
G1 X-22.629 Y11.976 E465.30242
G1 X-19.976 Y14.629 E466.60175
G1 X-21.448 Y14.629 E467.11171
G1 X-23.092 Y12.986 E467.91648
;LAYER_CHANGE
;Z:1.6
;HEIGHT:0.8
G1 Z1.6 F4800
G1 E465.91648 F2400
G92 E0
G1 Z2.6 F4800
G1 X23.4 Y15.4
G1 Z1.6
G1 E2 F2400
;TYPE:External perimeter
;WIDTH:1.2
G1 F600
G1 X-23.4 Y15.4 E18.00654
G1 X-23.4 Y-15.4 E28.54075
G1 X23.4 Y-15.4 E44.54729
G1 X23.4 Y15.25 E55.0302
G1 E53.0302 F2400
G92 E0
G1 Z2.6 F4800
G1 X23.092 Y12.985
G1 Z1.6
G1 E2 F2400
;TYPE:Solid infill
;WIDTH:1.21292
G1 F600
G1 X21.448 Y14.629 E2.80483
G1 X19.976 Y14.629 E3.31479
G1 X22.629 Y11.976 E4.61419
G1 X22.629 Y10.503 E5.12415
G1 X18.503 Y14.629 E7.14474
G1 X17.031 Y14.629 E7.6547
G1 X22.629 Y9.031 E10.39649
G1 X22.629 Y7.558 E10.90645
G1 X15.558 Y14.629 E14.36944
G1 X14.086 Y14.629 E14.8794
G1 X22.629 Y6.086 E19.06358
G1 X22.629 Y4.613 E19.57354
G1 X12.613 Y14.629 E24.47892
G1 X11.14 Y14.629 E24.98888
G1 X22.629 Y3.14 E30.61546
G1 X22.629 Y1.668 E31.12542
G1 X9.668 Y14.629 E37.47319
G1 X8.195 Y14.629 E37.98316
G1 X22.629 Y.195 E45.05213
G1 X22.629 Y-1.277 E45.56209
G1 X6.723 Y14.629 E53.35226
G1 X5.25 Y14.629 E53.86222
G1 X22.629 Y-2.75 E62.37358
G1 X22.629 Y-4.222 E62.88355
G1 X3.778 Y14.629 E72.11611
G1 X2.305 Y14.629 E72.62607
G1 X22.629 Y-5.695 E82.57983
G1 X22.629 Y-7.167 E83.08979
G1 X.833 Y14.629 E93.76474
G1 X-.64 Y14.629 E94.27471
G1 X22.629 Y-8.64 E105.67086
G1 X22.629 Y-10.112 E106.18082
G1 X-2.112 Y14.629 E118.29817
G1 X-3.585 Y14.629 E118.80813
G1 X22.629 Y-11.585 E131.64668
G1 X22.629 Y-13.057 E132.15664
G1 X-5.057 Y14.629 E145.71638
G1 X-6.53 Y14.629 E146.22635
G1 X22.629 Y-14.53 E160.50729
G1 X22.629 Y-14.629 E160.54153
G1 X21.255 Y-14.629 E161.01725
G1 X-8.002 Y14.629 E175.34661
G1 X-9.475 Y14.629 E175.85658
G1 X19.783 Y-14.629 E190.18594
G1 X18.31 Y-14.629 E190.6959
G1 X-10.948 Y14.629 E205.02527
G1 X-12.42 Y14.629 E205.53523
G1 X16.838 Y-14.629 E219.86459
G1 X15.365 Y-14.629 E220.37456
G1 X-13.893 Y14.629 E234.70392
G1 X-15.365 Y14.629 E235.21388
G1 X13.892 Y-14.629 E249.54324
G1 X12.42 Y-14.629 E250.05321
G1 X-16.838 Y14.629 E264.38257
G1 X-18.31 Y14.629 E264.89253
G1 X10.947 Y-14.629 E279.2219
G1 X9.475 Y-14.629 E279.73186
G1 X-19.783 Y14.629 E294.06122
G1 X-21.255 Y14.629 E294.57118
G1 X8.002 Y-14.629 E308.90055
G1 X6.53 Y-14.629 E309.41051
G1 X-22.629 Y14.53 E323.69138
G1 X-22.629 Y13.057 E324.20135
G1 X5.057 Y-14.629 E337.76102
G1 X3.585 Y-14.629 E338.27099
G1 X-22.629 Y11.585 E351.10947
G1 X-22.629 Y10.112 E351.61943
G1 X2.112 Y-14.629 E363.73671
G1 X.64 Y-14.629 E364.24667
G1 X-22.629 Y8.64 E375.64276
G1 X-22.629 Y7.167 E376.15272
G1 X-.833 Y-14.629 E386.82761
G1 X-2.305 Y-14.629 E387.33757
G1 X-22.629 Y5.695 E397.29126
G1 X-22.629 Y4.222 E397.80123
G1 X-3.778 Y-14.629 E407.03372
G1 X-5.25 Y-14.629 E407.54368
G1 X-22.629 Y2.75 E416.05498
G1 X-22.629 Y1.277 E416.56494
G1 X-6.723 Y-14.629 E424.35504
G1 X-8.196 Y-14.629 E424.86501
G1 X-22.629 Y-.196 E431.93391
G1 X-22.629 Y-1.668 E432.44387
G1 X-9.668 Y-14.629 E438.79158
G1 X-11.141 Y-14.629 E439.30154
G1 X-22.629 Y-3.141 E444.92805
G1 X-22.629 Y-4.613 E445.43801
G1 X-12.613 Y-14.629 E450.34332
G1 X-14.086 Y-14.629 E450.85329
G1 X-22.629 Y-6.086 E455.0374
G1 X-22.629 Y-7.558 E455.54737
G1 X-15.558 Y-14.629 E459.01028
G1 X-17.031 Y-14.629 E459.52025
G1 X-22.629 Y-9.031 E462.26197
G1 X-22.629 Y-10.503 E462.77193
G1 X-18.503 Y-14.629 E464.79245
G1 X-19.976 Y-14.629 E465.30242
G1 X-22.629 Y-11.976 E466.60174
G1 X-22.629 Y-13.448 E467.1117
G1 X-20.986 Y-15.092 E467.91647
;LAYER_CHANGE
;Z:2.4
;HEIGHT:0.8
G1 Z2.4 F4800
G1 E465.91647 F2400
G92 E0
G1 Z3.4 F4800
G1 X23.4 Y-15.4
G1 Z2.4
G1 E2 F2400
;TYPE:External perimeter
;WIDTH:1.2
G1 F600
G1 X23.4 Y15.4 E12.53422
G1 X-23.4 Y15.4 E28.54075
G1 X-23.4 Y-15.4 E39.07497
G1 X23.25 Y-15.4 E55.0302
G1 E53.0302 F2400
G92 E0
G1 Z3.4 F4800
G1 X20.985 Y-15.092
G1 Z2.4
G1 E2 F2400
;TYPE:Solid infill
;WIDTH:1.21292
G1 F600
G1 X22.629 Y-13.448 E2.80483
G1 X22.629 Y-11.976 E3.31479
G1 X19.976 Y-14.629 E4.61419
G1 X18.503 Y-14.629 E5.12415
G1 X22.629 Y-10.503 E7.14474
G1 X22.629 Y-9.031 E7.6547
G1 X17.031 Y-14.629 E10.39649
G1 X15.558 Y-14.629 E10.90645
G1 X22.629 Y-7.558 E14.36944
G1 X22.629 Y-6.086 E14.8794
G1 X14.086 Y-14.629 E19.06358
G1 X12.613 Y-14.629 E19.57354
G1 X22.629 Y-4.613 E24.47892
G1 X22.629 Y-3.14 E24.98888
G1 X11.14 Y-14.629 E30.61546
G1 X9.668 Y-14.629 E31.12542
G1 X22.629 Y-1.668 E37.47319
G1 X22.629 Y-.195 E37.98316
G1 X8.195 Y-14.629 E45.05213
G1 X6.723 Y-14.629 E45.56209
G1 X22.629 Y1.277 E53.35226
G1 X22.629 Y2.75 E53.86222
G1 X5.25 Y-14.629 E62.37358
G1 X3.778 Y-14.629 E62.88355
G1 X22.629 Y4.222 E72.11611
G1 X22.629 Y5.695 E72.62607
G1 X2.305 Y-14.629 E82.57983
G1 X.833 Y-14.629 E83.08979
G1 X22.629 Y7.167 E93.76474
G1 X22.629 Y8.64 E94.27471
G1 X-.64 Y-14.629 E105.67086
G1 X-2.112 Y-14.629 E106.18082
G1 X22.629 Y10.112 E118.29817
G1 X22.629 Y11.585 E118.80813
G1 X-3.585 Y-14.629 E131.64668
G1 X-5.057 Y-14.629 E132.15664
G1 X22.629 Y13.057 E145.71638
G1 X22.629 Y14.53 E146.22635
G1 X-6.53 Y-14.629 E160.50729
G1 X-8.002 Y-14.629 E161.01725
G1 X21.255 Y14.629 E175.34661
G1 X19.783 Y14.629 E175.85657
G1 X-9.475 Y-14.629 E190.18594
G1 X-10.948 Y-14.629 E190.6959
G1 X18.31 Y14.629 E205.02526
G1 X16.838 Y14.629 E205.53522
G1 X-12.42 Y-14.629 E219.86458
G1 X-13.893 Y-14.629 E220.37455
G1 X15.365 Y14.629 E234.70391
G1 X13.892 Y14.629 E235.21387
G1 X-15.365 Y-14.629 E249.54323
G1 X-16.838 Y-14.629 E250.05319
G1 X12.42 Y14.629 E264.38256
G1 X10.947 Y14.629 E264.89252
G1 X-18.31 Y-14.629 E279.22188
G1 X-19.783 Y-14.629 E279.73184
G1 X9.475 Y14.629 E294.0612
G1 X8.002 Y14.629 E294.57117
G1 X-21.255 Y-14.629 E308.90053
G1 X-22.629 Y-14.629 E309.37621
G1 X-22.629 Y-14.53 E309.41049
G1 X6.53 Y14.629 E323.69137
G1 X5.057 Y14.629 E324.20133
G1 X-22.629 Y-13.057 E337.76101
G1 X-22.629 Y-11.585 E338.27097
G1 X3.585 Y14.629 E351.10945
G1 X2.112 Y14.629 E351.61941
G1 X-22.629 Y-10.112 E363.7367
G1 X-22.629 Y-8.64 E364.24666
G1 X.64 Y14.629 E375.64275
G1 X-.833 Y14.629 E376.15271
G1 X-22.629 Y-7.167 E386.8276
G1 X-22.629 Y-5.695 E387.33756
G1 X-2.305 Y14.629 E397.29125
G1 X-3.778 Y14.629 E397.80122
G1 X-22.629 Y-4.222 E407.03371
G1 X-22.629 Y-2.75 E407.54368
G1 X-5.25 Y14.629 E416.05497
G1 X-6.723 Y14.629 E416.56494
G1 X-22.629 Y-1.277 E424.35504
G1 X-22.629 Y.196 E424.865
G1 X-8.196 Y14.629 E431.93391
G1 X-9.668 Y14.629 E432.44387
G1 X-22.629 Y1.668 E438.79158
G1 X-22.629 Y3.141 E439.30154
G1 X-11.141 Y14.629 E444.92805
G1 X-12.613 Y14.629 E445.43801
G1 X-22.629 Y4.613 E450.34332
G1 X-22.629 Y6.086 E450.85329
G1 X-14.086 Y14.629 E455.0374
G1 X-15.558 Y14.629 E455.54737
G1 X-22.629 Y7.558 E459.01028
G1 X-22.629 Y9.031 E459.52025
G1 X-17.031 Y14.629 E462.26197
G1 X-18.503 Y14.629 E462.77193
G1 X-22.629 Y10.503 E464.79246
G1 X-22.629 Y11.976 E465.30242
G1 X-19.976 Y14.629 E466.60175
G1 X-21.448 Y14.629 E467.11171
G1 X-23.092 Y12.986 E467.91648
M106 S89.25
;LAYER_CHANGE
;Z:3.2
;HEIGHT:0.8
G1 Z3.2 F4800
G1 E465.91648 F2400
G92 E0
G1 Z4.2 F4800
G1 X23.4 Y15.4
G1 Z3.2
G1 E2 F2400
;TYPE:External perimeter
;WIDTH:1.2
G1 F600
G1 X-23.4 Y15.4 E18.00654
G1 X-23.4 Y-15.4 E28.54075
G1 X23.4 Y-15.4 E44.54729
G1 X23.4 Y15.25 E55.0302
G1 X23.102 Y13.417 F4800
;TYPE:Top solid infill
;WIDTH:1.00467
G1 F600
G1 X21.79 Y14.729 E55.54408
G1 X20.612 Y14.729 E55.87045
G1 X22.729 Y12.612 E56.69985
G1 X22.729 Y11.434 E57.02622
G1 X19.434 Y14.729 E58.31719
G1 X18.256 Y14.729 E58.64356
G1 X22.729 Y10.256 E60.39609
G1 X22.729 Y9.078 E60.72247
G1 X17.078 Y14.729 E62.93656
G1 X15.9 Y14.729 E63.26294
G1 X22.729 Y7.9 E65.93859
G1 X22.729 Y6.722 E66.26497
G1 X14.722 Y14.729 E69.40219
G1 X13.544 Y14.729 E69.72857
G1 X22.729 Y5.544 E73.32736
G1 X22.729 Y4.366 E73.65374
G1 X12.366 Y14.729 E77.71409
G1 X11.188 Y14.729 E78.04047
G1 X22.729 Y3.188 E82.56239
G1 X22.729 Y2.01 E82.88877
G1 X10.01 Y14.729 E87.87226
G1 X8.832 Y14.729 E88.19863
G1 X22.729 Y.832 E93.64369
G1 X22.729 Y-.346 E93.97006
G1 X7.654 Y14.729 E99.87668
G1 X6.476 Y14.729 E100.20306
G1 X22.729 Y-1.524 E106.57124
G1 X22.729 Y-2.702 E106.89762
G1 X5.298 Y14.729 E113.72737
G1 X4.12 Y14.729 E114.05374
G1 X22.729 Y-3.88 E121.34506
G1 X22.729 Y-5.058 E121.67144
G1 X2.942 Y14.729 E129.42432
G1 X1.764 Y14.729 E129.7507
G1 X22.729 Y-6.236 E137.96514
G1 X22.729 Y-7.414 E138.29152
G1 X.586 Y14.729 E146.96753
G1 X-.593 Y14.729 E147.29391
G1 X22.729 Y-8.593 E156.43149
G1 X22.729 Y-9.771 E156.75786
G1 X-1.771 Y14.729 E166.35701
G1 X-2.949 Y14.729 E166.68338
G1 X22.729 Y-10.949 E176.7441
G1 X22.729 Y-12.127 E177.07047
G1 X-4.127 Y14.729 E187.59275
G1 X-5.305 Y14.729 E187.91912
G1 X22.729 Y-13.305 E198.90297
G1 X22.729 Y-14.483 E199.22934
G1 X-6.483 Y14.729 E210.67475
G1 X-7.661 Y14.729 E211.00113
G1 X21.797 Y-14.729 E222.54297
G1 X20.619 Y-14.729 E222.86935
G1 X-8.839 Y14.729 E234.4112
G1 X-10.017 Y14.729 E234.73757
G1 X19.441 Y-14.729 E246.27942
G1 X18.263 Y-14.729 E246.6058
G1 X-11.195 Y14.729 E258.14765
G1 X-12.373 Y14.729 E258.47402
G1 X17.085 Y-14.729 E270.01587
G1 X15.907 Y-14.729 E270.34225
G1 X-13.551 Y14.729 E281.88409
G1 X-14.729 Y14.729 E282.21047
G1 X14.729 Y-14.729 E293.75232
G1 X13.551 Y-14.729 E294.07869
G1 X-15.907 Y14.729 E305.62054
G1 X-17.085 Y14.729 E305.94692
G1 X12.373 Y-14.729 E317.48876
G1 X11.195 Y-14.729 E317.81514
G1 X-18.263 Y14.729 E329.35699
G1 X-19.441 Y14.729 E329.68336
G1 X10.017 Y-14.729 E341.22521
G1 X8.839 Y-14.729 E341.55159
G1 X-20.619 Y14.729 E353.09343
G1 X-21.797 Y14.729 E353.41981
G1 X7.661 Y-14.729 E364.96166
G1 X6.483 Y-14.729 E365.28803
G1 X-22.729 Y14.483 E376.7334
G1 X-22.729 Y13.305 E377.05978
G1 X5.305 Y-14.729 E388.04358
G1 X4.126 Y-14.729 E388.36996
G1 X-22.729 Y12.126 E398.8922
G1 X-22.729 Y10.948 E399.21857
G1 X2.948 Y-14.729 E409.27925
G1 X1.77 Y-14.729 E409.60562
G1 X-22.729 Y9.77 E419.20473
G1 X-22.729 Y8.592 E419.5311
G1 X.592 Y-14.729 E428.66864
G1 X-.586 Y-14.729 E428.99502
G1 X-22.729 Y7.414 E437.67099
G1 X-22.729 Y6.236 E437.99737
