; generated by PrusaSlicer 2.5.2+win64 on 2023-05-11 at 18:21:23 UTC

; 

; external perimeters extrusion width = 0.45mm
; perimeters extrusion width = 0.45mm
; infill extrusion width = 0.45mm
; solid infill extrusion width = 0.45mm
; top infill extrusion width = 0.40mm
; first layer extrusion width = 0.70mm

M106 S255
M104 S200 ; set temperature
;TYPE:Custom
;G28 ; home all axes
G1 Z5 F5000 ; lift nozzle
M109 S200 ; set temperature and wait for it to be reached
G21 ; set units to millimeters
G90 ; use absolute coordinates
M82 ; use absolute distances for extrusion
G92 E0
; Filament gcode
M106 S255
;LAYER_CHANGE
;Z:0.35
;HEIGHT:0.35
G1 Z.35 F4800
G1 E-2 F2400
G92 E0
G1 Z1.35 F4800
G1 X-5.612 Y6.843
G1 Z.35
G1 E2 F2400
;TYPE:Skirt/Brim
;WIDTH:0.7
G1 F600
G1 X-6.357 Y6.232 E2.08763
G1 X-7.349 Y5.023 E2.22978
G1 X-7.716 Y4.368 E2.29809
G1 X-8.133 Y4.479 E2.33726
G1 X-8.968 Y4.561 E2.41357
G1 X-9.863 Y4.478 E2.49535
G1 X-10.718 Y4.223 E2.57644
G1 X-11.504 Y3.81 E2.65717
G1 X-12.286 Y3.159 E2.74971
G1 X-12.802 Y2.515 E2.82474
G1 X-13.172 Y1.836 E2.8951
G1 X-13.463 Y.92 E2.98247
G1 X-13.557 Y-.095 E3.07512
G1 X-13.465 Y-.913 E3.14993
G1 X-13.247 Y-1.654 E3.22017
G1 X-12.843 Y-2.451 E3.30148
G1 X-12.243 Y-3.203 E3.38898
G1 X-11.451 Y-3.844 E3.48161
G1 X-10.719 Y-4.223 E3.55653
G1 X-9.863 Y-4.478 E3.63773
G1 X-8.968 Y-4.561 E3.7195
G1 X-8.133 Y-4.479 E3.79582
G1 X-7.716 Y-4.368 E3.83499
G1 X-7.349 Y-5.023 E3.90329
G1 X-6.357 Y-6.232 E4.04545
G1 X-4.863 Y-7.457 E4.22113
G1 X-3.428 Y-8.217 E4.3688
G1 X-1.822 Y-8.716 E4.52169
G1 X.121 Y-8.903 E4.69918
G1 X1.773 Y-8.728 E4.85025
G1 X3.327 Y-8.263 E4.99775
G1 X4.873 Y-7.457 E5.15628
G1 X6.367 Y-6.232 E5.33201
G1 X7.359 Y-5.023 E5.47416
G1 X7.725 Y-4.371 E5.54217
G1 X8.132 Y-4.479 E5.5805
G1 X8.968 Y-4.561 E5.65683
G1 X9.861 Y-4.478 E5.73839
G1 X10.707 Y-4.228 E5.81858
G1 X11.498 Y-3.814 E5.89976
G1 X12.244 Y-3.202 E5.98752
G1 X12.84 Y-2.456 E6.07439
G1 X13.219 Y-1.724 E6.14929
G1 X13.45 Y-.987 E6.21956
G1 X13.556 Y.1 E6.31881
G1 X13.451 Y.982 E6.39958
G1 X13.201 Y1.767 E6.47449
G1 X12.843 Y2.451 E6.54472
G1 X12.244 Y3.202 E6.63205
G1 X11.498 Y3.814 E6.71982
G1 X10.707 Y4.228 E6.801
G1 X9.861 Y4.478 E6.8812
G1 X8.968 Y4.561 E6.96275
G1 X8.132 Y4.479 E7.03909
G1 X7.725 Y4.371 E7.07741
G1 X7.359 Y5.023 E7.14542
G1 X6.367 Y6.232 E7.28758
G1 X4.872 Y7.458 E7.46338
G1 X3.42 Y8.223 E7.61262
G1 X1.835 Y8.715 E7.76354
G1 X-.09 Y8.905 E7.93944
G1 X-1.706 Y8.74 E8.08711
G1 X-3.317 Y8.263 E8.23992
G1 X-4.863 Y7.457 E8.39841
G1 X-5.565 Y6.881 E8.48105
G1 X-5.173 Y6.403 F4800
G1 F600
G1 X-5.893 Y5.812 E8.56578
G1 X-6.846 Y4.651 E8.70235
G1 X-7.41 Y3.621 E8.80912
G1 X-8.227 Y3.86 E8.88649
G1 X-8.997 Y3.936 E8.95689
G1 X-9.769 Y3.859 E9.0274
G1 X-10.507 Y3.635 E9.09755
G1 X-11.133 Y3.306 E9.16181
G1 X-11.822 Y2.74 E9.24287
G1 X-12.267 Y2.19 E9.30724
G1 X-12.608 Y1.564 E9.37205
G1 X-12.857 Y.767 E9.44802
G1 X-12.932 Y-.06 E9.52353
G1 X-12.858 Y-.764 E9.58788
G1 X-12.656 Y-1.448 E9.65269
G1 X-12.303 Y-2.135 E9.72295
G1 X-11.778 Y-2.784 E9.79882
G1 X-11.133 Y-3.306 E9.87433
G1 X-10.507 Y-3.635 E9.93857
G1 X-9.769 Y-3.859 E10.00873
G1 X-8.997 Y-3.936 E10.07923
G1 X-8.227 Y-3.86 E10.14963
G1 X-7.41 Y-3.621 E10.22701
G1 X-6.846 Y-4.651 E10.33377
G1 X-5.893 Y-5.812 E10.47035
G1 X-4.543 Y-6.92 E10.62916
G1 X-3.162 Y-7.651 E10.77126
G1 X-1.67 Y-8.109 E10.91324
G1 X.088 Y-8.278 E11.0738
G1 X1.622 Y-8.121 E11.21403
G1 X3.118 Y-7.673 E11.35602
G1 X4.554 Y-6.919 E11.50346
G1 X5.904 Y-5.812 E11.66223
G1 X6.856 Y-4.651 E11.79881
G1 X7.419 Y-3.624 E11.90529
G1 X8.227 Y-3.86 E11.98183
G1 X8.997 Y-3.936 E12.05224
G1 X9.769 Y-3.859 E12.12274
G1 X10.448 Y-3.659 E12.18709
G1 X11.131 Y-3.307 E12.25701
G1 X11.78 Y-2.782 E12.33289
G1 X12.302 Y-2.136 E12.4084
G1 X12.631 Y-1.51 E12.47275
G1 X12.844 Y-.831 E12.53745
G1 X12.932 Y.063 E12.6191
G1 X12.845 Y.826 E12.68892
G1 X12.634 Y1.503 E12.75338
G1 X12.304 Y2.133 E12.81808
G1 X11.78 Y2.782 E12.89393
G1 X11.131 Y3.307 E12.96979
G1 X10.448 Y3.659 E13.03972
G1 X9.769 Y3.859 E13.10407
G1 X8.997 Y3.936 E13.17457
G1 X8.227 Y3.86 E13.24498
G1 X7.419 Y3.624 E13.32151
G1 X6.856 Y4.651 E13.428
G1 X5.904 Y5.812 E13.56457
G1 X4.553 Y6.92 E13.72343
G1 X3.155 Y7.656 E13.86709
G1 X1.682 Y8.109 E14.00724
G1 X-.057 Y8.28 E14.16616
G1 X-1.612 Y8.121 E14.30826
G1 X-3.108 Y7.673 E14.45025
G1 X-4.544 Y6.919 E14.59769
G1 X-5.127 Y6.441 E14.66628
G1 X-4.734 Y5.962 F4800
G1 F600
G1 X-5.43 Y5.392 E14.74811
G1 X-6.344 Y4.278 E14.87908
G1 X-7.161 Y2.764 E15.03554
G1 X-7.755 Y3.07 E15.09632
G1 X-8.32 Y3.241 E15.15
G1 X-9.026 Y3.311 E15.21445
G1 X-9.67 Y3.242 E15.27335
G1 X-10.29 Y3.048 E15.33249
G1 X-10.81 Y2.77 E15.38608
G1 X-11.359 Y2.319 E15.45065
G1 X-11.733 Y1.864 E15.50424
G1 X-12.044 Y1.294 E15.56326
G1 X-12.249 Y.617 E15.62759
G1 X-12.307 Y-.029 E15.68661
G1 X-12.249 Y-.617 E15.74031
G1 X-12.066 Y-1.241 E15.79946
G1 X-11.765 Y-1.815 E15.85836
G1 X-11.317 Y-2.362 E15.92269
G1 X-10.811 Y-2.769 E15.98171
G1 X-10.29 Y-3.048 E16.03541
G1 X-9.67 Y-3.242 E16.09455
G1 X-9.026 Y-3.311 E16.15346
G1 X-8.32 Y-3.241 E16.21791
G1 X-7.755 Y-3.07 E16.27159
G1 X-7.161 Y-2.764 E16.33236
G1 X-6.344 Y-4.278 E16.48883
G1 X-5.43 Y-5.392 E16.61979
G1 X-4.223 Y-6.382 E16.76176
G1 X-2.897 Y-7.084 E16.89822
G1 X-1.518 Y-7.502 E17.02918
G1 X.055 Y-7.653 E17.17294
G1 X1.528 Y-7.503 E17.30757
G1 X2.907 Y-7.084 E17.43858
G1 X4.233 Y-6.382 E17.57505
G1 X5.44 Y-5.392 E17.71701
G1 X6.354 Y-4.278 E17.84798
G1 X7.169 Y-2.768 E18.00399
G1 X7.755 Y-3.07 E18.06394
G1 X8.32 Y-3.241 E18.11763
G1 X9.026 Y-3.311 E18.18209
G1 X9.671 Y-3.242 E18.24111
G1 X10.236 Y-3.07 E18.29481
G1 X10.811 Y-2.769 E18.35383
G1 X11.358 Y-2.32 E18.41816
G1 X11.766 Y-1.815 E18.47719
G1 X12.044 Y-1.294 E18.53089
G1 X12.238 Y-.675 E18.58991
G1 X12.307 Y.029 E18.65424
G1 X12.238 Y.675 E18.71326
G1 X12.067 Y1.24 E18.76697
G1 X11.765 Y1.816 E18.82611
G1 X11.358 Y2.32 E18.88501
G1 X10.811 Y2.769 E18.94934
G1 X10.236 Y3.07 E19.00836
G1 X9.671 Y3.242 E19.06207
G1 X9.026 Y3.311 E19.12109
G1 X8.32 Y3.241 E19.18554
G1 X7.755 Y3.07 E19.23923
G1 X7.169 Y2.768 E19.29918
G1 X6.354 Y4.278 E19.4552
G1 X5.44 Y5.392 E19.58616
G1 X4.232 Y6.383 E19.72825
G1 X2.943 Y7.068 E19.86101
G1 X1.528 Y7.502 E19.99557
G1 X-.025 Y7.655 E20.13748
G1 X-1.518 Y7.503 E20.27394
G1 X-2.897 Y7.084 E20.40495
G1 X-4.223 Y6.382 E20.54142
G1 X-4.688 Y6.001 E20.59609
G1 E18.59609 F2400
G92 E0
G1 Z1.35 F4800
G1 X-6.281 Y-.728
G1 Z.35
G1 E2 F2400
;TYPE:Perimeter
;WIDTH:0.7
G1 F600
G1 X-5.975 Y-.909 E2.03228
G1 X-5.64 Y-1.276 E2.07747
G1 X-5.453 Y-1.674 E2.11742
G1 X-5.295 Y-2.195 E2.167
G1 X-4.765 Y-3.187 E2.26926
G1 X-4.052 Y-4.057 E2.37153
G1 X-3.182 Y-4.77 E2.47379
G1 X-2.19 Y-5.3 E2.57605
G1 X-1.116 Y-5.626 E2.67812
G1 X.023 Y-5.735 E2.78218
G1 X1.124 Y-5.627 E2.88281
G1 X2.201 Y-5.3 E2.98508
G1 X3.192 Y-4.77 E3.08734
G1 X4.062 Y-4.057 E3.18961
G1 X4.775 Y-3.187 E3.29187
G1 X5.305 Y-2.195 E3.39413
G1 X5.46 Y-1.685 E3.44263
G1 X5.587 Y-1.385 E3.47224
G1 X5.886 Y-1 E3.51662
G1 X6.332 Y-.714 E3.56472
G1 X6.25 Y-.305 E3.6027
G1 X6.225 Y.123 E3.64168
G1 X6.332 Y.714 E3.69631
G1 X5.886 Y1 E3.74441
G1 X5.667 Y1.255 E3.775
G1 X5.462 Y1.679 E3.81783
G1 X5.305 Y2.195 E3.86691
G1 X4.775 Y3.187 E3.96917
G1 X4.062 Y4.057 E4.07143
G1 X3.192 Y4.77 E4.1737
G1 X2.201 Y5.3 E4.27596
G1 X1.124 Y5.627 E4.37823
G1 X.005 Y5.737 E4.48049
G1 X-1.114 Y5.627 E4.58275
G1 X-2.19 Y5.3 E4.68502
G1 X-3.182 Y4.77 E4.78728
G1 X-4.052 Y4.057 E4.88955
G1 X-4.765 Y3.187 E4.99181
G1 X-5.295 Y2.195 E5.09408
G1 X-5.569 Y1.396 E5.17089
G1 X-5.838 Y1.032 E5.21204
G1 X-6.281 Y.728 E5.2609
G1 X-6.197 Y.305 E5.30017
G1 X-6.171 Y-.122 E5.33904
G1 X-6.27 Y-.669 E5.38963
G1 X-7 Y-1.209 F4800
G1 F600
G1 X-6.945 Y-1.195 E5.39475
G1 X-6.733 Y-1.219 E5.41421
G1 X-6.364 Y-1.398 E5.45147
G1 X-6.232 Y-1.526 E5.46818
G1 X-6.051 Y-1.857 E5.50249
G1 X-5.875 Y-2.436 E5.55748
G1 X-5.287 Y-3.536 E5.67094
G1 X-4.496 Y-4.501 E5.78439
G1 X-3.531 Y-5.292 E5.89785
G1 X-2.431 Y-5.88 E6.01131
G1 X-1.238 Y-6.242 E6.12465
G1 X.024 Y-6.363 E6.2399
G1 X1.247 Y-6.243 E6.35164
G1 X2.441 Y-5.88 E6.4651
G1 X3.541 Y-5.292 E6.57856
G1 X4.506 Y-4.501 E6.69202
G1 X5.297 Y-3.536 E6.80547
G1 X5.886 Y-2.436 E6.91893
G1 X6.104 Y-1.747 E6.98463
G1 X6.314 Y-1.455 E7.01732
G1 X6.616 Y-1.265 E7.04984
G1 X6.977 Y-1.202 E7.08309
G1 X7.185 Y-1.279 E7.10327
;WIDTH:0.658303
G1 X7.393 Y-1.356 E7.12211
;WIDTH:0.616615
G1 X7.491 Y-1.447 E7.13261
G1 X7.359 Y-1.293 E7.14857
;WIDTH:0.658307
G1 X7.227 Y-1.139 E7.16576
;WIDTH:0.7
G1 X7.095 Y-.985 E7.18417
G1 X6.998 Y-.796 E7.20356
G1 X6.863 Y-.183 E7.26061
G1 X6.863 Y.183 E7.29387
G1 X6.998 Y.796 E7.35092
G1 X7.299 Y1.289 E7.40348
G1 X6.977 Y1.202 E7.43383
G1 X6.764 Y1.221 E7.45322
G1 X6.398 Y1.385 E7.48968
G1 X6.182 Y1.608 E7.51795
G1 X6.059 Y1.863 E7.54365
G1 X5.886 Y2.436 E7.59809
G1 X5.297 Y3.536 E7.71155
G1 X4.506 Y4.501 E7.825
G1 X3.541 Y5.292 E7.93846
G1 X2.441 Y5.88 E8.05192
G1 X1.247 Y6.243 E8.16537
G1 X.005 Y6.365 E8.27883
G1 X-1.237 Y6.243 E8.39229
G1 X-2.431 Y5.88 E8.50574
G1 X-3.531 Y5.292 E8.6192
G1 X-4.496 Y4.501 E8.73266
G1 X-5.287 Y3.536 E8.84611
G1 X-5.875 Y2.436 E8.95957
G1 X-6.074 Y1.792 E9.02086
G1 X-6.281 Y1.472 E9.05551
G1 X-6.587 Y1.267 E9.08898
G1 X-6.945 Y1.195 E9.12223
G1 X-7.221 Y1.268 E9.14815
G1 X-6.948 Y.815 E9.19617
G1 X-6.809 Y.183 E9.25505
G1 X-6.809 Y-.183 E9.28831
G1 X-6.948 Y-.815 E9.34719
G1 X-7.221 Y-1.268 E9.3952
G1 X-7.058 Y-1.224 E9.41055
G1 E7.41055 F2400
G92 E0
G1 Z1.35 F4800
G1 X8.983 Y1.509
G1 Z.35
G1 E2 F2400
;TYPE:External perimeter
G1 F600
G1 X8.471 Y1.428 E2.04712
G1 X7.964 Y1.118 E2.1011
G1 X7.615 Y.638 E2.15508
G1 X7.476 Y.061 E2.20907
G1 X7.568 Y-.525 E2.26305
G1 X7.878 Y-1.032 E2.31703
G1 X8.358 Y-1.381 E2.37106
G1 X8.935 Y-1.52 E2.42501
G1 X9.522 Y-1.428 E2.47899
G1 X10.028 Y-1.118 E2.53297
G1 X10.378 Y-.638 E2.58695
G1 X10.517 Y-.061 E2.64094
G1 X10.424 Y.526 E2.69492
G1 X10.114 Y1.032 E2.74891
G1 X9.634 Y1.381 E2.80289
G1 X9.042 Y1.518 E2.85818
G1 X8.793 Y1.861 F4800
G1 E.85818 F2400
G92 E0
G1 Z1.35 F4800
G1 X-6.946 Y-1.819
G1 Z.35
G1 E2 F2400
G1 F600
G1 X-6.753 Y-1.887 E2.01867
G1 X-6.648 Y-2.04 E2.03551
G1 X-6.455 Y-2.676 E2.09592
G1 X-5.809 Y-3.885 E2.22057
G1 X-4.94 Y-4.945 E2.34522
G1 X-3.88 Y-5.814 E2.46987
G1 X-2.671 Y-6.461 E2.59452
G1 X-1.36 Y-6.858 E2.71912
G1 X.025 Y-6.991 E2.84557
G1 X1.369 Y-6.858 E2.96843
G1 X2.681 Y-6.461 E3.09308
G1 X3.89 Y-5.814 E3.21773
G1 X4.95 Y-4.945 E3.34238
G1 X5.819 Y-3.885 E3.46703
G1 X6.466 Y-2.676 E3.59168
G1 X6.656 Y-2.048 E3.65137
G1 X6.77 Y-1.887 E3.66924
G1 X6.962 Y-1.826 E3.68763
G1 X7.153 Y-1.897 E3.70616
G1 X7.575 Y-2.229 E3.75489
G1 X8.036 Y-2.463 E3.8019
G1 X8.536 Y-2.603 E3.84913
G1 X9.051 Y-2.643 E3.89615
G1 X9.567 Y-2.581 E3.94337
G1 X10.058 Y-2.421 E3.99038
G1 X10.511 Y-2.166 E4.03761
G1 X10.904 Y-1.83 E4.08462
G1 X11.225 Y-1.422 E4.13185
G1 X11.459 Y-.961 E4.17886
G1 X11.599 Y-.461 E4.22609
G1 X11.639 Y.055 E4.2731
G1 X11.599 Y.461 E4.31018
G1 X11.459 Y.961 E4.35741
G1 X11.225 Y1.422 E4.40442
G1 X10.904 Y1.83 E4.45165
G1 X10.511 Y2.166 E4.49866
G1 X10.058 Y2.421 E4.54589
G1 X9.567 Y2.581 E4.5929
G1 X9.051 Y2.643 E4.64013
G1 X8.536 Y2.603 E4.68714
G1 X8.036 Y2.463 E4.73437
G1 X7.575 Y2.229 E4.78138
G1 X7.153 Y1.897 E4.83011
G1 X6.962 Y1.826 E4.84864
G1 X6.77 Y1.887 E4.86703
G1 X6.657 Y2.047 E4.8848
G1 X6.466 Y2.676 E4.9446
G1 X5.819 Y3.885 E5.06925
G1 X4.95 Y4.945 E5.1939
G1 X3.89 Y5.814 E5.31855
G1 X2.681 Y6.461 E5.4432
G1 X1.369 Y6.858 E5.56785
G1 X.005 Y6.993 E5.6925
G1 X-1.359 Y6.858 E5.81715
G1 X-2.671 Y6.461 E5.9418
G1 X-3.88 Y5.814 E6.06645
G1 X-4.94 Y4.945 E6.19109
G1 X-5.809 Y3.885 E6.31574
G1 X-6.455 Y2.676 E6.44039
G1 X-6.709 Y1.93 E6.51204
G1 X-6.876 Y1.828 E6.52983
G1 X-7.102 Y1.861 E6.55066
G1 X-7.483 Y2.168 E6.59518
G1 X-7.936 Y2.422 E6.64241
G1 X-8.428 Y2.582 E6.68943
G1 X-8.944 Y2.643 E6.73666
G1 X-9.459 Y2.603 E6.78367
G1 X-9.959 Y2.462 E6.83091
G1 X-10.42 Y2.227 E6.87792
G1 X-10.828 Y1.906 E6.92515
G1 X-11.164 Y1.513 E6.97217
G1 X-11.418 Y1.06 E7.0194
G1 X-11.578 Y.568 E7.06642
G1 X-11.639 Y.052 E7.11365
G1 X-11.6 Y-.454 E7.15985
G1 X-11.466 Y-.907 E7.20282
G1 X-11.224 Y-1.424 E7.25469
G1 X-10.902 Y-1.832 E7.30192
G1 X-10.509 Y-2.168 E7.34894
G1 X-10.056 Y-2.422 E7.39617
G1 X-9.564 Y-2.582 E7.44318
G1 X-9.048 Y-2.643 E7.49042
G1 X-8.533 Y-2.603 E7.53743
G1 X-8.033 Y-2.462 E7.58466
G1 X-7.572 Y-2.227 E7.63168
G1 X-7.145 Y-1.89 E7.68114
G1 X-7.003 Y-1.84 E7.69488
G1 X-6.838 Y-1.645 F4800
G1 E5.69488 F2400
G92 E0
G1 Z1.35 F4800
G1 X7.509 Y1.464
G1 Z.35
G1 E2 F2400
;TYPE:Perimeter
;WIDTH:0.571257
G1 F600
G1 X8.047 Y1.847 E2.04769
;WIDTH:0.569467
G1 X8.362 Y1.977 E2.07216
G1 X8.911 Y2.08 E2.11237
;WIDTH:0.592731
G1 X9.401 Y2.034 E2.14943
G1 X9.871 Y1.889 E2.18649
;WIDTH:0.569471
G1 X10.339 Y1.583 E2.2267
G1 X10.58 Y1.343 E2.25117
G1 X10.885 Y.875 E2.29138
;WIDTH:0.592731
G1 X11.031 Y.405 E2.32844
G1 X11.076 Y-.085 E2.3655
;WIDTH:0.569465
G1 X10.973 Y-.635 E2.40571
G1 X10.843 Y-.949 E2.43019
G1 X10.527 Y-1.41 E2.4704
;WIDTH:0.592747
G1 X10.149 Y-1.725 E2.50746
G1 X9.713 Y-1.954 E2.54452
;WIDTH:0.569477
G1 X9.166 Y-2.069 E2.58473
G1 X8.826 Y-2.069 E2.60919
G1 X8.28 Y-1.954 E2.64939
;WIDTH:0.592759
G1 X7.844 Y-1.725 E2.68648
G1 X7.491 Y-1.447 E2.72034
G1 E.72034 F2400
G92 E0
G1 Z1.35 F4800
G1 X-9.655 Y-1.431
G1 Z.35
G1 E2 F2400
;TYPE:External perimeter
;WIDTH:0.7
G1 F600
G1 X-9.057 Y-1.574 E2.05585
G1 X-8.45 Y-1.477 E2.11173
G1 X-7.926 Y-1.156 E2.16761
G1 X-7.565 Y-.659 E2.2235
G1 X-7.422 Y-.061 E2.27938
G1 X-7.519 Y.546 E2.33526
G1 X-7.84 Y1.07 E2.39114
G1 X-8.338 Y1.431 E2.44703
G1 X-8.935 Y1.574 E2.50291
G1 X-9.542 Y1.477 E2.55879
G1 X-10.066 Y1.156 E2.61468
G1 X-10.427 Y.659 E2.67056
G1 X-10.57 Y.061 E2.72644
G1 X-10.474 Y-.546 E2.78232
G1 X-10.152 Y-1.07 E2.83821
G1 X-9.703 Y-1.396 E2.88867
G1 X-9.618 Y-1.829 F4800
G1 E.88867 F2400
G92 E0
G1 Z1.35 F4800
G1 X-10.063 Y-2.078
G1 X-11.344 Y-.012
G1 X-9.906 Y2.164
G1 X-7.703 Y1.959
G1 X-7.336 Y1.659
G1 X-7.484 Y1.477
G1 Z.35
G1 E2 F2400
;TYPE:Perimeter
;WIDTH:0.518789
G1 F600
G1 X-8.042 Y1.874 E2.04416
;WIDTH:0.516023
G1 X-8.346 Y2 E2.06532
G1 X-8.914 Y2.107 E2.10236
;WIDTH:0.540323
G1 X-9.406 Y2.06 E2.13584
G1 X-9.879 Y1.915 E2.16933
;WIDTH:0.516025
G1 X-10.362 Y1.599 E2.20636
G1 X-10.595 Y1.366 E2.22753
G1 X-10.911 Y.883 E2.26456
;WIDTH:0.540327
G1 X-11.057 Y.41 E2.29805
G1 X-11.103 Y-.083 E2.33153
;WIDTH:0.511963
G1 X-10.993 Y-.649 E2.36822
;WIDTH:0.516035
G1 X-10.87 Y-.955 E2.38934
G1 X-10.544 Y-1.431 E2.42638
;WIDTH:0.540343
G1 X-10.163 Y-1.747 E2.45987
G1 X-9.726 Y-1.978 E2.49338
;WIDTH:0.516023
G1 X-9.161 Y-2.097 E2.5304
G1 X-8.831 Y-2.097 E2.55155
G1 X-8.266 Y-1.978 E2.58859
;WIDTH:0.540327
G1 X-7.829 Y-1.747 E2.62207
G1 X-7.469 Y-1.464 E2.65306
G1 E.65306 F2400
G92 E0
G1 Z1.35 F4800
G1 X2.51 Y-4.923
G1 Z.35
G1 E2 F2400
;TYPE:Solid infill
;WIDTH:0.731588
G1 F600
G1 X3.822 Y-3.611 E2.17723
G1 X4.384 Y-2.926 E2.26187
G1 X4.871 Y-2.015 E2.36056
G1 X5.045 Y-1.459 E2.41621
G1 X1.472 Y-5.031 E2.89887
G1 X1.032 Y-5.165 E2.94278
G1 X.343 Y-5.233 E3.009
G1 X5.762 Y.186 E3.74106
G1 X5.809 Y.47 E3.76859
G1 X5.75 Y.503 E3.77502
G1 X5.438 Y.791 E3.81559
G1 X-.561 Y-5.208 E4.62604
G1 X-1.025 Y-5.164 E4.67051
G1 X-1.348 Y-5.066 E4.70272
G1 X5.084 Y1.365 E5.57158
G1 X4.848 Y2.058 E5.64145
G1 X-2.052 Y-4.843 E6.57362
G1 X-2.657 Y-4.519 E6.63915
G1 X4.524 Y2.663 E7.60937
G1 X4.384 Y2.926 E7.63788
G1 X4.147 Y3.214 E7.67348
G1 X-3.209 Y-4.142 E8.66723
G1 X-3.719 Y-3.724 E8.73024
G1 X3.729 Y3.724 E9.73634
G1 X3.219 Y4.142 E9.79936
G1 X-4.137 Y-3.214 E10.7931
G1 X-4.374 Y-2.926 E10.8287
G1 X-4.514 Y-2.662 E10.85721
G1 X2.668 Y4.519 E11.82743
G1 X2.063 Y4.843 E11.89296
G1 X-4.838 Y-2.057 E12.82513
G1 X-5.073 Y-1.364 E12.89505
G1 X1.358 Y5.066 E13.76377
G1 X1.032 Y5.165 E13.79624
G1 X.573 Y5.21 E13.84032
G1 X-5.43 Y-.793 E14.65133
G1 X-5.502 Y-.704 E14.66226
G1 X-5.76 Y-.495 E14.69398
G1 X-5.703 Y-.138 E14.72854
G1 X-.332 Y5.233 E15.45408
G1 X-1.022 Y5.165 E15.52029
G1 X-1.462 Y5.031 E15.56422
G1 X-5.034 Y1.46 E16.04672
G1 X-4.86 Y2.015 E16.10226
G1 X-4.373 Y2.926 E16.20094
G1 X-3.811 Y3.611 E16.28567
G1 X-2.5 Y4.922 E16.46278
;LAYER_CHANGE
;Z:0.65
;HEIGHT:0.3
