;FLAVOR:Marlin
;TIME:616
;Filament used: 2.62555m
;Layer height: 0.8
;MINX:-17.5
;MINY:-17.5
;MINZ:0.7
;MAXX:17.5
;MAXY:17.5
;MAXZ:19.9
;Generated with Cura_SteamEngine 5.2.2
;M104 S200
;M105
;M109 S200
M82 ;absolute extrusion mode
;G28 ;Home
G1 Z15.0 F6000 ;Move the platform down 15mm
;Prime the extruder
G92 E0
G1 F200 E3
G92 E0
G92 E0
G92 E0
;LAYER_COUNT:25
;LAYER:0
M107
G0 F2400 X17.5 Y-10 Z0.7
;TYPE:SKIRT
G1 F600 X17.5 Y10 E5.82052
G1 X17.46 Y10.773 E6.04579
G1 X17.341 Y11.538 E6.2711
G1 X17.143 Y12.287 E6.49657
G1 X16.869 Y13.011 E6.72185
G1 X16.522 Y13.704 E6.94741
G1 X16.105 Y14.356 E7.17264
G1 X15.623 Y14.962 E7.39799
G1 X15.082 Y15.516 E7.62334
G1 X14.486 Y16.01 E7.84863
G1 X13.842 Y16.441 E8.07415
G1 X13.158 Y16.803 E8.29937
G1 X12.44 Y17.092 E8.52462
G1 X11.695 Y17.306 E8.7502
G1 X10.933 Y17.442 E8.97547
G1 X10 Y17.5 E9.24752
G1 X-10 Y17.5 E15.06804
G1 X-10.773 Y17.46 E15.29331
G1 X-11.538 Y17.341 E15.51862
G1 X-12.287 Y17.143 E15.74409
G1 X-13.011 Y16.869 E15.96937
G1 X-13.704 Y16.522 E16.19493
G1 X-14.356 Y16.105 E16.42016
G1 X-14.962 Y15.623 E16.64551
G1 X-15.516 Y15.082 E16.87086
G1 X-16.01 Y14.486 E17.09615
G1 X-16.441 Y13.842 E17.32167
G1 X-16.803 Y13.158 E17.54689
G1 X-17.092 Y12.44 E17.77214
G1 X-17.306 Y11.695 E17.99772
G1 X-17.442 Y10.933 E18.22299
G1 X-17.5 Y10 E18.49504
G1 X-17.5 Y-10 E24.31556
G1 X-17.46 Y-10.773 E24.54083
G1 X-17.341 Y-11.538 E24.76614
G1 X-17.143 Y-12.287 E24.99161
G1 X-16.869 Y-13.011 E25.21689
G1 X-16.522 Y-13.704 E25.44245
G1 X-16.105 Y-14.356 E25.66768
G1 X-15.623 Y-14.962 E25.89303
G1 X-15.082 Y-15.516 E26.11838
G1 X-14.486 Y-16.01 E26.34367
G1 X-13.842 Y-16.441 E26.56919
G1 X-13.158 Y-16.803 E26.79441
G1 X-12.44 Y-17.092 E27.01966
G1 X-11.695 Y-17.306 E27.24524
G1 X-10.933 Y-17.442 E27.47051
G1 X-10 Y-17.5 E27.74256
G1 X10 Y-17.5 E33.56308
G1 X10.773 Y-17.46 E33.78835
G1 X11.538 Y-17.341 E34.01366
G1 X12.287 Y-17.143 E34.23913
G1 X13.011 Y-16.869 E34.46441
G1 X13.704 Y-16.522 E34.68997
G1 X14.356 Y-16.105 E34.9152
G1 X14.962 Y-15.623 E35.14055
G1 X15.516 Y-15.082 E35.3659
G1 X16.01 Y-14.486 E35.59119
G1 X16.441 Y-13.842 E35.81671
G1 X16.803 Y-13.158 E36.04193
G1 X17.092 Y-12.44 E36.26718
G1 X17.306 Y-11.695 E36.49276
G1 X17.442 Y-10.933 E36.71803
G1 X17.5 Y-10 E36.99008
G0 F2400 X16.5 Y-10
G1 F600 X16.5 Y10 E42.8106
G1 X16.46 Y10.72 E43.02047
G1 X16.341 Y11.431 E43.23026
G1 X16.143 Y12.124 E43.44001
G1 X15.87 Y12.791 E43.64976
G1 X15.525 Y13.424 E43.85956
G1 X15.112 Y14.015 E44.0694
G1 X14.636 Y14.556 E44.27911
G1 X14.103 Y15.041 E44.48883
G1 X13.52 Y15.465 E44.69862
G1 X12.893 Y15.821 E44.90846
G1 X12.231 Y16.105 E45.1181
G1 X11.541 Y16.315 E45.328
G1 X10.832 Y16.446 E45.53783
G1 X10 Y16.5 E45.78048
G1 X-10 Y16.5 E51.601
G1 X-10.72 Y16.46 E51.81086
G1 X-11.431 Y16.341 E52.02066
G1 X-12.124 Y16.143 E52.23041
G1 X-12.791 Y15.87 E52.44015
G1 X-13.424 Y15.525 E52.64996
G1 X-14.015 Y15.112 E52.85979
G1 X-14.556 Y14.636 E53.0695
G1 X-15.041 Y14.103 E53.27923
G1 X-15.465 Y13.52 E53.48902
G1 X-15.821 Y12.893 E53.69886
G1 X-16.105 Y12.231 E53.90849
G1 X-16.315 Y11.541 E54.1184
G1 X-16.446 Y10.832 E54.32823
G1 X-16.5 Y10 E54.57087
G1 X-16.5 Y-10 E60.39139
G1 X-16.46 Y-10.72 E60.60126
G1 X-16.341 Y-11.431 E60.81105
G1 X-16.143 Y-12.124 E61.02081
G1 X-15.87 Y-12.791 E61.23055
G1 X-15.525 Y-13.424 E61.44035
G1 X-15.112 Y-14.015 E61.65019
G1 X-14.636 Y-14.556 E61.8599
G1 X-14.103 Y-15.041 E62.06962
G1 X-13.52 Y-15.465 E62.27942
G1 X-12.893 Y-15.821 E62.48925
G1 X-12.231 Y-16.105 E62.69889
G1 X-11.541 Y-16.315 E62.90879
G1 X-10.832 Y-16.446 E63.11862
G1 X-10 Y-16.5 E63.36127
G1 X10 Y-16.5 E69.18179
G1 X10.72 Y-16.46 E69.39165
G1 X11.431 Y-16.341 E69.60145
G1 X12.124 Y-16.143 E69.8112
G1 X12.791 Y-15.87 E70.02095
G1 X13.424 Y-15.525 E70.23075
G1 X14.015 Y-15.112 E70.44058
G1 X14.556 Y-14.636 E70.65029
G1 X15.041 Y-14.103 E70.86002
G1 X15.465 Y-13.52 E71.06981
G1 X15.821 Y-12.893 E71.27965
G1 X16.105 Y-12.231 E71.48929
G1 X16.315 Y-11.541 E71.69919
G1 X16.446 Y-10.832 E71.90902
G1 X16.5 Y-10 E72.15166
G0 F2400 X15.5 Y-10
G1 F600 X15.5 Y10 E77.97219
G1 X15.46 Y10.662 E78.1652
G1 X15.341 Y11.314 E78.35808
G1 X15.144 Y11.947 E78.55101
G1 X14.872 Y12.552 E78.74406
G1 X14.53 Y13.12 E78.93702
G1 X14.121 Y13.642 E79.13001
G1 X13.653 Y14.112 E79.32304
G1 X13.132 Y14.521 E79.5158
G1 X12.565 Y14.865 E79.70881
G1 X11.961 Y15.139 E79.90183
G1 X11.328 Y15.337 E80.09485
G1 X10.677 Y15.458 E80.28755
G1 X10 Y15.5 E80.48496
G1 X-10 Y15.5 E86.30548
G1 X-10.662 Y15.46 E86.49849
G1 X-11.314 Y15.341 E86.69138
G1 X-11.947 Y15.144 E86.88431
G1 X-12.552 Y14.872 E87.07736
G1 X-13.12 Y14.53 E87.27031
G1 X-13.642 Y14.121 E87.4633
G1 X-14.112 Y13.653 E87.65633
G1 X-14.521 Y13.132 E87.8491
G1 X-14.865 Y12.565 E88.0421
G1 X-15.139 Y11.961 E88.23513
G1 X-15.337 Y11.328 E88.42815
G1 X-15.458 Y10.677 E88.62085
G1 X-15.5 Y10 E88.81825
G1 X-15.5 Y-10 E94.63878
G1 X-15.46 Y-10.662 E94.83179
G1 X-15.341 Y-11.314 E95.02467
G1 X-15.144 Y-11.947 E95.21761
G1 X-14.872 Y-12.552 E95.41065
G1 X-14.53 Y-13.12 E95.60361
G1 X-14.121 Y-13.642 E95.7966
G1 X-13.653 Y-14.112 E95.98963
G1 X-13.132 Y-14.521 E96.18239
G1 X-12.565 Y-14.865 E96.3754
G1 X-11.961 Y-15.139 E96.56842
G1 X-11.328 Y-15.337 E96.76144
G1 X-10.677 Y-15.458 E96.95415
G1 X-10 Y-15.5 E97.15155
G1 X10 Y-15.5 E102.97207
G1 X10.662 Y-15.46 E103.16508
G1 X11.314 Y-15.341 E103.35797
G1 X11.947 Y-15.144 E103.5509
G1 X12.552 Y-14.872 E103.74395
G1 X13.12 Y-14.53 E103.9369
G1 X13.642 Y-14.121 E104.1299
G1 X14.112 Y-13.653 E104.32292
G1 X14.521 Y-13.132 E104.51569
G1 X14.865 Y-12.565 E104.7087
G1 X15.139 Y-11.961 E104.90172
G1 X15.337 Y-11.328 E105.09474
G1 X15.458 Y-10.677 E105.28744
G1 X15.5 Y-10 E105.48484
G0 F2400 X14.5 Y-10.328
G1 F600 X14.5 Y10 E111.40082
G1 X14.46 Y10.598 E111.57525
G1 X14.341 Y11.186 E111.74984
G1 X14.145 Y11.753 E111.92443
G1 X13.875 Y12.288 E112.09884
G1 X13.536 Y12.783 E112.27344
G1 X13.135 Y13.229 E112.44799
G1 X12.678 Y13.617 E112.62245
G1 X12.173 Y13.941 E112.79707
G1 X11.63 Y14.195 E112.97153
G1 X11.057 Y14.374 E113.14624
G1 X10.328 Y14.5 E113.36154
G1 X-10 Y14.5 E119.27752
G1 X-10.598 Y14.46 E119.45194
G1 X-11.186 Y14.341 E119.62654
G1 X-11.753 Y14.145 E119.80113
G1 X-12.288 Y13.875 E119.97553
G1 X-12.783 Y13.536 E120.15013
G1 X-13.229 Y13.135 E120.32468
G1 X-13.617 Y12.678 E120.49915
G1 X-13.941 Y12.173 E120.67377
G1 X-14.195 Y11.63 E120.84823
G1 X-14.374 Y11.057 E121.02293
G1 X-14.5 Y10.328 E121.23824
G1 X-14.5 Y-10 E127.15422
G1 X-14.46 Y-10.598 E127.32864
G1 X-14.341 Y-11.186 E127.50323
G1 X-14.145 Y-11.753 E127.67783
G1 X-13.875 Y-12.288 E127.85223
G1 X-13.536 Y-12.783 E128.02683
G1 X-13.135 Y-13.229 E128.20138
G1 X-12.678 Y-13.617 E128.37585
G1 X-12.173 Y-13.941 E128.55046
G1 X-11.63 Y-14.195 E128.72492
G1 X-11.057 Y-14.374 E128.89963
G1 X-10.328 Y-14.5 E129.11493
G1 X10 Y-14.5 E135.03091
G1 X10.598 Y-14.46 E135.20534
G1 X11.186 Y-14.341 E135.37993
G1 X11.753 Y-14.145 E135.55452
G1 X12.288 Y-13.875 E135.72892
G1 X12.783 Y-13.536 E135.90353
G1 X13.229 Y-13.135 E136.07807
G1 X13.617 Y-12.678 E136.25254
G1 X13.941 Y-12.173 E136.42716
G1 X14.195 Y-11.63 E136.60162
G1 X14.374 Y-11.057 E136.77633
G1 X14.5 Y-10.328 E136.99163
G0 F2400 X13.5 Y-10
G1 F600 X13.5 Y10 E142.81215
G1 X13.46 Y10.527 E142.96597
G1 X13.341 Y11.042 E143.11979
G1 X13.146 Y11.534 E143.27381
G1 X12.879 Y11.99 E143.4276
G1 X12.546 Y12.401 E143.58154
G1 X12.155 Y12.758 E143.73563
G1 X11.715 Y13.051 E143.88947
G1 X11.236 Y13.274 E144.04324
G1 X10.729 Y13.423 E144.19703
G1 X10 Y13.5 E144.41037
G1 X-10 Y13.5 E150.23089
G1 X-10.527 Y13.46 E150.38471
G1 X-11.042 Y13.341 E150.53853
G1 X-11.534 Y13.146 E150.69255
G1 X-11.99 Y12.879 E150.84634
G1 X-12.401 Y12.546 E151.00028
G1 X-12.758 Y12.155 E151.15437
G1 X-13.051 Y11.715 E151.30821
G1 X-13.274 Y11.236 E151.46198
G1 X-13.423 Y10.729 E151.61577
G1 X-13.5 Y10 E151.82911
G1 X-13.5 Y-10 E157.64964
G1 X-13.46 Y-10.527 E157.80345
G1 X-13.341 Y-11.042 E157.95727
G1 X-13.146 Y-11.534 E158.1113
G1 X-12.879 Y-11.99 E158.26508
G1 X-12.546 Y-12.401 E158.41902
G1 X-12.155 Y-12.758 E158.57311
G1 X-11.715 Y-13.051 E158.72696
G1 X-11.236 Y-13.274 E158.88072
G1 X-10.729 Y-13.423 E159.03451
G1 X-10 Y-13.5 E159.24785
G1 X10 Y-13.5 E165.06838
G1 X10.527 Y-13.46 E165.22219
G1 X11.042 Y-13.341 E165.37602
G1 X11.534 Y-13.146 E165.53004
G1 X11.99 Y-12.879 E165.68382
G1 X12.401 Y-12.546 E165.83776
G1 X12.758 Y-12.155 E165.99185
G1 X13.051 Y-11.715 E166.1457
G1 X13.274 Y-11.236 E166.29946
G1 X13.423 Y-10.729 E166.45325
G1 X13.5 Y-10 E166.66659
G0 F2400 X12.5 Y-10.244
G1 F600 X12.5 Y10 E172.55813
G1 X12.46 Y10.445 E172.68816
G1 X12.342 Y10.876 E172.8182
G1 X12.148 Y11.279 E172.94837
G1 X11.886 Y11.641 E173.07842
G1 X11.564 Y11.95 E173.2083
G1 X11.192 Y12.197 E173.33825
G1 X10.782 Y12.375 E173.46833
G1 X10.244 Y12.5 E173.62907
G1 X-10 Y12.5 E179.52061
G1 X-10.445 Y12.46 E179.65064
G1 X-10.876 Y12.342 E179.78069
G1 X-11.279 Y12.148 E179.91085
G1 X-11.641 Y11.886 E180.0409
G1 X-11.95 Y11.564 E180.17078
G1 X-12.197 Y11.192 E180.30073
G1 X-12.375 Y10.782 E180.43081
G1 X-12.5 Y10.244 E180.59156
G1 X-12.5 Y-10 E186.48309
G1 X-12.46 Y-10.445 E186.61312
G1 X-12.342 Y-10.876 E186.74317
G1 X-12.148 Y-11.279 E186.87333
G1 X-11.886 Y-11.641 E187.00338
G1 X-11.564 Y-11.95 E187.13326
G1 X-11.192 Y-12.197 E187.26321
G1 X-10.782 Y-12.375 E187.39329
G1 X-10.244 Y-12.5 E187.55404
G1 X10 Y-12.5 E193.44557
G1 X10.445 Y-12.46 E193.5756
G1 X10.876 Y-12.342 E193.70565
G1 X11.279 Y-12.148 E193.83581
G1 X11.641 Y-11.886 E193.96586
G1 X11.95 Y-11.564 E194.09574
G1 X12.197 Y-11.192 E194.22569
G1 X12.375 Y-10.782 E194.35578
G1 X12.5 Y-10.244 E194.51652
G0 F2400 X11.5 Y-10.195
G1 F600 X11.5 Y10 E200.39379
G1 X11.46 Y10.344 E200.49458
G1 X11.343 Y10.669 E200.59511
G1 X11.154 Y10.959 E200.69584
G1 X10.904 Y11.197 E200.7963
G1 X10.605 Y11.372 E200.89712
G1 X10.195 Y11.5 E201.02212
G1 X-10 Y11.5 E206.8994
G1 X-10.344 Y11.46 E207.00019
G1 X-10.669 Y11.343 E207.10071
G1 X-10.959 Y11.154 E207.20145
G1 X-11.197 Y10.904 E207.3019
G1 X-11.372 Y10.605 E207.40273
G1 X-11.5 Y10.195 E207.52773
G1 X-11.5 Y-10 E213.405
G1 X-11.46 Y-10.344 E213.50579
G1 X-11.343 Y-10.669 E213.60632
G1 X-11.154 Y-10.959 E213.70706
G1 X-10.904 Y-11.197 E213.80751
G1 X-10.605 Y-11.372 E213.90834
G1 X-10.195 Y-11.5 E214.03334
G1 X10 Y-11.5 E219.91061
G1 X10.344 Y-11.46 E220.0114
G1 X10.669 Y-11.343 E220.11192
G1 X10.959 Y-11.154 E220.21266
G1 X11.197 Y-10.904 E220.31312
G1 X11.372 Y-10.605 E220.41394
G1 X11.5 Y-10.195 E220.53894
G0 F2400 X10.5 Y-10
G1 F600 X10.5 Y10 E226.35947
G1 X10.46 Y10.195 E226.4174
G1 X10.348 Y10.359 E226.4752
G1 X10.18 Y10.466 E226.53316
G1 X10 Y10.5 E226.58647
G1 X-10 Y10.5 E232.407
G1 X-10.195 Y10.46 E232.46493
G1 X-10.359 Y10.348 E232.52272
G1 X-10.466 Y10.18 E232.58069
G1 X-10.5 Y10 E232.634
G1 X-10.5 Y-10 E238.45453
G1 X-10.46 Y-10.195 E238.51246
G1 X-10.348 Y-10.359 E238.57025
G1 X-10.18 Y-10.466 E238.62822
G1 X-10 Y-10.5 E238.68153
G1 X10 Y-10.5 E244.50206
G1 X10.195 Y-10.46 E244.55999
G1 X10.359 Y-10.348 E244.61778
G1 X10.466 Y-10.18 E244.67575
G1 X10.5 Y-10 E244.72906
;MESH:Cubo de calibracion XYZ Santty.stl
G0 F2400 X-7.5 Y-7.5
;TYPE:WALL-INNER
G1 F600 X-7.5 Y7.5 E249.09445
G1 X7.5 Y7.5 E253.45985
G1 X7.5 Y0.00 E255.64254
G1 X7.5 Y-7.5 E257.82524
G1 X-7.5 Y-7.5 E262.19063
G0 F2400 X-8.5 Y-8.5
G1 F600 X-8.5 Y8.5 E267.13808
G1 X8.5 Y8.5 E272.08552
G1 X8.5 Y0.00 E274.55925
G1 X8.5 Y-8.5 E277.03297
G1 X-8.5 Y-8.5 E281.98041
G0 F2400 X-7.93 Y-7.93
G0 X-9.5 Y-9.5
;TYPE:WALL-OUTER
G1 F600 X-9.5 Y9.5 E287.50991
G1 X9.5 Y9.5 E293.03941
G1 X9.5 Y0.00 E295.80416
G1 X9.5 Y-9.5 E298.56891
G1 X-9.5 Y-9.5 E304.0984
G0 F2400 X-9.5 Y-9
G0 X-7.93 Y-7.93
G0 X-6.55 Y-6.55
;TYPE:SKIN
G1 F600 X-6.55 Y6.55 E307.91085
G1 X6.55 Y6.55 E311.72329
G1 X6.55 Y0.00 E313.62951
G1 X6.55 Y-6.55 E315.53573
G1 X-6.55 Y-6.55 E319.34817
G0 F2400 X5.264 Y-6.049
G1 F600 X6.049 Y-5.264 E319.67126
G0 F2400 X6.049 Y-3.85
G1 F600 X3.85 Y-6.049 E320.57631
G0 F2400 X2.435 Y-6.049
G1 F600 X6.049 Y-2.435 E322.06373
G0 F2400 X6.049 Y-1.021
G1 F600 X1.021 Y-6.049 E324.13312
G0 F2400 X-.392 Y-6.049
G1 F600 X6.049 Y0.392 E326.78407
G0 F2400 X6.049 Y1.806
G1 F600 X-1.806 Y-6.049 E330.01697
G0 F2400 X-3.22 Y-6.049
G1 F600 X6.049 Y3.22 E333.83185
G0 F2400 X6.049 Y4.635
G1 F600 X-4.635 Y-6.049 E338.22909
G0 F2400 X-6.049 Y-6.049
G1 F600 X6.049 Y6.049 E343.20831
G0 F2400 X4.635 Y6.049
G1 F600 X-6.049 Y-4.635 E347.60555
G0 F2400 X-6.049 Y-3.22
G1 F600 X3.22 Y6.049 E351.42043
G0 F2400 X1.806 Y6.049
G1 F600 X-6.049 Y-1.806 E354.65333
G0 F2400 X-6.049 Y-.392
G1 F600 X0.392 Y6.049 E357.30428
G0 F2400 X-1.021 Y6.049
G1 F600 X-6.049 Y1.021 E359.37367
G0 F2400 X-6.049 Y2.435
G1 F600 X-2.435 Y6.049 E360.86109
G0 F2400 X-3.85 Y6.049
G1 F600 X-6.049 Y3.85 E361.76614
G0 F2400 X-6.049 Y5.264
G1 F600 X-5.264 Y6.049 E362.08923
;MESH:NONMESH
G0 X-5.264 Y6.049 Z1.5
G0 F2400 X-7.099 Y4.214
;TIME_ELAPSED:127.445953
;LAYER:1
M106 S255
;TYPE:FILL
;MESH:Cubo de calibracion XYZ Santty.stl
G1 F900 X-4.214 Y7.099 E363.44624
G1 X-4.038 Y7.275
G0 F3600 X-7.099 Y7.099
G1 F900 X7.099 Y-7.099 E370.12455
G1 X7.275 Y-7.275
G0 F3600 X4.214 Y-7.099
G1 F900 X7.099 Y-4.214 E371.48156
G1 X7.275 Y-4.038
G0 F3600 X7.099 Y4.214
G1 F900 X4.214 Y7.099 E372.83858
G1 X4.038 Y7.275
G0 F3600 X7.099 Y7.099
G1 F900 X-7.099 Y-7.099 E379.51688
G1 X-7.275 Y-7.275
G0 F3600 X-7.099 Y-4.214
G1 F900 X-4.214 Y-7.099 E380.8739
G1 X-4.038 Y-7.275
G0 F3600 X-7.5 Y-7.5
;TYPE:WALL-INNER
G1 F900 X-7.5 Y7.5 E385.86292
G1 X7.5 Y7.5 E390.85194
G1 X7.5 Y0.00 E393.34645
G1 X7.5 Y-7.5 E395.84096
G1 X-7.5 Y-7.5 E400.82998
G0 F3600 X-8.5 Y-8.5
G1 F900 X-8.5 Y8.5 E406.4842
G1 X8.5 Y8.5 E412.13842
G1 X8.5 Y0.00 E414.96553
G1 X8.5 Y-8.5 E417.79265
G1 X-8.5 Y-8.5 E423.44687
G0 F3600 X-7.93 Y-7.93
G0 X-9.5 Y-9.5
;TYPE:WALL-OUTER
G1 F600 X-9.5 Y9.5 E429.76629
G1 X9.5 Y9.5 E436.08572
G1 X9.5 Y0.00 E439.24543
G1 X9.5 Y-9.5 E442.40515
G1 X-9.5 Y-9.5 E448.72457
G0 F3600 X-9.5 Y-9
G0 X-7 Y-7.293
;MESH:NONMESH
G0 F600 X-7 Y-7.293 Z2.3
G0 F3600 X-7.099 Y4.214
;TIME_ELAPSED:148.459325
;LAYER:2
;TYPE:FILL
;MESH:Cubo de calibracion XYZ Santty.stl
G1 F1200 X-4.214 Y7.099 E450.08159
G1 X-4.038 Y7.275
G0 F4800 X-7.099 Y7.099
G1 F1200 X7.099 Y-7.099 E456.75989
G1 X7.275 Y-7.275
G0 F4800 X4.214 Y-7.099
G1 F1200 X7.099 Y-4.214 E458.11691
G1 X7.275 Y-4.038
G0 F4800 X7.099 Y4.214
G1 F1200 X4.214 Y7.099 E459.47392
G1 X4.038 Y7.275
G0 F4800 X7.099 Y7.099
G1 F1200 X-7.099 Y-7.099 E466.15223
G1 X-7.275 Y-7.275
G0 F4800 X-7.099 Y-4.214
G1 F1200 X-4.214 Y-7.099 E467.50924
G1 X-4.038 Y-7.275
G0 F4800 X-7.5 Y-7.5
;TYPE:WALL-INNER
G1 F1200 X-7.5 Y7.5 E472.49826
G1 X7.5 Y7.5 E477.48728
G1 X7.5 Y-7.5 E482.4763
G1 X-7.5 Y-7.5 E487.46532
G0 F4800 X-8.5 Y-8.5
G1 F1200 X-8.5 Y8.5 E493.11955
G1 X8.5 Y8.5 E498.77377
G1 X8.5 Y-8.5 E504.42799
G1 X-8.5 Y-8.5 E510.08221
G0 F4800 X-7.93 Y-7.93
G0 X-9.5 Y-9.5
;TYPE:WALL-OUTER
G1 F600 X-9.5 Y9.5 E516.40164
G1 X9.5 Y9.5 E522.72107
G1 X9.5 Y-9.5 E529.04049
G1 X-9.5 Y-9.5 E535.35992
G0 F4800 X-9.5 Y-9
G0 X-7 Y-7.293
;MESH:NONMESH
G0 F600 X-7 Y-7.293 Z3.1
G0 F4800 X-7.099 Y4.214
;TIME_ELAPSED:166.246223
;LAYER:3
;TYPE:FILL
;MESH:Cubo de calibracion XYZ Santty.stl
G1 F1200 X-4.214 Y7.099 E536.71693
G1 X-4.038 Y7.275
G0 F4800 X-7.099 Y7.099
G1 F1200 X7.099 Y-7.099 E543.39524
G1 X7.275 Y-7.275
G0 F4800 X4.214 Y-7.099
G1 F1200 X7.099 Y-4.214 E544.75225
G1 X7.275 Y-4.038
G0 F4800 X7.099 Y4.214
G1 F1200 X4.214 Y7.099 E546.10927
G1 X4.038 Y7.275
G0 F4800 X7.099 Y7.099
G1 F1200 X-7.099 Y-7.099 E552.78757
G1 X-7.275 Y-7.275
G0 F4800 X-7.099 Y-4.214
G1 F1200 X-4.214 Y-7.099 E554.14459
G1 X-4.038 Y-7.275
G0 F4800 X-7.5 Y-7.5
;TYPE:WALL-INNER
G1 F1200 X-7.5 Y7.5 E559.13361
G1 X7.5 Y7.5 E564.12263
G1 X7.5 Y0.00 E566.61714
G1 X7.5 Y-7.5 E569.11165
G1 X-7.5 Y-7.5 E574.10067
G0 F4800 X-8.5 Y-8.5
G1 F1200 X-8.5 Y8.5 E579.75489
G1 X8.5 Y8.5 E585.40911
G1 X8.5 Y0.00 E588.23623
G1 X8.5 Y-8.5 E591.06334
G1 X-8.5 Y-8.5 E596.71756
G0 F4800 X-7.93 Y-7.93
G0 X-9.5 Y-9.5
;TYPE:WALL-OUTER
G1 F600 X-9.5 Y9.5 E603.03699
G1 X9.5 Y9.5 E609.35641
G1 X9.5 Y0.00 E612.51612
G1 X9.5 Y-9.5 E615.67584
G1 X-9.5 Y-9.5 E621.99526
