;FLAVOR:Marlin
;TIME:388
;Filament used: 2.65808m
;Layer height: 0.7
;MINX:-17.5
;MINY:-17.5
;MINZ:0.5
;MAXX:17.5
;MAXY:17.5
;MAXZ:20.1
;Generated with Cura_SteamEngine 5.2.2
;M104 S200
;M105
;M109 S200
M82 ;absolute extrusion mode
;G28 ;Home
G1 Z15.0 F6000 ;Move the platform down 15mm
;Prime the extruder
G92 E0
G1 F200 E3
G92 E0
G92 E0
G92 E0
;LAYER_COUNT:29
;LAYER:0
M107
G0 F2400 X17.5 Y-10 Z0.5
;TYPE:SKIRT
G1 F1200 X17.5 Y10 E4.15752
G1 X17.46 Y10.773 E4.31842
G1 X17.341 Y11.538 E4.47936
G1 X17.143 Y12.287 E4.6404
G1 X16.869 Y13.011 E4.80132
G1 X16.522 Y13.704 E4.96243
G1 X16.105 Y14.356 E5.12332
G1 X15.623 Y14.962 E5.28428
G1 X15.082 Y15.516 E5.44524
G1 X14.486 Y16.01 E5.60616
G1 X13.842 Y16.441 E5.76725
G1 X13.158 Y16.803 E5.92812
G1 X12.44 Y17.092 E6.08901
G1 X11.695 Y17.306 E6.25014
G1 X10.933 Y17.442 E6.41105
G1 X10 Y17.5 E6.60537
G1 X-10 Y17.5 E10.76289
G1 X-10.773 Y17.46 E10.92379
G1 X-11.538 Y17.341 E11.08473
G1 X-12.287 Y17.143 E11.24578
G1 X-13.011 Y16.869 E11.4067
G1 X-13.704 Y16.522 E11.5678
G1 X-14.356 Y16.105 E11.72869
G1 X-14.962 Y15.623 E11.88965
G1 X-15.516 Y15.082 E12.05062
G1 X-16.01 Y14.486 E12.21154
G1 X-16.441 Y13.842 E12.37262
G1 X-16.803 Y13.158 E12.53349
G1 X-17.092 Y12.44 E12.69439
G1 X-17.306 Y11.695 E12.85552
G1 X-17.442 Y10.933 E13.01642
G1 X-17.5 Y10 E13.21074
G1 X-17.5 Y-10 E17.36826
G1 X-17.46 Y-10.773 E17.52916
G1 X-17.341 Y-11.538 E17.6901
G1 X-17.143 Y-12.287 E17.85115
G1 X-16.869 Y-13.011 E18.01207
G1 X-16.522 Y-13.704 E18.17318
G1 X-16.105 Y-14.356 E18.33406
G1 X-15.623 Y-14.962 E18.49502
G1 X-15.082 Y-15.516 E18.65599
G1 X-14.486 Y-16.01 E18.81691
G1 X-13.842 Y-16.441 E18.97799
G1 X-13.158 Y-16.803 E19.13887
G1 X-12.44 Y-17.092 E19.29976
G1 X-11.695 Y-17.306 E19.46089
G1 X-10.933 Y-17.442 E19.62179
G1 X-10 Y-17.5 E19.81611
G1 X10 Y-17.5 E23.97363
G1 X10.773 Y-17.46 E24.13453
G1 X11.538 Y-17.341 E24.29547
G1 X12.287 Y-17.143 E24.45652
G1 X13.011 Y-16.869 E24.61744
G1 X13.704 Y-16.522 E24.77855
G1 X14.356 Y-16.105 E24.93943
G1 X14.962 Y-15.623 E25.10039
G1 X15.516 Y-15.082 E25.26136
G1 X16.01 Y-14.486 E25.42228
G1 X16.441 Y-13.842 E25.58336
G1 X16.803 Y-13.158 E25.74424
G1 X17.092 Y-12.44 E25.90513
G1 X17.306 Y-11.695 E26.06626
G1 X17.442 Y-10.933 E26.22716
G1 X17.5 Y-10 E26.42149
G0 F2400 X16.5 Y-10
G1 F1200 X16.5 Y10 E30.579
G1 X16.46 Y10.72 E30.7289
G1 X16.341 Y11.431 E30.87876
G1 X16.143 Y12.124 E31.02858
G1 X15.87 Y12.791 E31.1784
G1 X15.525 Y13.424 E31.32826
G1 X15.112 Y14.015 E31.47814
G1 X14.636 Y14.556 E31.62793
G1 X14.103 Y15.041 E31.77774
G1 X13.52 Y15.465 E31.92759
G1 X12.893 Y15.821 E32.07747
G1 X12.231 Y16.105 E32.22721
G1 X11.541 Y16.315 E32.37714
G1 X10.832 Y16.446 E32.52702
G1 X10 Y16.5 E32.70034
G1 X-10 Y16.5 E36.85786
G1 X-10.72 Y16.46 E37.00776
G1 X-11.431 Y16.341 E37.15761
G1 X-12.124 Y16.143 E37.30744
G1 X-12.791 Y15.87 E37.45725
G1 X-13.424 Y15.525 E37.60711
G1 X-14.015 Y15.112 E37.75699
G1 X-14.556 Y14.636 E37.90679
G1 X-15.041 Y14.103 E38.05659
G1 X-15.465 Y13.52 E38.20644
G1 X-15.821 Y12.893 E38.35633
G1 X-16.105 Y12.231 E38.50607
G1 X-16.315 Y11.541 E38.656
G1 X-16.446 Y10.832 E38.80588
G1 X-16.5 Y10 E38.97919
G1 X-16.5 Y-10 E43.13671
G1 X-16.46 Y-10.72 E43.28661
G1 X-16.341 Y-11.431 E43.43647
G1 X-16.143 Y-12.124 E43.58629
G1 X-15.87 Y-12.791 E43.73611
G1 X-15.525 Y-13.424 E43.88597
G1 X-15.112 Y-14.015 E44.03585
G1 X-14.636 Y-14.556 E44.18564
G1 X-14.103 Y-15.041 E44.33544
G1 X-13.52 Y-15.465 E44.4853
G1 X-12.893 Y-15.821 E44.63518
G1 X-12.231 Y-16.105 E44.78492
G1 X-11.541 Y-16.315 E44.93485
G1 X-10.832 Y-16.446 E45.08473
G1 X-10 Y-16.5 E45.25805
G1 X10 Y-16.5 E49.41556
G1 X10.72 Y-16.46 E49.56547
G1 X11.431 Y-16.341 E49.71532
G1 X12.124 Y-16.143 E49.86514
G1 X12.791 Y-15.87 E50.01496
G1 X13.424 Y-15.525 E50.16482
G1 X14.015 Y-15.112 E50.3147
G1 X14.556 Y-14.636 E50.4645
G1 X15.041 Y-14.103 E50.6143
G1 X15.465 Y-13.52 E50.76415
G1 X15.821 Y-12.893 E50.91403
G1 X16.105 Y-12.231 E51.06378
G1 X16.315 Y-11.541 E51.21371
G1 X16.446 Y-10.832 E51.36358
G1 X16.5 Y-10 E51.5369
G0 F2400 X15.5 Y-10
G1 F1200 X15.5 Y10 E55.69442
G1 X15.46 Y10.662 E55.83228
G1 X15.341 Y11.314 E55.97006
G1 X15.144 Y11.947 E56.10787
G1 X14.872 Y12.552 E56.24576
G1 X14.53 Y13.12 E56.38358
G1 X14.121 Y13.642 E56.52143
G1 X13.653 Y14.112 E56.65931
G1 X13.132 Y14.521 E56.797
G1 X12.565 Y14.865 E56.93486
G1 X11.961 Y15.139 E57.07274
G1 X11.328 Y15.337 E57.21061
G1 X10.677 Y15.458 E57.34825
G1 X10 Y15.5 E57.48926
G1 X-10 Y15.5 E61.64677
G1 X-10.662 Y15.46 E61.78464
G1 X-11.314 Y15.341 E61.92241
G1 X-11.947 Y15.144 E62.06022
G1 X-12.552 Y14.872 E62.19811
G1 X-13.12 Y14.53 E62.33594
G1 X-13.642 Y14.121 E62.47379
G1 X-14.112 Y13.653 E62.61167
G1 X-14.521 Y13.132 E62.74936
G1 X-14.865 Y12.565 E62.88722
G1 X-15.139 Y11.961 E63.02509
G1 X-15.337 Y11.328 E63.16296
G1 X-15.458 Y10.677 E63.30061
G1 X-15.5 Y10 E63.44161
G1 X-15.5 Y-10 E67.59913
G1 X-15.46 Y-10.662 E67.73699
G1 X-15.341 Y-11.314 E67.87476
G1 X-15.144 Y-11.947 E68.01258
G1 X-14.872 Y-12.552 E68.15047
G1 X-14.53 Y-13.12 E68.28829
G1 X-14.121 Y-13.642 E68.42614
G1 X-13.653 Y-14.112 E68.56402
G1 X-13.132 Y-14.521 E68.70171
G1 X-12.565 Y-14.865 E68.83957
G1 X-11.961 Y-15.139 E68.97744
G1 X-11.328 Y-15.337 E69.11532
G1 X-10.677 Y-15.458 E69.25296
G1 X-10 Y-15.5 E69.39396
G1 X10 Y-15.5 E73.55148
G1 X10.662 Y-15.46 E73.68935
G1 X11.314 Y-15.341 E73.82712
G1 X11.947 Y-15.144 E73.96493
G1 X12.552 Y-14.872 E74.10282
G1 X13.12 Y-14.53 E74.24064
G1 X13.642 Y-14.121 E74.3785
G1 X14.112 Y-13.653 E74.51637
G1 X14.521 Y-13.132 E74.65406
G1 X14.865 Y-12.565 E74.79193
G1 X15.139 Y-11.961 E74.9298
G1 X15.337 Y-11.328 E75.06767
G1 X15.458 Y-10.677 E75.20531
G1 X15.5 Y-10 E75.34632
G0 F2400 X14.5 Y-10.328
G1 F1200 X14.5 Y10 E79.57202
G1 X14.46 Y10.598 E79.69661
G1 X14.341 Y11.186 E79.82131
G1 X14.145 Y11.753 E79.94602
G1 X13.875 Y12.288 E80.0706
G1 X13.536 Y12.783 E80.19531
G1 X13.135 Y13.229 E80.31999
G1 X12.678 Y13.617 E80.44461
G1 X12.173 Y13.941 E80.56934
G1 X11.63 Y14.195 E80.69395
G1 X11.057 Y14.374 E80.81874
G1 X10.328 Y14.5 E80.97253
G1 X-10 Y14.5 E85.19823
G1 X-10.598 Y14.46 E85.32282
G1 X-11.186 Y14.341 E85.44753
G1 X-11.753 Y14.145 E85.57223
G1 X-12.288 Y13.875 E85.69681
G1 X-12.783 Y13.536 E85.82152
G1 X-13.229 Y13.135 E85.9462
G1 X-13.617 Y12.678 E86.07082
G1 X-13.941 Y12.173 E86.19555
G1 X-14.195 Y11.63 E86.32016
G1 X-14.374 Y11.057 E86.44495
G1 X-14.5 Y10.328 E86.59874
G1 X-14.5 Y-10 E90.82444
G1 X-14.46 Y-10.598 E90.94903
G1 X-14.341 Y-11.186 E91.07374
G1 X-14.145 Y-11.753 E91.19845
G1 X-13.875 Y-12.288 E91.32302
G1 X-13.536 Y-12.783 E91.44774
G1 X-13.135 Y-13.229 E91.57241
G1 X-12.678 Y-13.617 E91.69703
G1 X-12.173 Y-13.941 E91.82176
G1 X-11.63 Y-14.195 E91.94637
G1 X-11.057 Y-14.374 E92.07116
G1 X-10.328 Y-14.5 E92.22495
G1 X10 Y-14.5 E96.45065
G1 X10.598 Y-14.46 E96.57524
G1 X11.186 Y-14.341 E96.69995
G1 X11.753 Y-14.145 E96.82466
G1 X12.288 Y-13.875 E96.94923
G1 X12.783 Y-13.536 E97.07395
G1 X13.229 Y-13.135 E97.19862
G1 X13.617 Y-12.678 E97.32325
G1 X13.941 Y-12.173 E97.44797
G1 X14.195 Y-11.63 E97.57259
G1 X14.374 Y-11.057 E97.69738
G1 X14.5 Y-10.328 E97.85116
G0 F2400 X13.5 Y-10
G1 F1200 X13.5 Y10 E102.00868
G1 X13.46 Y10.527 E102.11855
G1 X13.341 Y11.042 E102.22842
G1 X13.146 Y11.534 E102.33844
G1 X12.879 Y11.99 E102.44828
G1 X12.546 Y12.401 E102.55824
G1 X12.155 Y12.758 E102.66831
G1 X11.715 Y13.051 E102.7782
G1 X11.236 Y13.274 E102.88803
G1 X10.729 Y13.423 E102.99788
G1 X10 Y13.5 E103.15026
G1 X-10 Y13.5 E107.30778
G1 X-10.527 Y13.46 E107.41765
G1 X-11.042 Y13.341 E107.52752
G1 X-11.534 Y13.146 E107.63754
G1 X-11.99 Y12.879 E107.74738
G1 X-12.401 Y12.546 E107.85734
G1 X-12.758 Y12.155 E107.96741
G1 X-13.051 Y11.715 E108.0773
G1 X-13.274 Y11.236 E108.18713
G1 X-13.423 Y10.729 E108.29698
G1 X-13.5 Y10 E108.44937
G1 X-13.5 Y-10 E112.60688
G1 X-13.46 Y-10.527 E112.71675
G1 X-13.341 Y-11.042 E112.82662
G1 X-13.146 Y-11.534 E112.93664
G1 X-12.879 Y-11.99 E113.04648
G1 X-12.546 Y-12.401 E113.15645
G1 X-12.155 Y-12.758 E113.26651
G1 X-11.715 Y-13.051 E113.3764
G1 X-11.236 Y-13.274 E113.48623
G1 X-10.729 Y-13.423 E113.59608
G1 X-10 Y-13.5 E113.74847
G1 X10 Y-13.5 E117.90598
G1 X10.527 Y-13.46 E118.01585
G1 X11.042 Y-13.341 E118.12573
G1 X11.534 Y-13.146 E118.23574
G1 X11.99 Y-12.879 E118.34559
G1 X12.401 Y-12.546 E118.45555
G1 X12.758 Y-12.155 E118.56561
G1 X13.051 Y-11.715 E118.6755
G1 X13.274 Y-11.236 E118.78533
G1 X13.423 Y-10.729 E118.89518
G1 X13.5 Y-10 E119.04757
G0 F2400 X12.5 Y-10.244
G1 F1200 X12.5 Y10 E123.25581
G1 X12.46 Y10.445 E123.34868
G1 X12.342 Y10.876 E123.44157
G1 X12.148 Y11.279 E123.53455
G1 X11.886 Y11.641 E123.62744
G1 X11.564 Y11.95 E123.72021
G1 X11.192 Y12.197 E123.81304
G1 X10.782 Y12.375 E123.90595
G1 X10.244 Y12.5 E124.02077
G1 X-10 Y12.5 E128.22901
G1 X-10.445 Y12.46 E128.32188
G1 X-10.876 Y12.342 E128.41478
G1 X-11.279 Y12.148 E128.50775
G1 X-11.641 Y11.886 E128.60064
G1 X-11.95 Y11.564 E128.69341
G1 X-12.197 Y11.192 E128.78624
G1 X-12.375 Y10.782 E128.87915
G1 X-12.5 Y10.244 E128.99397
G1 X-12.5 Y-10 E133.20221
G1 X-12.46 Y-10.445 E133.29508
G1 X-12.342 Y-10.876 E133.38798
G1 X-12.148 Y-11.279 E133.48095
G1 X-11.886 Y-11.641 E133.57384
G1 X-11.564 Y-11.95 E133.66661
G1 X-11.192 Y-12.197 E133.75944
G1 X-10.782 Y-12.375 E133.85235
G1 X-10.244 Y-12.5 E133.96717
G1 X10 Y-12.5 E138.17541
G1 X10.445 Y-12.46 E138.26829
G1 X10.876 Y-12.342 E138.36118
G1 X11.279 Y-12.148 E138.45415
G1 X11.641 Y-11.886 E138.54704
G1 X11.95 Y-11.564 E138.63982
G1 X12.197 Y-11.192 E138.73264
G1 X12.375 Y-10.782 E138.82555
G1 X12.5 Y-10.244 E138.94037
G0 F2400 X11.5 Y-10.195
G1 F1200 X11.5 Y10 E143.13842
G1 X11.46 Y10.344 E143.21041
G1 X11.343 Y10.669 E143.28222
G1 X11.154 Y10.959 E143.35417
G1 X10.904 Y11.197 E143.42593
G1 X10.605 Y11.372 E143.49795
G1 X10.195 Y11.5 E143.58723
G1 X-10 Y11.5 E147.78528
G1 X-10.344 Y11.46 E147.85728
G1 X-10.669 Y11.343 E147.92908
G1 X-10.959 Y11.154 E148.00104
G1 X-11.197 Y10.904 E148.07279
G1 X-11.372 Y10.605 E148.14481
G1 X-11.5 Y10.195 E148.23409
G1 X-11.5 Y-10 E152.43215
G1 X-11.46 Y-10.344 E152.50414
G1 X-11.343 Y-10.669 E152.57594
G1 X-11.154 Y-10.959 E152.6479
G1 X-10.904 Y-11.197 E152.71965
G1 X-10.605 Y-11.372 E152.79167
G1 X-10.195 Y-11.5 E152.88096
G1 X10 Y-11.5 E157.07901
G1 X10.344 Y-11.46 E157.151
G1 X10.669 Y-11.343 E157.2228
G1 X10.959 Y-11.154 E157.29476
G1 X11.197 Y-10.904 E157.36651
G1 X11.372 Y-10.605 E157.43853
G1 X11.5 Y-10.195 E157.52782
G0 F2400 X10.5 Y-10
G1 F1200 X10.5 Y10 E161.68533
G1 X10.46 Y10.195 E161.72671
G1 X10.348 Y10.359 E161.768
G1 X10.18 Y10.466 E161.8094
G1 X10 Y10.5 E161.84748
G1 X-10 Y10.5 E166.005
G1 X-10.195 Y10.46 E166.04638
G1 X-10.359 Y10.348 E166.08766
G1 X-10.466 Y10.18 E166.12907
G1 X-10.5 Y10 E166.16714
G1 X-10.5 Y-10 E170.32466
G1 X-10.46 Y-10.195 E170.36604
G1 X-10.348 Y-10.359 E170.40732
G1 X-10.18 Y-10.466 E170.44873
G1 X-10 Y-10.5 E170.48681
G1 X10 Y-10.5 E174.64433
G1 X10.195 Y-10.46 E174.68571
G1 X10.359 Y-10.348 E174.72699
G1 X10.466 Y-10.18 E174.76839
G1 X10.5 Y-10 E174.80647
;MESH:Cubo de calibracion XYZ Santty.stl
G0 F2400 X8.986 Y-8.986
G0 X-7.5 Y-7.5
;TYPE:WALL-INNER
G1 F1200 X-7.5 Y7.5 E177.92461
G1 X7.5 Y7.5 E181.04275
G1 X7.5 Y-7.5 E184.16089
G1 X-7.5 Y-7.5 E187.27902
G0 F2400 X-8.5 Y-8.5
G1 F1200 X-8.5 Y8.5 E190.81291
G1 X8.5 Y8.5 E194.3468
G1 X8.5 Y-8.5 E197.88069
G1 X-8.5 Y-8.5 E201.41458
G0 F2400 X-7.93 Y-7.93
G0 X-8.93 Y-8.93
G0 X-9.5 Y-9.5
;TYPE:WALL-OUTER
G1 F1200 X-9.5 Y9.5 E205.36422
G1 X9.5 Y9.5 E209.31386
G1 X9.5 Y-9.5 E213.2635
G1 X-9.5 Y-9.5 E217.21314
G0 F2400 X-9.5 Y-9
G0 X-7.93 Y-7.93
G0 X-6.55 Y-6.55
;TYPE:SKIN
G1 F1200 X-6.55 Y6.55 E219.93632
G1 X6.55 Y6.55 E222.65949
G1 X6.55 Y0.00 E224.02108
G1 X6.55 Y-6.55 E225.38267
G1 X-6.55 Y-6.55 E228.10584
G0 F2400 X5.264 Y-6.049
G1 F1200 X6.049 Y-5.264 E228.33661
G0 F2400 X6.049 Y-3.85
G1 F1200 X3.85 Y-6.049 E228.98308
G0 F2400 X2.435 Y-6.049
G1 F1200 X6.049 Y-2.435 E230.04552
G0 F2400 X6.049 Y-1.021
G1 F1200 X1.021 Y-6.049 E231.52366
G0 F2400 X-.392 Y-6.049
G1 F1200 X6.049 Y0.392 E233.41719
G0 F2400 X6.049 Y1.806
G1 F1200 X-1.806 Y-6.049 E235.72641
G0 F2400 X-3.22 Y-6.049
G1 F1200 X6.049 Y3.22 E238.45132
G0 F2400 X6.049 Y4.635
G1 F1200 X-4.635 Y-6.049 E241.59221
G0 F2400 X-6.049 Y-6.049
G1 F1200 X6.049 Y6.049 E245.14879
G0 F2400 X4.635 Y6.049
G1 F1200 X-6.049 Y-4.635 E248.28968
G0 F2400 X-6.049 Y-3.22
G1 F1200 X3.22 Y6.049 E251.01459
G0 F2400 X1.806 Y6.049
G1 F1200 X-6.049 Y-1.806 E253.32381
G0 F2400 X-6.049 Y-.392
G1 F1200 X0.392 Y6.049 E255.21734
G0 F2400 X-1.021 Y6.049
G1 F1200 X-6.049 Y1.021 E256.69548
G0 F2400 X-6.049 Y2.435
G1 F1200 X-2.435 Y6.049 E257.75792
G0 F2400 X-3.85 Y6.049
G1 F1200 X-6.049 Y3.85 E258.40439
G0 F2400 X-6.049 Y5.264
G1 F1200 X-5.264 Y6.049 E258.63516
;MESH:NONMESH
G0 F600 X-5.264 Y6.049 Z1.2
G0 F2400 X-7.5 Y-7.5
;TIME_ELAPSED:65.106013
;LAYER:1
M106 S255
;TYPE:WALL-INNER
;MESH:Cubo de calibracion XYZ Santty.stl
G1 F1800 X-7.5 Y7.5 E263.00055
G1 X7.5 Y7.5 E267.36595
G1 X7.5 Y0.00 E269.54864
G1 X7.5 Y-7.5 E271.73134
G1 X-7.5 Y-7.5 E276.09673
G0 F3600 X-8.5 Y-8.5
G1 F1800 X-8.5 Y8.5 E281.04418
G1 X8.5 Y8.5 E285.99162
G1 X8.5 Y0.00 E288.46534
G1 X8.5 Y-8.5 E290.93907
G1 X-8.5 Y-8.5 E295.88651
G0 F3600 X-7.93 Y-7.93
G0 X-8.93 Y-8.93
G0 X-9.5 Y-9.5
;TYPE:WALL-OUTER
G1 F1200 X-9.5 Y9.5 E301.41601
G1 X9.5 Y9.5 E306.94551
G1 X9.5 Y0.00 E309.71026
G1 X9.5 Y-9.5 E312.475
G1 X-9.5 Y-9.5 E318.0045
G0 F3600 X-9.5 Y-9
G0 X-7.93 Y-7.93
G0 X-6.55 Y-6.55
;TYPE:SKIN
G1 F1200 X-6.55 Y6.55 E321.81695
G1 X6.55 Y6.55 E325.62939
G1 X6.55 Y0.00 E327.53561
G1 X6.55 Y-6.55 E329.44183
G1 X-6.55 Y-6.55 E333.25427
G0 F3600 X-6.049 Y-5.264
G1 F1200 X-5.264 Y-6.049 E333.57736
G0 F3600 X-3.85 Y-6.049
G1 F1200 X-6.049 Y-3.85 E334.48241
G0 F3600 X-6.049 Y-2.435
G1 F1200 X-2.435 Y-6.049 E335.96983
G0 F3600 X-1.021 Y-6.049
G1 F1200 X-6.049 Y-1.021 E338.03922
G0 F3600 X-6.049 Y0.392
G1 F1200 X0.392 Y-6.049 E340.69017
G0 F3600 X1.806 Y-6.049
G1 F1200 X-6.049 Y1.806 E343.92307
G0 F3600 X-6.049 Y3.22
G1 F1200 X3.22 Y-6.049 E347.73795
G0 F3600 X4.635 Y-6.049
G1 F1200 X-6.049 Y4.635 E352.13519
G0 F3600 X-6.049 Y6.049
G1 F1200 X6.049 Y-6.049 E357.11441
G0 F3600 X6.049 Y-4.635
G1 F1200 X-4.635 Y6.049 E361.51165
G0 F3600 X-3.22 Y6.049
G1 F1200 X6.049 Y-3.22 E365.32653
G0 F3600 X6.049 Y-1.806
G1 F1200 X-1.806 Y6.049 E368.55943
G0 F3600 X-.392 Y6.049
G1 F1200 X6.049 Y-.392 E371.21038
G0 F3600 X6.049 Y1.021
G1 F1200 X1.021 Y6.049 E373.27977
G0 F3600 X2.435 Y6.049
G1 F1200 X6.049 Y2.435 E374.76719
G0 F3600 X6.049 Y3.85
G1 F1200 X3.85 Y6.049 E375.67224
G0 F3600 X5.264 Y6.049
G1 F1200 X6.049 Y5.264 E375.99533
;MESH:NONMESH
G0 F600 X6.049 Y5.264 Z1.9
G0 F3600 X-7.099 Y4.214
;TIME_ELAPSED:84.312710
;LAYER:2
;TYPE:FILL
;MESH:Cubo de calibracion XYZ Santty.stl
G1 F2400 X-4.214 Y7.099 E377.18271
G1 X-4.038 Y7.275
G0 F4800 X-7.099 Y7.099
G1 F2400 X7.099 Y-7.099 E383.02623
G1 X7.275 Y-7.275
G0 F4800 X4.214 Y-7.099
G1 F2400 X7.099 Y-4.214 E384.21362
G1 X7.275 Y-4.038
G0 F4800 X7.099 Y4.214
G1 F2400 X4.214 Y7.099 E385.40101
G1 X4.038 Y7.275
G0 F4800 X7.099 Y7.099
G1 F2400 X-7.099 Y-7.099 E391.24452
G1 X-7.275 Y-7.275
G0 F4800 X-7.099 Y-4.214
G1 F2400 X-4.214 Y-7.099 E392.43191
G1 X-4.038 Y-7.275
G0 F4800 X-7.5 Y-7.5
;TYPE:WALL-INNER
G1 F2400 X-7.5 Y7.5 E396.7973
G1 X7.5 Y7.5 E401.1627
G1 X7.5 Y0.00 E403.34539
G1 X7.5 Y-7.5 E405.52809
G1 X-7.5 Y-7.5 E409.89348
G0 F4800 X-8.5 Y-8.5
G1 F2400 X-8.5 Y8.5 E414.84093
G1 X8.5 Y8.5 E419.78837
G1 X8.5 Y0.00 E422.26209
G1 X8.5 Y-8.5 E424.73582
G1 X-8.5 Y-8.5 E429.68326
G0 F4800 X-7.93 Y-7.93
G0 X-8.93 Y-8.93
G0 X-9.5 Y-9.5
;TYPE:WALL-OUTER
G1 F1200 X-9.5 Y9.5 E435.21276
G1 X9.5 Y9.5 E440.74226
G1 X9.5 Y0.00 E443.50701
G1 X9.5 Y-9.5 E446.27175
G1 X-9.5 Y-9.5 E451.80125
G0 F4800 X-9.5 Y-9
G0 X-7 Y-7.293
;MESH:NONMESH
G0 F600 X-7 Y-7.293 Z2.6
G0 F4800 X-7.099 Y4.214
;TIME_ELAPSED:93.700279
;LAYER:3
;TYPE:FILL
;MESH:Cubo de calibracion XYZ Santty.stl
G1 F2400 X-4.214 Y7.099 E452.98864
G1 X-4.038 Y7.275
G0 F4800 X-7.099 Y7.099
G1 F2400 X7.099 Y-7.099 E458.83216
G1 X7.275 Y-7.275
G0 F4800 X4.214 Y-7.099
G1 F2400 X7.099 Y-4.214 E460.01955
